(G-CODE GENERATED BY FLATCAM v8.994 - www.flatcam.org - Version Date: 2020/11/7)

(Name: copper_bottom.gbr_ncc_rough)
(Type: G-code from Geometry)
(Units: MM)

(Created on Saturday, 14 November 2020 at 13:47)

(This preprocessor is used with a motion controller loaded with GRBL firmware.)
(It is configured to be compatible with almost any version of GRBL firmware.)

(TOOL DIAMETER: 0.8 mm)
(Feedrate_XY: 300.0 mm/min)
(Feedrate_Z: 60.0 mm/min)
(Feedrate rapids 1500.0 mm/min)

(Z_Cut: -0.2 mm)
(Z_Move: 0.5 mm)
(Z Start: None mm)
(Z End: 15.0 mm)
(X,Y End: 0.0000, 0.0000 mm)
(Steps per circle: 64)
(Steps per circle: 64)
(Preprocessor Geometry: GRBL_11_no_M6)

(X range:    0.0000 ...    0.0000  mm)
(Y range:    0.0000 ...    0.0000  mm)

(Spindle Speed: 1000.0 RPM)
G21
G90
G17
G94


G01 F300.00

M5             
G00 Z15.0000
G00 X0.0000 Y0.0000                
T1
(MSG, Change to Tool Dia = 0.8000)
M0
G00 Z15.0000
        
M03 S1000.0
G01 F300.00
G00 X-2.9706 Y2.1529
G01 F60.00
G01 Z-0.2000
G01 F300.00
G01 X-2.9883 Y2.2047 F300.00
G01 X-3.0051 Y2.2511 F300.00
G01 X-3.0255 Y2.3050 F300.00
G01 X-3.0491 Y2.3645 F300.00
G01 X-3.0725 Y2.4205 F300.00
G01 X-3.0956 Y2.4728 F300.00
G01 X-3.1186 Y2.5228 F300.00
G01 X-3.1419 Y2.5714 F300.00
G01 X-3.1697 Y2.6266 F300.00
G01 X-3.1931 Y2.6713 F300.00
G01 X-3.2178 Y2.7167 F300.00
G01 X-3.2480 Y2.7699 F300.00
G01 X-3.2808 Y2.8255 F300.00
G01 X-3.3050 Y2.8651 F300.00
G01 X-3.3378 Y2.9169 F300.00
G01 X-3.3709 Y2.9670 F300.00
G01 X-3.4010 Y3.0109 F300.00
G01 X-3.4312 Y3.0536 F300.00
G01 X-3.4654 Y3.1001 F300.00
G01 X-3.4934 Y3.1371 F300.00
G01 X-3.5271 Y3.1800 F300.00
G01 X-3.5563 Y3.2161 F300.00
G01 X-3.5955 Y3.2630 F300.00
G01 X-3.6368 Y3.3110 F300.00
G01 X-3.6684 Y3.3465 F300.00
G01 X-3.6949 Y3.3754 F300.00
G01 X-3.7473 Y3.4306 F300.00
G01 X-3.7805 Y3.4645 F300.00
G01 X-3.9930 Y3.6769 F300.00
G01 X-4.0251 Y3.7400 F300.00
G01 X-4.0362 Y3.8100 F300.00
G01 X-4.0251 Y3.8799 F300.00
G01 X-3.9930 Y3.9430 F300.00
G01 X-3.9430 Y3.9930 F300.00
G01 X-3.8799 Y4.0251 F300.00
G01 X-3.8100 Y4.0362 F300.00
G01 X-3.7400 Y4.0251 F300.00
G01 X-3.6769 Y3.9930 F300.00
G01 X-3.4645 Y3.7806 F300.00
G01 X-3.4303 Y3.7469 F300.00
G01 X-3.3970 Y3.7150 F300.00
G01 X-3.3641 Y3.6844 F300.00
G01 X-3.3336 Y3.6566 F300.00
G01 X-3.3002 Y3.6270 F300.00
G01 X-3.2673 Y3.5987 F300.00
G01 X-3.2238 Y3.5622 F300.00
G01 X-3.1839 Y3.5300 F300.00
G01 X-3.1427 Y3.4977 F300.00
G01 X-3.0974 Y3.4634 F300.00
G01 X-3.0529 Y3.4309 F300.00
G01 X-3.0076 Y3.3988 F300.00
G01 X-2.9646 Y3.3693 F300.00
G01 X-2.9145 Y3.3363 F300.00
G01 X-2.8696 Y3.3078 F300.00
G01 X-2.8232 Y3.2793 F300.00
G01 X-2.7735 Y3.2500 F300.00
G01 X-2.7272 Y3.2238 F300.00
G01 X-2.6794 Y3.1977 F300.00
G01 X-2.6281 Y3.1709 F300.00
G01 X-2.5761 Y3.1446 F300.00
G01 X-2.5319 Y3.1231 F300.00
G01 X-2.4845 Y3.1009 F300.00
G01 X-2.4309 Y3.0770 F300.00
G01 X-2.3757 Y3.0535 F300.00
G01 X-2.3233 Y3.0324 F300.00
G01 X-2.2745 Y3.0136 F300.00
G01 X-2.2194 Y2.9934 F300.00
G01 X-2.1690 Y2.9759 F300.00
G01 X-2.1613 Y2.1529 F300.00
G01 X-2.9706 Y2.1529 F300.00
G01 X-3.5405 Y1.4329 F300.00
G01 X-3.5495 Y1.4960 F300.00
G01 X-3.5592 Y1.5537 F300.00
G01 X-3.5711 Y1.6155 F300.00
G01 X-3.5845 Y1.6786 F300.00
G01 X-3.5991 Y1.7394 F300.00
G01 X-3.6152 Y1.7998 F300.00
G01 X-3.6327 Y1.8598 F300.00
G01 X-3.6517 Y1.9194 F300.00
G01 X-3.6721 Y1.9785 F300.00
G01 X-3.6958 Y2.0420 F300.00
G01 X-3.7187 Y2.0996 F300.00
G01 X-3.7437 Y2.1585 F300.00
G01 X-3.7703 Y2.2167 F300.00
G01 X-3.7982 Y2.2742 F300.00
G01 X-3.8276 Y2.3310 F300.00
G01 X-3.8584 Y2.3871 F300.00
G01 X-3.8877 Y2.4375 F300.00
G01 X-3.9207 Y2.4918 F300.00
G01 X-3.9506 Y2.5386 F300.00
G01 X-3.9867 Y2.5921 F300.00
G01 X-4.0215 Y2.6411 F300.00
G01 X-4.0601 Y2.6929 F300.00
G01 X-4.1001 Y2.7436 F300.00
G01 X-4.1400 Y2.7920 F300.00
G01 X-4.1714 Y2.8287 F300.00
G01 X-4.2038 Y2.8650 F300.00
G01 X-4.2335 Y2.8973 F300.00
G01 X-4.2631 Y2.9283 F300.00
G01 X-4.2905 Y2.9562 F300.00
G01 X-4.5827 Y3.2484 F300.00
G01 X-4.7184 Y3.5148 F300.00
G01 X-4.7652 Y3.8100 F300.00
G01 X-4.7184 Y4.1052 F300.00
G01 X-4.5828 Y4.3714 F300.00
G01 X-4.3714 Y4.5828 F300.00
G01 X-4.1052 Y4.7184 F300.00
G01 X-3.8100 Y4.7652 F300.00
G01 X-3.5148 Y4.7184 F300.00
G01 X-3.2484 Y4.5827 F300.00
G01 X-2.9562 Y4.2905 F300.00
G01 X-2.9266 Y4.2614 F300.00
G01 X-2.8925 Y4.2290 F300.00
G01 X-2.8599 Y4.1989 F300.00
G01 X-2.8232 Y4.1663 F300.00
G01 X-2.7885 Y4.1367 F300.00
G01 X-2.7359 Y4.0936 F300.00
G01 X-2.6893 Y4.0574 F300.00
G01 X-2.6456 Y4.0249 F300.00
G01 X-2.5956 Y3.9893 F300.00
G01 X-2.5498 Y3.9581 F300.00
G01 X-2.4994 Y3.9255 F300.00
G01 X-2.4531 Y3.8969 F300.00
G01 X-2.3974 Y3.8643 F300.00
G01 X-2.3409 Y3.8332 F300.00
G01 X-2.2755 Y3.7992 F300.00
G01 X-2.2225 Y3.7732 F300.00
G01 X-2.1672 Y3.7476 F300.00
G01 X-2.1035 Y3.7201 F300.00
G01 X-2.0471 Y3.6974 F300.00
G01 X-1.9901 Y3.6760 F300.00
G01 X-1.9326 Y3.6561 F300.00
G01 X-1.8681 Y3.6353 F300.00
G01 X-1.8082 Y3.6175 F300.00
G01 X-1.7478 Y3.6012 F300.00
G01 X-1.6870 Y3.5863 F300.00
G01 X-1.6259 Y3.5730 F300.00
G01 X-1.5645 Y3.5611 F300.00
G01 X-1.5028 Y3.5508 F300.00
G01 X-1.4387 Y3.5416 F300.00
G01 X-1.4346 Y1.4329 F300.00
G01 X-3.5405 Y1.4329 F300.00
G01 X-4.2763 Y0.7129 F300.00
G01 X-4.2683 Y0.7550 F300.00
G01 X-4.2625 Y0.7897 F300.00
G01 X-4.2585 Y0.8161 F300.00
G01 X-4.2538 Y0.8510 F300.00
G01 X-4.2500 Y0.8826 F300.00
G01 X-4.2464 Y0.9184 F300.00
G01 X-4.2433 Y0.9553 F300.00
G01 X-4.2411 Y0.9911 F300.00
G01 X-4.2395 Y1.0281 F300.00
G01 X-4.2388 Y1.0560 F300.00
G01 X-4.2385 Y1.0930 F300.00
G01 X-4.2390 Y1.1289 F300.00
G01 X-4.2402 Y1.1659 F300.00
G01 X-4.2419 Y1.2040 F300.00
G01 X-4.2443 Y1.2404 F300.00
G01 X-4.2466 Y1.2678 F300.00
G01 X-4.2502 Y1.3040 F300.00
G01 X-4.2544 Y1.3392 F300.00
G01 X-4.2595 Y1.3752 F300.00
G01 X-4.2637 Y1.4024 F300.00
G01 X-4.2682 Y1.4286 F300.00
G01 X-4.2751 Y1.4643 F300.00
G01 X-4.2845 Y1.5095 F300.00
G01 X-4.2906 Y1.5362 F300.00
G01 X-4.2993 Y1.5713 F300.00
G01 X-4.3084 Y1.6052 F300.00
G01 X-4.3184 Y1.6400 F300.00
G01 X-4.3264 Y1.6661 F300.00
G01 X-4.3376 Y1.7005 F300.00
G01 X-4.3492 Y1.7337 F300.00
G01 X-4.3744 Y1.8005 F300.00
G01 X-4.3848 Y1.8265 F300.00
G01 X-4.3993 Y1.8605 F300.00
G01 X-4.4139 Y1.8934 F300.00
G01 X-4.4297 Y1.9268 F300.00
G01 X-4.4421 Y1.9519 F300.00
G01 X-4.4590 Y1.9848 F300.00
G01 X-4.4854 Y2.0330 F300.00
G01 X-4.5039 Y2.0651 F300.00
G01 X-4.5215 Y2.0945 F300.00
G01 X-4.5413 Y2.1262 F300.00
G01 X-4.5567 Y2.1499 F300.00
G01 X-4.5776 Y2.1808 F300.00
G01 X-4.5986 Y2.2105 F300.00
G01 X-4.6207 Y2.2406 F300.00
G01 X-4.6379 Y2.2630 F300.00
G01 X-4.6668 Y2.2993 F300.00
G01 X-4.7068 Y2.3471 F300.00
G01 X-4.7391 Y2.3835 F300.00
G01 X-4.7723 Y2.4191 F300.00
G01 X-4.7996 Y2.4471 F300.00
G01 X-5.1725 Y2.8200 F300.00
G01 X-5.4117 Y3.2895 F300.00
G01 X-5.4942 Y3.8100 F300.00
G01 X-5.4117 Y4.3304 F300.00
G01 X-5.1725 Y4.7999 F300.00
G01 X-4.7999 Y5.1725 F300.00
G01 X-4.3304 Y5.4117 F300.00
G01 X-3.8100 Y5.4942 F300.00
G01 X-3.2895 Y5.4117 F300.00
G01 X-2.8200 Y5.1725 F300.00
G01 X-2.4265 Y4.7794 F300.00
G01 X-2.3889 Y4.7439 F300.00
G01 X-2.3579 Y4.7159 F300.00
G01 X-2.3369 Y4.6977 F300.00
G01 X-2.3019 Y4.6685 F300.00
G01 X-2.2732 Y4.6457 F300.00
G01 X-2.2519 Y4.6293 F300.00
G01 X-2.1993 Y4.5908 F300.00
G01 X-2.1687 Y4.5695 F300.00
G01 X-2.1453 Y4.5538 F300.00
G01 X-2.1139 Y4.5336 F300.00
G01 X-2.0908 Y4.5192 F300.00
G01 X-2.0665 Y4.5047 F300.00
G01 X-2.0342 Y4.4861 F300.00
G01 X-1.9855 Y4.4597 F300.00
G01 X-1.9285 Y4.4308 F300.00
G01 X-1.8967 Y4.4156 F300.00
G01 X-1.8655 Y4.4014 F300.00
G01 X-1.8253 Y4.3842 F300.00
G01 X-1.7927 Y4.3710 F300.00
G01 X-1.7679 Y4.3615 F300.00
G01 X-1.7348 Y4.3494 F300.00
G01 X-1.6934 Y4.3353 F300.00
G01 X-1.6537 Y4.3226 F300.00
G01 X-1.6200 Y4.3125 F300.00
G01 X-1.5851 Y4.3029 F300.00
G01 X-1.5415 Y4.2918 F300.00
G01 X-1.5149 Y4.2856 F300.00
G01 X-1.4795 Y4.2780 F300.00
G01 X-1.4450 Y4.2712 F300.00
G01 X-1.4094 Y4.2650 F300.00
G01 X-1.3823 Y4.2608 F300.00
G01 X-1.3287 Y4.2533 F300.00
G01 X-1.3003 Y4.2499 F300.00
G01 X-1.2628 Y4.2461 F300.00
G01 X-1.2262 Y4.2431 F300.00
G01 X-1.1885 Y4.2409 F300.00
G01 X-1.1600 Y4.2396 F300.00
G01 X-1.1223 Y4.2387 F300.00
G01 X-1.0856 Y4.2386 F300.00
G01 X-1.0502 Y4.2390 F300.00
G01 X-1.0037 Y4.2405 F300.00
G01 X-0.9664 Y4.2425 F300.00
G01 X-0.9301 Y4.2452 F300.00
G01 X-0.8929 Y4.2488 F300.00
G01 X-0.8648 Y4.2520 F300.00
G01 X-0.8277 Y4.2568 F300.00
G01 X-0.7917 Y4.2623 F300.00
G01 X-0.7549 Y4.2686 F300.00
G01 X-0.7143 Y4.2763 F300.00
G01 X-0.7132 Y0.7129 F300.00
G01 X-4.2763 Y0.7129 F300.00
G01 X-5.6831 Y-0.0071 F300.00
G01 X-5.6582 Y0.0040 F300.00
G01 X-5.6337 Y0.0156 F300.00
G01 X-5.5912 Y0.0372 F300.00
G01 X-5.5574 Y0.0558 F300.00
G01 X-5.5416 Y0.0650 F300.00
G01 X-5.5329 Y0.0703 F300.00
G01 X-5.5173 Y0.0799 F300.00
G01 X-5.4851 Y0.1011 F300.00
G01 X-5.4470 Y0.1282 F300.00
G01 X-5.4108 Y0.1556 F300.00
G01 X-5.3758 Y0.1843 F300.00
G01 X-5.3478 Y0.2091 F300.00
G01 X-5.3150 Y0.2403 F300.00
G01 X-5.2823 Y0.2738 F300.00
G01 X-5.2564 Y0.3022 F300.00
G01 X-5.2264 Y0.3376 F300.00
G01 X-5.2028 Y0.3678 F300.00
G01 X-5.1755 Y0.4055 F300.00
G01 X-5.1619 Y0.4252 F300.00
G01 X-5.1470 Y0.4477 F300.00
G01 X-5.1327 Y0.4705 F300.00
G01 X-5.1189 Y0.4936 F300.00
G01 X-5.1011 Y0.5255 F300.00
G01 X-5.0810 Y0.5649 F300.00
G01 X-5.0619 Y0.6056 F300.00
G01 X-5.0437 Y0.6485 F300.00
G01 X-5.0301 Y0.6845 F300.00
G01 X-5.0152 Y0.7286 F300.00
G01 X-5.0013 Y0.7757 F300.00
G01 X-4.9921 Y0.8107 F300.00
G01 X-4.9825 Y0.8534 F300.00
G01 X-4.9758 Y0.8889 F300.00
G01 X-4.9716 Y0.9152 F300.00
G01 X-4.9680 Y0.9417 F300.00
G01 X-4.9636 Y0.9814 F300.00
G01 X-4.9602 Y1.0272 F300.00
G01 X-4.9588 Y1.0651 F300.00
G01 X-4.9588 Y1.1111 F300.00
G01 X-4.9607 Y1.1624 F300.00
G01 X-4.9625 Y1.1899 F300.00
G01 X-4.9661 Y1.2271 F300.00
G01 X-4.9720 Y1.2719 F300.00
G01 X-4.9783 Y1.3087 F300.00
G01 X-4.9883 Y1.3576 F300.00
G01 X-4.9970 Y1.3937 F300.00
G01 X-5.0042 Y1.4201 F300.00
G01 X-5.0120 Y1.4463 F300.00
G01 X-5.0263 Y1.4889 F300.00
G01 X-5.0456 Y1.5399 F300.00
G01 X-5.0562 Y1.5658 F300.00
G01 X-5.0717 Y1.6004 F300.00
G01 X-5.0920 Y1.6417 F300.00
G01 X-5.1101 Y1.6751 F300.00
G01 X-5.1255 Y1.7018 F300.00
G01 X-5.1401 Y1.7260 F300.00
G01 X-5.1553 Y1.7498 F300.00
G01 X-5.1711 Y1.7732 F300.00
G01 X-5.1875 Y1.7962 F300.00
G01 X-5.2045 Y1.8188 F300.00
G01 X-5.2220 Y1.8410 F300.00
G01 X-5.2547 Y1.8799 F300.00
G01 X-5.2744 Y1.9020 F300.00
G01 X-5.2947 Y1.9236 F300.00
G01 X-5.3087 Y1.9380 F300.00
G01 X-5.7623 Y2.3915 F300.00
G01 X-6.1050 Y3.0643 F300.00
G01 X-6.2231 Y3.8100 F300.00
G01 X-6.1050 Y4.5557 F300.00
G01 X-5.7623 Y5.2284 F300.00
G01 X-5.2284 Y5.7623 F300.00
G01 X-4.5557 Y6.1050 F300.00
G01 X-3.8100 Y6.2231 F300.00
G01 X-3.0643 Y6.1050 F300.00
G01 X-2.3915 Y5.7623 F300.00
G01 X-1.9380 Y5.3087 F300.00
G01 X-1.9072 Y5.2791 F300.00
G01 X-1.8717 Y5.2473 F300.00
G01 X-1.8504 Y5.2294 F300.00
G01 X-1.8287 Y5.2121 F300.00
G01 X-1.8066 Y5.1953 F300.00
G01 X-1.7754 Y5.1728 F300.00
G01 X-1.7521 Y5.1569 F300.00
G01 X-1.7284 Y5.1416 F300.00
G01 X-1.7043 Y5.1269 F300.00
G01 X-1.6798 Y5.1128 F300.00
G01 X-1.6550 Y5.0994 F300.00
G01 X-1.6152 Y5.0790 F300.00
G01 X-1.5912 Y5.0676 F300.00
G01 X-1.5669 Y5.0566 F300.00
G01 X-1.5264 Y5.0400 F300.00
G01 X-1.5015 Y5.0306 F300.00
G01 X-1.4764 Y5.0219 F300.00
G01 X-1.4392 Y5.0099 F300.00
G01 X-1.4130 Y5.0022 F300.00
G01 X-1.3694 Y4.9909 F300.00
G01 X-1.3427 Y4.9849 F300.00
G01 X-1.3159 Y4.9796 F300.00
G01 X-1.2889 Y4.9749 F300.00
G01 X-1.2523 Y4.9695 F300.00
G01 X-1.2240 Y4.9658 F300.00
G01 X-1.1956 Y4.9629 F300.00
G01 X-1.1488 Y4.9598 F300.00
G01 X-1.1100 Y4.9586 F300.00
G01 X-1.0778 Y4.9586 F300.00
G01 X-1.0495 Y4.9592 F300.00
G01 X-1.0111 Y4.9611 F300.00
G01 X-0.9829 Y4.9634 F300.00
G01 X-0.9548 Y4.9663 F300.00
G01 X-0.9088 Y4.9727 F300.00
G01 X-0.8543 Y4.9825 F300.00
G01 X-0.8268 Y4.9883 F300.00
G01 X-0.7995 Y4.9948 F300.00
G01 X-0.7628 Y5.0047 F300.00
G01 X-0.7187 Y5.0183 F300.00
G01 X-0.6909 Y5.0279 F300.00
G01 X-0.6649 Y5.0373 F300.00
G01 X-0.6392 Y5.0474 F300.00
G01 X-0.6138 Y5.0582 F300.00
G01 X-0.5797 Y5.0738 F300.00
G01 X-0.5391 Y5.0941 F300.00
G01 X-0.4971 Y5.1172 F300.00
G01 X-0.4728 Y5.1313 F300.00
G01 X-0.4490 Y5.1461 F300.00
G01 X-0.4171 Y5.1671 F300.00
G01 X-0.3796 Y5.1939 F300.00
G01 X-0.3372 Y5.2268 F300.00
G01 X-0.3164 Y5.2441 F300.00
G01 X-0.2960 Y5.2618 F300.00
G01 X-0.2634 Y5.2921 F300.00
G01 X-0.2442 Y5.3111 F300.00
G01 X-0.2254 Y5.3305 F300.00
G01 X-0.1944 Y5.3645 F300.00
G01 X-0.1710 Y5.3918 F300.00
G01 X-0.1543 Y5.4123 F300.00
G01 X-0.1381 Y5.4332 F300.00
G01 X-0.1126 Y5.4684 F300.00
G01 X-0.0815 Y5.5150 F300.00
G01 X-0.0669 Y5.5386 F300.00
G01 X-0.0528 Y5.5626 F300.00
G01 X-0.0347 Y5.5957 F300.00
G01 X-0.0143 Y5.6365 F300.00
G01 X0.0071 Y5.6836 F300.00
G01 X0.0071 Y0.0029 F300.00
G01 X0.0066 Y-0.0020 F300.00
G01 X0.0049 Y-0.0049 F300.00
G01 X0.0020 Y-0.0066 F300.00
G01 X-0.0029 Y-0.0071 F300.00
G01 X-5.6831 Y-0.0071 F300.00
G00 Z0.5000
G00 X-52.4571 Y2.9706
G01 F60.00
G01 Z-0.2000
G01 F300.00
G01 X-52.4053 Y2.9883 F300.00
G01 X-52.3589 Y3.0051 F300.00
G01 X-52.3050 Y3.0255 F300.00
G01 X-52.2455 Y3.0491 F300.00
G01 X-52.1895 Y3.0725 F300.00
G01 X-52.1372 Y3.0956 F300.00
G01 X-52.0872 Y3.1186 F300.00
G01 X-52.0386 Y3.1419 F300.00
G01 X-51.9834 Y3.1697 F300.00
G01 X-51.9387 Y3.1931 F300.00
G01 X-51.8933 Y3.2178 F300.00
G01 X-51.8401 Y3.2480 F300.00
G01 X-51.7845 Y3.2808 F300.00
G01 X-51.7449 Y3.3050 F300.00
G01 X-51.6931 Y3.3378 F300.00
G01 X-51.6430 Y3.3709 F300.00
G01 X-51.5991 Y3.4010 F300.00
G01 X-51.5564 Y3.4312 F300.00
G01 X-51.5099 Y3.4654 F300.00
G01 X-51.4729 Y3.4934 F300.00
G01 X-51.4300 Y3.5271 F300.00
G01 X-51.3939 Y3.5563 F300.00
G01 X-51.3470 Y3.5955 F300.00
G01 X-51.2990 Y3.6368 F300.00
G01 X-51.2635 Y3.6684 F300.00
G01 X-51.2346 Y3.6949 F300.00
G01 X-51.1794 Y3.7473 F300.00
G01 X-51.1455 Y3.7805 F300.00
G01 X-50.9331 Y3.9930 F300.00
G01 X-50.8700 Y4.0251 F300.00
G01 X-50.8000 Y4.0362 F300.00
G01 X-50.7301 Y4.0251 F300.00
G01 X-50.6670 Y3.9930 F300.00
G01 X-50.6170 Y3.9430 F300.00
G01 X-50.5849 Y3.8800 F300.00
G01 X-50.5738 Y3.8100 F300.00
G01 X-50.5849 Y3.7401 F300.00
G01 X-50.6170 Y3.6769 F300.00
G01 X-50.8296 Y3.4643 F300.00
G01 X-50.8632 Y3.4301 F300.00
G01 X-50.8950 Y3.3969 F300.00
G01 X-50.9257 Y3.3641 F300.00
G01 X-50.9534 Y3.3336 F300.00
G01 X-50.9830 Y3.3002 F300.00
G01 X-51.0113 Y3.2673 F300.00
G01 X-51.0478 Y3.2238 F300.00
G01 X-51.0800 Y3.1839 F300.00
G01 X-51.1123 Y3.1427 F300.00
G01 X-51.1466 Y3.0974 F300.00
G01 X-51.1791 Y3.0529 F300.00
G01 X-51.2112 Y3.0076 F300.00
G01 X-51.2407 Y2.9646 F300.00
G01 X-51.2737 Y2.9145 F300.00
G01 X-51.3022 Y2.8696 F300.00
G01 X-51.3307 Y2.8232 F300.00
G01 X-51.3600 Y2.7735 F300.00
G01 X-51.3862 Y2.7272 F300.00
G01 X-51.4123 Y2.6794 F300.00
G01 X-51.4391 Y2.6281 F300.00
G01 X-51.4654 Y2.5761 F300.00
G01 X-51.4915 Y2.5222 F300.00
G01 X-51.5161 Y2.4689 F300.00
G01 X-51.5373 Y2.4211 F300.00
G01 X-51.5565 Y2.3757 F300.00
G01 X-51.5776 Y2.3233 F300.00
G01 X-51.5964 Y2.2745 F300.00
G01 X-51.6166 Y2.2194 F300.00
G01 X-51.6341 Y2.1690 F300.00
G01 X-52.4571 Y2.1613 F300.00
G01 X-52.4571 Y2.9706 F300.00
G01 X-53.1771 Y3.5405 F300.00
G01 X-53.1140 Y3.5495 F300.00
G01 X-53.0563 Y3.5592 F300.00
G01 X-52.9945 Y3.5711 F300.00
G01 X-52.9314 Y3.5845 F300.00
G01 X-52.8706 Y3.5991 F300.00
G01 X-52.8102 Y3.6152 F300.00
G01 X-52.7502 Y3.6327 F300.00
G01 X-52.6906 Y3.6517 F300.00
G01 X-52.6315 Y3.6721 F300.00
G01 X-52.5680 Y3.6958 F300.00
G01 X-52.5104 Y3.7187 F300.00
G01 X-52.4515 Y3.7437 F300.00
G01 X-52.3933 Y3.7703 F300.00
G01 X-52.3358 Y3.7982 F300.00
G01 X-52.2790 Y3.8276 F300.00
G01 X-52.2229 Y3.8584 F300.00
G01 X-52.1725 Y3.8877 F300.00
G01 X-52.1182 Y3.9207 F300.00
G01 X-52.0714 Y3.9506 F300.00
G01 X-52.0179 Y3.9867 F300.00
G01 X-51.9689 Y4.0215 F300.00
G01 X-51.9171 Y4.0601 F300.00
G01 X-51.8664 Y4.1001 F300.00
G01 X-51.8180 Y4.1400 F300.00
G01 X-51.7813 Y4.1714 F300.00
G01 X-51.7450 Y4.2038 F300.00
G01 X-51.7127 Y4.2335 F300.00
G01 X-51.6817 Y4.2631 F300.00
G01 X-51.6538 Y4.2905 F300.00
G01 X-51.3616 Y4.5827 F300.00
G01 X-51.0952 Y4.7184 F300.00
G01 X-50.8000 Y4.7652 F300.00
G01 X-50.5048 Y4.7184 F300.00
G01 X-50.2385 Y4.5827 F300.00
G01 X-50.0272 Y4.3715 F300.00
G01 X-49.8916 Y4.1052 F300.00
G01 X-49.8448 Y3.8100 F300.00
G01 X-49.8916 Y3.5148 F300.00
G01 X-50.0273 Y3.2485 F300.00
G01 X-50.3196 Y2.9560 F300.00
G01 X-50.3487 Y2.9264 F300.00
G01 X-50.3811 Y2.8924 F300.00
G01 X-50.4111 Y2.8599 F300.00
G01 X-50.4437 Y2.8232 F300.00
G01 X-50.4733 Y2.7885 F300.00
G01 X-50.5164 Y2.7359 F300.00
G01 X-50.5526 Y2.6893 F300.00
G01 X-50.5851 Y2.6456 F300.00
G01 X-50.6207 Y2.5956 F300.00
G01 X-50.6519 Y2.5498 F300.00
G01 X-50.6845 Y2.4994 F300.00
G01 X-50.7183 Y2.4445 F300.00
G01 X-50.7457 Y2.3974 F300.00
G01 X-50.7768 Y2.3409 F300.00
G01 X-50.8108 Y2.2755 F300.00
G01 X-50.8368 Y2.2225 F300.00
G01 X-50.8624 Y2.1672 F300.00
G01 X-50.8899 Y2.1035 F300.00
G01 X-50.9126 Y2.0471 F300.00
G01 X-50.9340 Y1.9901 F300.00
G01 X-50.9539 Y1.9326 F300.00
G01 X-50.9747 Y1.8681 F300.00
G01 X-50.9925 Y1.8082 F300.00
G01 X-51.0088 Y1.7478 F300.00
G01 X-51.0237 Y1.6870 F300.00
G01 X-51.0370 Y1.6259 F300.00
G01 X-51.0489 Y1.5645 F300.00
G01 X-51.0592 Y1.5028 F300.00
G01 X-51.0684 Y1.4387 F300.00
G01 X-53.1771 Y1.4346 F300.00
G01 X-53.1771 Y3.5405 F300.00
G01 X-54.6171 Y5.6831 F300.00
G01 X-54.6060 Y5.6582 F300.00
G01 X-54.5944 Y5.6337 F300.00
G01 X-54.5728 Y5.5912 F300.00
G01 X-54.5542 Y5.5574 F300.00
G01 X-54.5301 Y5.5173 F300.00
G01 X-54.5089 Y5.4851 F300.00
G01 X-54.4818 Y5.4470 F300.00
G01 X-54.4544 Y5.4108 F300.00
G01 X-54.4257 Y5.3758 F300.00
G01 X-54.4009 Y5.3478 F300.00
G01 X-54.3697 Y5.3150 F300.00
G01 X-54.3628 Y5.3081 F300.00
G01 X-54.3554 Y5.3009 F300.00
G01 X-54.3362 Y5.2823 F300.00
G01 X-54.3078 Y5.2564 F300.00
G01 X-54.2724 Y5.2264 F300.00
G01 X-54.2422 Y5.2028 F300.00
G01 X-54.2045 Y5.1755 F300.00
G01 X-54.1848 Y5.1619 F300.00
G01 X-54.1623 Y5.1470 F300.00
G01 X-54.1313 Y5.1277 F300.00
G01 X-54.1081 Y5.1141 F300.00
G01 X-54.0845 Y5.1011 F300.00
G01 X-54.0451 Y5.0810 F300.00
G01 X-54.0044 Y5.0619 F300.00
G01 X-53.9615 Y5.0437 F300.00
G01 X-53.9255 Y5.0301 F300.00
G01 X-53.8814 Y5.0152 F300.00
G01 X-53.8343 Y5.0013 F300.00
G01 X-53.7993 Y4.9921 F300.00
G01 X-53.7734 Y4.9860 F300.00
G01 X-53.7473 Y4.9806 F300.00
G01 X-53.7042 Y4.9730 F300.00
G01 X-53.6683 Y4.9680 F300.00
G01 X-53.6286 Y4.9636 F300.00
G01 X-53.5828 Y4.9602 F300.00
G01 X-53.5449 Y4.9588 F300.00
G01 X-53.4989 Y4.9588 F300.00
G01 X-53.4476 Y4.9607 F300.00
G01 X-53.4201 Y4.9625 F300.00
G01 X-53.3829 Y4.9661 F300.00
G01 X-53.3381 Y4.9720 F300.00
G01 X-53.3013 Y4.9783 F300.00
G01 X-53.2524 Y4.9883 F300.00
G01 X-53.2258 Y4.9946 F300.00
G01 X-53.1899 Y5.0042 F300.00
G01 X-53.1470 Y5.0174 F300.00
G01 X-53.1211 Y5.0263 F300.00
G01 X-53.0701 Y5.0456 F300.00
G01 X-53.0442 Y5.0562 F300.00
G01 X-53.0096 Y5.0717 F300.00
G01 X-52.9683 Y5.0920 F300.00
G01 X-52.9349 Y5.1101 F300.00
G01 X-52.9082 Y5.1255 F300.00
G01 X-52.8840 Y5.1401 F300.00
G01 X-52.8602 Y5.1553 F300.00
G01 X-52.8368 Y5.1711 F300.00
G01 X-52.8138 Y5.1875 F300.00
G01 X-52.7912 Y5.2045 F300.00
G01 X-52.7690 Y5.2220 F300.00
G01 X-52.7301 Y5.2547 F300.00
G01 X-52.7080 Y5.2744 F300.00
G01 X-52.6864 Y5.2947 F300.00
G01 X-52.6720 Y5.3087 F300.00
G01 X-52.2185 Y5.7623 F300.00
G01 X-51.5457 Y6.1050 F300.00
G01 X-50.8000 Y6.2231 F300.00
G01 X-50.0543 Y6.1050 F300.00
G01 X-49.3816 Y5.7623 F300.00
G01 X-48.8477 Y5.2285 F300.00
G01 X-48.5050 Y4.5557 F300.00
G01 X-48.3869 Y3.8100 F300.00
G01 X-48.5050 Y3.0643 F300.00
G01 X-48.8477 Y2.3916 F300.00
G01 X-49.3013 Y1.9379 F300.00
G01 X-49.3309 Y1.9072 F300.00
G01 X-49.3627 Y1.8717 F300.00
G01 X-49.3806 Y1.8504 F300.00
G01 X-49.3979 Y1.8287 F300.00
G01 X-49.4147 Y1.8066 F300.00
G01 X-49.4372 Y1.7754 F300.00
G01 X-49.4531 Y1.7521 F300.00
G01 X-49.4684 Y1.7284 F300.00
G01 X-49.4831 Y1.7043 F300.00
G01 X-49.4972 Y1.6798 F300.00
G01 X-49.5106 Y1.6550 F300.00
G01 X-49.5310 Y1.6152 F300.00
G01 X-49.5495 Y1.5756 F300.00
G01 X-49.5601 Y1.5511 F300.00
G01 X-49.5700 Y1.5264 F300.00
G01 X-49.5794 Y1.5015 F300.00
G01 X-49.5881 Y1.4764 F300.00
G01 X-49.6001 Y1.4392 F300.00
G01 X-49.6124 Y1.3960 F300.00
G01 X-49.6191 Y1.3694 F300.00
G01 X-49.6251 Y1.3427 F300.00
G01 X-49.6304 Y1.3159 F300.00
G01 X-49.6351 Y1.2889 F300.00
G01 X-49.6405 Y1.2523 F300.00
G01 X-49.6442 Y1.2240 F300.00
G01 X-49.6471 Y1.1956 F300.00
G01 X-49.6502 Y1.1488 F300.00
G01 X-49.6514 Y1.1100 F300.00
G01 X-49.6514 Y1.0778 F300.00
G01 X-49.6508 Y1.0495 F300.00
G01 X-49.6495 Y1.0212 F300.00
G01 X-49.6475 Y0.9930 F300.00
G01 X-49.6437 Y0.9548 F300.00
G01 X-49.6373 Y0.9088 F300.00
G01 X-49.6275 Y0.8543 F300.00
G01 X-49.6217 Y0.8268 F300.00
G01 X-49.6152 Y0.7995 F300.00
G01 X-49.6053 Y0.7628 F300.00
G01 X-49.5917 Y0.7187 F300.00
G01 X-49.5821 Y0.6909 F300.00
G01 X-49.5727 Y0.6649 F300.00
G01 X-49.5626 Y0.6392 F300.00
G01 X-49.5518 Y0.6138 F300.00
G01 X-49.5362 Y0.5797 F300.00
G01 X-49.5159 Y0.5391 F300.00
G01 X-49.4928 Y0.4971 F300.00
G01 X-49.4735 Y0.4643 F300.00
G01 X-49.4585 Y0.4405 F300.00
G01 X-49.4429 Y0.4171 F300.00
G01 X-49.4161 Y0.3796 F300.00
G01 X-49.3939 Y0.3506 F300.00
G01 X-49.3798 Y0.3331 F300.00
G01 X-49.3498 Y0.2978 F300.00
G01 X-49.3308 Y0.2770 F300.00
G01 X-49.3113 Y0.2566 F300.00
G01 X-49.2841 Y0.2298 F300.00
G01 X-49.2475 Y0.1962 F300.00
G01 X-49.2128 Y0.1665 F300.00
G01 X-49.1912 Y0.1492 F300.00
G01 X-49.1691 Y0.1323 F300.00
G01 X-49.1385 Y0.1104 F300.00
G01 X-49.0950 Y0.0815 F300.00
G01 X-49.0714 Y0.0669 F300.00
G01 X-49.0474 Y0.0528 F300.00
G01 X-49.0143 Y0.0347 F300.00
G01 X-48.9735 Y0.0143 F300.00
G01 X-48.9264 Y-0.0071 F300.00
G01 X-54.6071 Y-0.0071 F300.00
G01 X-54.6120 Y-0.0066 F300.00
G01 X-54.6149 Y-0.0049 F300.00
G01 X-54.6166 Y-0.0020 F300.00
G01 X-54.6171 Y0.0029 F300.00
G01 X-54.6171 Y5.6831 F300.00
G00 Z0.5000
G00 X-53.9936 Y6.1388
G01 F60.00
G01 Z-0.2000
G01 F300.00
G01 X-53.9924 Y6.1154 F300.00
G01 X-53.9890 Y6.0867 F300.00
G01 X-53.9841 Y6.0580 F300.00
G01 X-53.9775 Y6.0306 F300.00
G01 X-53.9667 Y5.9967 F300.00
G01 X-53.9601 Y5.9785 F300.00
G01 X-53.9485 Y5.9518 F300.00
G01 X-53.9380 Y5.9308 F300.00
G01 X-53.9282 Y5.9130 F300.00
G01 X-53.9175 Y5.8958 F300.00
G01 X-53.9118 Y5.8873 F300.00
G01 X-53.8927 Y5.8614 F300.00
G01 X-53.8804 Y5.8460 F300.00
G01 X-53.8606 Y5.8242 F300.00
G01 X-53.8440 Y5.8078 F300.00
G01 X-53.8366 Y5.8009 F300.00
G01 X-53.8214 Y5.7877 F300.00
G01 X-53.8055 Y5.7752 F300.00
G01 X-53.7746 Y5.7537 F300.00
G01 X-53.7582 Y5.7435 F300.00
G01 X-53.7329 Y5.7298 F300.00
G01 X-53.7066 Y5.7175 F300.00
G01 X-53.6973 Y5.7135 F300.00
G01 X-53.6783 Y5.7063 F300.00
G01 X-53.6591 Y5.7001 F300.00
G01 X-53.6337 Y5.6929 F300.00
G01 X-53.6059 Y5.6866 F300.00
G01 X-53.5871 Y5.6835 F300.00
G01 X-53.5567 Y5.6800 F300.00
G01 X-53.5367 Y5.6788 F300.00
G01 X-53.5068 Y5.6788 F300.00
G01 X-53.4794 Y5.6801 F300.00
G01 X-53.4501 Y5.6832 F300.00
G01 X-53.4307 Y5.6865 F300.00
G01 X-53.4129 Y5.6902 F300.00
G01 X-53.3939 Y5.6948 F300.00
G01 X-53.3659 Y5.7034 F300.00
G01 X-53.3391 Y5.7134 F300.00
G01 X-53.3207 Y5.7211 F300.00
G01 X-53.2938 Y5.7344 F300.00
G01 X-53.2698 Y5.7482 F300.00
G01 X-53.2527 Y5.7589 F300.00
G01 X-53.2444 Y5.7647 F300.00
G01 X-53.2362 Y5.7706 F300.00
G01 X-53.2204 Y5.7830 F300.00
G01 X-53.1965 Y5.8033 F300.00
G01 X-53.1812 Y5.8179 F300.00
G01 X-52.6470 Y6.3521 F300.00
G01 X-51.7710 Y6.7983 F300.00
G01 X-50.8000 Y6.9521 F300.00
G01 X-49.8290 Y6.7983 F300.00
G01 X-48.9531 Y6.3521 F300.00
G01 X-48.2579 Y5.6570 F300.00
G01 X-47.8117 Y4.7810 F300.00
G01 X-47.6579 Y3.8100 F300.00
G01 X-47.8117 Y2.8390 F300.00
G01 X-48.2580 Y1.9631 F300.00
G01 X-48.7922 Y1.4288 F300.00
G01 X-48.8125 Y1.4072 F300.00
G01 X-48.8253 Y1.3921 F300.00
G01 X-48.8435 Y1.3679 F300.00
G01 X-48.8549 Y1.3513 F300.00
G01 X-48.8655 Y1.3342 F300.00
G01 X-48.8704 Y1.3254 F300.00
G01 X-48.8865 Y1.2942 F300.00
G01 X-48.8979 Y1.2681 F300.00
G01 X-48.9045 Y1.2503 F300.00
G01 X-48.9155 Y1.2154 F300.00
G01 X-48.9201 Y1.1964 F300.00
G01 X-48.9239 Y1.1772 F300.00
G01 X-48.9292 Y1.1385 F300.00
G01 X-48.9309 Y1.1182 F300.00
G01 X-48.9315 Y1.0978 F300.00
G01 X-48.9309 Y1.0660 F300.00
G01 X-48.9294 Y1.0458 F300.00
G01 X-48.9269 Y1.0258 F300.00
G01 X-48.9252 Y1.0158 F300.00
G01 X-48.9198 Y0.9874 F300.00
G01 X-48.9151 Y0.9679 F300.00
G01 X-48.9094 Y0.9487 F300.00
G01 X-48.8970 Y0.9139 F300.00
G01 X-48.8893 Y0.8957 F300.00
G01 X-48.8760 Y0.8693 F300.00
G01 X-48.8631 Y0.8463 F300.00
G01 X-48.8579 Y0.8377 F300.00
G01 X-48.8468 Y0.8209 F300.00
G01 X-48.8263 Y0.7936 F300.00
G01 X-48.8134 Y0.7781 F300.00
G01 X-48.7998 Y0.7633 F300.00
G01 X-48.7855 Y0.7492 F300.00
G01 X-48.7655 Y0.7311 F300.00
G01 X-48.7425 Y0.7123 F300.00
G01 X-48.7264 Y0.7008 F300.00
G01 X-48.7022 Y0.6850 F300.00
G01 X-48.6851 Y0.6751 F300.00
G01 X-48.6585 Y0.6618 F300.00
G01 X-48.6348 Y0.6513 F300.00
G01 X-48.6076 Y0.6410 F300.00
G01 X-48.5891 Y0.6352 F300.00
G01 X-48.5599 Y0.6277 F300.00
G01 X-48.5404 Y0.6237 F300.00
G01 X-48.5108 Y0.6195 F300.00
G01 X-48.4760 Y0.6166 F300.00
G01 X-48.4555 Y0.6161 F300.00
G01 X-6.1545 Y0.6161 F300.00
G01 X-6.1250 Y0.6170 F300.00
G01 X-6.1058 Y0.6185 F300.00
G01 X-6.0867 Y0.6210 F300.00
G01 X-6.0580 Y0.6259 F300.00
G01 X-6.0397 Y0.6301 F300.00
G01 X-6.0216 Y0.6351 F300.00
G01 X-5.9967 Y0.6433 F300.00
G01 X-5.9785 Y0.6499 F300.00
G01 X-5.9606 Y0.6574 F300.00
G01 X-5.9431 Y0.6657 F300.00
G01 X-5.9219 Y0.6768 F300.00
G01 X-5.9043 Y0.6871 F300.00
G01 X-5.8873 Y0.6982 F300.00
G01 X-5.8614 Y0.7173 F300.00
G01 X-5.8460 Y0.7296 F300.00
G01 X-5.8313 Y0.7426 F300.00
G01 X-5.8078 Y0.7660 F300.00
G01 X-5.8009 Y0.7734 F300.00
G01 X-5.7877 Y0.7886 F300.00
G01 X-5.7752 Y0.8045 F300.00
G01 X-5.7693 Y0.8127 F300.00
G01 X-5.7537 Y0.8354 F300.00
G01 X-5.7435 Y0.8518 F300.00
G01 X-5.7298 Y0.8771 F300.00
G01 X-5.7216 Y0.8942 F300.00
G01 X-5.7135 Y0.9127 F300.00
G01 X-5.7098 Y0.9221 F300.00
G01 X-5.7031 Y0.9413 F300.00
G01 X-5.6954 Y0.9671 F300.00
G01 X-5.6905 Y0.9855 F300.00
G01 X-5.6866 Y1.0041 F300.00
G01 X-5.6835 Y1.0229 F300.00
G01 X-5.6810 Y1.0434 F300.00
G01 X-5.6793 Y1.0633 F300.00
G01 X-5.6785 Y1.0932 F300.00
G01 X-5.6801 Y1.1306 F300.00
G01 X-5.6832 Y1.1599 F300.00
G01 X-5.6865 Y1.1793 F300.00
G01 X-5.6902 Y1.1971 F300.00
G01 X-5.6974 Y1.2255 F300.00
G01 X-5.7067 Y1.2533 F300.00
G01 X-5.7172 Y1.2802 F300.00
G01 X-5.7253 Y1.2984 F300.00
G01 X-5.7344 Y1.3162 F300.00
G01 X-5.7482 Y1.3402 F300.00
G01 X-5.7589 Y1.3573 F300.00
G01 X-5.7706 Y1.3738 F300.00
G01 X-5.7830 Y1.3896 F300.00
G01 X-5.8033 Y1.4135 F300.00
G01 X-5.8179 Y1.4288 F300.00
G01 X-6.3521 Y1.9630 F300.00
G01 X-6.7983 Y2.8390 F300.00
G01 X-6.9521 Y3.8100 F300.00
G01 X-6.7983 Y4.7810 F300.00
G01 X-6.3521 Y5.6569 F300.00
G01 X-5.6569 Y6.3521 F300.00
G01 X-4.7810 Y6.7983 F300.00
G01 X-3.8100 Y6.9521 F300.00
G01 X-2.8390 Y6.7983 F300.00
G01 X-1.9630 Y6.3521 F300.00
G01 X-1.4288 Y5.8179 F300.00
G01 X-1.4072 Y5.7975 F300.00
G01 X-1.3921 Y5.7847 F300.00
G01 X-1.3679 Y5.7665 F300.00
G01 X-1.3597 Y5.7607 F300.00
G01 X-1.3428 Y5.7497 F300.00
G01 X-1.3254 Y5.7396 F300.00
G01 X-1.2942 Y5.7235 F300.00
G01 X-1.2681 Y5.7121 F300.00
G01 X-1.2503 Y5.7055 F300.00
G01 X-1.2154 Y5.6945 F300.00
G01 X-1.1964 Y5.6899 F300.00
G01 X-1.1772 Y5.6861 F300.00
G01 X-1.1385 Y5.6808 F300.00
G01 X-1.1182 Y5.6791 F300.00
G01 X-1.0978 Y5.6785 F300.00
G01 X-1.0660 Y5.6791 F300.00
G01 X-1.0559 Y5.6797 F300.00
G01 X-1.0358 Y5.6817 F300.00
G01 X-1.0158 Y5.6848 F300.00
G01 X-0.9874 Y5.6902 F300.00
G01 X-0.9679 Y5.6949 F300.00
G01 X-0.9487 Y5.7006 F300.00
G01 X-0.9139 Y5.7130 F300.00
G01 X-0.8957 Y5.7207 F300.00
G01 X-0.8693 Y5.7340 F300.00
G01 X-0.8463 Y5.7469 F300.00
G01 X-0.8292 Y5.7575 F300.00
G01 X-0.8209 Y5.7632 F300.00
G01 X-0.8048 Y5.7750 F300.00
G01 X-0.7800 Y5.7950 F300.00
G01 X-0.7657 Y5.8079 F300.00
G01 X-0.7520 Y5.8216 F300.00
G01 X-0.7284 Y5.8476 F300.00
G01 X-0.7164 Y5.8622 F300.00
G01 X-0.6997 Y5.8852 F300.00
G01 X-0.6850 Y5.9078 F300.00
G01 X-0.6751 Y5.9249 F300.00
G01 X-0.6618 Y5.9515 F300.00
G01 X-0.6513 Y5.9752 F300.00
G01 X-0.6410 Y6.0024 F300.00
G01 X-0.6352 Y6.0209 F300.00
G01 X-0.6277 Y6.0501 F300.00
G01 X-0.6220 Y6.0794 F300.00
G01 X-0.6195 Y6.0992 F300.00
G01 X-0.6166 Y6.1340 F300.00
G01 X-0.6161 Y6.1545 F300.00
G01 X-0.6161 Y54.7878 F300.00
G01 X-0.6167 Y54.8093 F300.00
G01 X-0.6184 Y54.8307 F300.00
G01 X-0.6214 Y54.8573 F300.00
G01 X-0.6245 Y54.8770 F300.00
G01 X-0.6286 Y54.8966 F300.00
G01 X-0.6347 Y54.9196 F300.00
G01 X-0.6406 Y54.9383 F300.00
G01 X-0.6474 Y54.9567 F300.00
G01 X-0.6605 Y54.9874 F300.00
G01 X-0.6693 Y55.0061 F300.00
G01 X-0.6790 Y55.0243 F300.00
G01 X-0.6917 Y55.0454 F300.00
G01 X-0.7028 Y55.0618 F300.00
G01 X-0.7146 Y55.0777 F300.00
G01 X-0.7273 Y55.0930 F300.00
G01 X-0.7519 Y55.1203 F300.00
G01 X-0.7666 Y55.1351 F300.00
G01 X-0.7821 Y55.1491 F300.00
G01 X-0.7982 Y55.1623 F300.00
G01 X-0.8165 Y55.1759 F300.00
G01 X-0.8402 Y55.1913 F300.00
G01 X-0.8682 Y55.2073 F300.00
G01 X-0.8859 Y55.2167 F300.00
G01 X-0.9041 Y55.2252 F300.00
G01 X-0.9263 Y55.2341 F300.00
G01 X-0.9458 Y55.2409 F300.00
G01 X-0.9656 Y55.2467 F300.00
G01 X-0.9856 Y55.2515 F300.00
G01 X-1.0223 Y55.2583 F300.00
G01 X-1.0408 Y55.2610 F300.00
G01 X-1.0687 Y55.2633 F300.00
G01 X-1.0922 Y55.2639 F300.00
G01 X-23.0555 Y55.2639 F300.00
G01 X-23.0850 Y55.2630 F300.00
G01 X-23.1138 Y55.2603 F300.00
G01 X-23.1428 Y55.2558 F300.00
G01 X-23.1703 Y55.2499 F300.00
G01 X-23.1884 Y55.2449 F300.00
G01 X-23.2133 Y55.2367 F300.00
G01 X-23.2315 Y55.2301 F300.00
G01 X-23.2494 Y55.2226 F300.00
G01 X-23.2792 Y55.2080 F300.00
G01 X-23.2970 Y55.1982 F300.00
G01 X-23.3142 Y55.1875 F300.00
G01 X-23.3310 Y55.1759 F300.00
G01 X-23.3564 Y55.1566 F300.00
G01 X-23.3714 Y55.1440 F300.00
G01 X-23.3858 Y55.1306 F300.00
G01 X-23.4022 Y55.1140 F300.00
G01 X-23.4158 Y55.0991 F300.00
G01 X-23.4286 Y55.0835 F300.00
G01 X-23.4407 Y55.0673 F300.00
G01 X-23.4563 Y55.0446 F300.00
G01 X-23.4665 Y55.0282 F300.00
G01 X-23.4758 Y55.0114 F300.00
G01 X-23.4884 Y54.9858 F300.00
G01 X-23.4965 Y54.9673 F300.00
G01 X-23.5037 Y54.9483 F300.00
G01 X-23.5099 Y54.9291 F300.00
G01 X-23.5171 Y54.9037 F300.00
G01 X-23.5215 Y54.8852 F300.00
G01 X-23.5251 Y54.8665 F300.00
G01 X-23.5290 Y54.8366 F300.00
G01 X-23.5307 Y54.8167 F300.00
G01 X-23.5315 Y54.7968 F300.00
G01 X-23.5312 Y54.7768 F300.00
G01 X-23.5299 Y54.7494 F300.00
G01 X-23.5281 Y54.7299 F300.00
G01 X-23.5252 Y54.7104 F300.00
G01 X-23.5176 Y54.6734 F300.00
G01 X-23.5097 Y54.6452 F300.00
G01 X-23.5033 Y54.6267 F300.00
G01 X-23.4966 Y54.6091 F300.00
G01 X-23.4847 Y54.5816 F300.00
G01 X-23.4708 Y54.5550 F300.00
G01 X-23.4618 Y54.5398 F300.00
G01 X-23.4511 Y54.5227 F300.00
G01 X-23.4394 Y54.5062 F300.00
G01 X-23.4333 Y54.4982 F300.00
G01 X-23.4137 Y54.4745 F300.00
G01 X-23.3995 Y54.4587 F300.00
G01 X-23.3921 Y54.4512 F300.00
G01 X-22.8579 Y53.9170 F300.00
G01 X-22.4117 Y53.0410 F300.00
G01 X-22.2579 Y52.0700 F300.00
G01 X-22.4117 Y51.0990 F300.00
G01 X-22.8579 Y50.2230 F300.00
G01 X-23.5530 Y49.5279 F300.00
G01 X-24.4290 Y49.0817 F300.00
G01 X-25.4000 Y48.9279 F300.00
G01 X-26.3710 Y49.0817 F300.00
G01 X-27.2470 Y49.5279 F300.00
G01 X-27.9421 Y50.2230 F300.00
G01 X-28.3883 Y51.0990 F300.00
G01 X-28.5421 Y52.0700 F300.00
G01 X-28.3883 Y53.0410 F300.00
G01 X-27.9421 Y53.9170 F300.00
G01 X-27.4079 Y54.4512 F300.00
G01 X-27.3942 Y54.4654 F300.00
G01 X-27.3810 Y54.4803 F300.00
G01 X-27.3626 Y54.5037 F300.00
G01 X-27.3451 Y54.5287 F300.00
G01 X-27.3345 Y54.5458 F300.00
G01 X-27.3296 Y54.5546 F300.00
G01 X-27.3135 Y54.5858 F300.00
G01 X-27.3021 Y54.6119 F300.00
G01 X-27.2955 Y54.6297 F300.00
G01 X-27.2845 Y54.6646 F300.00
G01 X-27.2779 Y54.6932 F300.00
G01 X-27.2746 Y54.7125 F300.00
G01 X-27.2708 Y54.7415 F300.00
G01 X-27.2698 Y54.7516 F300.00
G01 X-27.2687 Y54.7720 F300.00
G01 X-27.2687 Y54.8039 F300.00
G01 X-27.2697 Y54.8241 F300.00
G01 X-27.2717 Y54.8442 F300.00
G01 X-27.2748 Y54.8642 F300.00
G01 X-27.2802 Y54.8926 F300.00
G01 X-27.2849 Y54.9121 F300.00
G01 X-27.2906 Y54.9313 F300.00
G01 X-27.2995 Y54.9569 F300.00
G01 X-27.3068 Y54.9752 F300.00
G01 X-27.3150 Y54.9932 F300.00
G01 X-27.3319 Y55.0250 F300.00
G01 X-27.3421 Y55.0423 F300.00
G01 X-27.3532 Y55.0591 F300.00
G01 X-27.3650 Y55.0752 F300.00
G01 X-27.3788 Y55.0926 F300.00
G01 X-27.3914 Y55.1073 F300.00
G01 X-27.4047 Y55.1213 F300.00
G01 X-27.4187 Y55.1346 F300.00
G01 X-27.4376 Y55.1516 F300.00
G01 X-27.4598 Y55.1693 F300.00
G01 X-27.4752 Y55.1803 F300.00
G01 X-27.4978 Y55.1950 F300.00
G01 X-27.5149 Y55.2049 F300.00
G01 X-27.5326 Y55.2140 F300.00
G01 X-27.5563 Y55.2249 F300.00
G01 X-27.5742 Y55.2324 F300.00
G01 X-27.6016 Y55.2420 F300.00
G01 X-27.6203 Y55.2473 F300.00
G01 X-27.6498 Y55.2544 F300.00
G01 X-27.6793 Y55.2594 F300.00
G01 X-27.7138 Y55.2627 F300.00
G01 X-27.7343 Y55.2638 F300.00
G01 X-27.7445 Y55.2639 F300.00
G01 X-48.4555 Y55.2639 F300.00
G01 X-48.4850 Y55.2630 F300.00
G01 X-48.5042 Y55.2615 F300.00
G01 X-48.5233 Y55.2590 F300.00
G01 X-48.5520 Y55.2541 F300.00
G01 X-48.5703 Y55.2499 F300.00
G01 X-48.5884 Y55.2449 F300.00
G01 X-48.6133 Y55.2367 F300.00
G01 X-48.6315 Y55.2301 F300.00
G01 X-48.6494 Y55.2226 F300.00
G01 X-48.6669 Y55.2143 F300.00
G01 X-48.6881 Y55.2032 F300.00
G01 X-48.7057 Y55.1929 F300.00
G01 X-48.7227 Y55.1818 F300.00
G01 X-48.7486 Y55.1627 F300.00
G01 X-48.7640 Y55.1504 F300.00
G01 X-48.7787 Y55.1374 F300.00
G01 X-48.8022 Y55.1140 F300.00
G01 X-48.8158 Y55.0991 F300.00
G01 X-48.8223 Y55.0914 F300.00
G01 X-48.8348 Y55.0755 F300.00
G01 X-48.8407 Y55.0673 F300.00
G01 X-48.8563 Y55.0446 F300.00
G01 X-48.8665 Y55.0282 F300.00
G01 X-48.8802 Y55.0029 F300.00
G01 X-48.8884 Y54.9858 F300.00
G01 X-48.8965 Y54.9673 F300.00
G01 X-48.9002 Y54.9579 F300.00
G01 X-48.9069 Y54.9387 F300.00
G01 X-48.9146 Y54.9129 F300.00
G01 X-48.9195 Y54.8945 F300.00
G01 X-48.9234 Y54.8759 F300.00
G01 X-48.9265 Y54.8571 F300.00
G01 X-48.9290 Y54.8366 F300.00
G01 X-48.9307 Y54.8167 F300.00
G01 X-48.9315 Y54.7868 F300.00
G01 X-48.9299 Y54.7494 F300.00
G01 X-48.9268 Y54.7201 F300.00
G01 X-48.9235 Y54.7007 F300.00
G01 X-48.9198 Y54.6829 F300.00
G01 X-48.9126 Y54.6545 F300.00
G01 X-48.9033 Y54.6267 F300.00
G01 X-48.8928 Y54.5998 F300.00
G01 X-48.8847 Y54.5816 F300.00
G01 X-48.8756 Y54.5638 F300.00
G01 X-48.8618 Y54.5398 F300.00
G01 X-48.8511 Y54.5227 F300.00
G01 X-48.8394 Y54.5062 F300.00
G01 X-48.8270 Y54.4904 F300.00
G01 X-48.8067 Y54.4665 F300.00
G01 X-48.7921 Y54.4512 F300.00
G01 X-48.2579 Y53.9170 F300.00
G01 X-47.8117 Y53.0410 F300.00
G01 X-47.6579 Y52.0700 F300.00
G01 X-47.8117 Y51.0990 F300.00
G01 X-48.2579 Y50.2230 F300.00
G01 X-48.9530 Y49.5279 F300.00
G01 X-49.8290 Y49.0817 F300.00
G01 X-50.8000 Y48.9279 F300.00
G01 X-51.7710 Y49.0817 F300.00
G01 X-52.6470 Y49.5279 F300.00
G01 X-53.1812 Y50.0621 F300.00
G01 X-53.2028 Y50.0825 F300.00
G01 X-53.2179 Y50.0953 F300.00
G01 X-53.2421 Y50.1135 F300.00
G01 X-53.2587 Y50.1249 F300.00
G01 X-53.2672 Y50.1303 F300.00
G01 X-53.2846 Y50.1404 F300.00
G01 X-53.3158 Y50.1565 F300.00
G01 X-53.3419 Y50.1679 F300.00
G01 X-53.3597 Y50.1745 F300.00
G01 X-53.3946 Y50.1855 F300.00
G01 X-53.4136 Y50.1901 F300.00
G01 X-53.4328 Y50.1939 F300.00
G01 X-53.4715 Y50.1992 F300.00
G01 X-53.4918 Y50.2009 F300.00
G01 X-53.5122 Y50.2015 F300.00
G01 X-53.5440 Y50.2009 F300.00
G01 X-53.5642 Y50.1994 F300.00
G01 X-53.5842 Y50.1969 F300.00
G01 X-53.5942 Y50.1952 F300.00
G01 X-53.6226 Y50.1898 F300.00
G01 X-53.6421 Y50.1851 F300.00
G01 X-53.6613 Y50.1794 F300.00
G01 X-53.6961 Y50.1670 F300.00
G01 X-53.7143 Y50.1593 F300.00
G01 X-53.7407 Y50.1460 F300.00
G01 X-53.7637 Y50.1331 F300.00
G01 X-53.7808 Y50.1225 F300.00
G01 X-53.7891 Y50.1168 F300.00
G01 X-53.8052 Y50.1050 F300.00
G01 X-53.8300 Y50.0850 F300.00
G01 X-53.8443 Y50.0721 F300.00
G01 X-53.8580 Y50.0584 F300.00
G01 X-53.8816 Y50.0324 F300.00
G01 X-53.8936 Y50.0178 F300.00
G01 X-53.9103 Y49.9948 F300.00
G01 X-53.9250 Y49.9722 F300.00
G01 X-53.9349 Y49.9551 F300.00
G01 X-53.9482 Y49.9285 F300.00
G01 X-53.9587 Y49.9048 F300.00
G01 X-53.9690 Y49.8776 F300.00
G01 X-53.9748 Y49.8591 F300.00
G01 X-53.9823 Y49.8299 F300.00
G01 X-53.9880 Y49.8006 F300.00
G01 X-53.9905 Y49.7808 F300.00
G01 X-53.9934 Y49.7460 F300.00
G01 X-53.9939 Y49.7255 F300.00
G01 X-53.9939 Y6.1545 F300.00
G01 X-53.9936 Y6.1388 F300.00
G00 Z0.5000
G00 X-53.8971 Y0.7132
G01 F60.00
G01 Z-0.2000
G01 F300.00
G01 X-53.8971 Y4.2763 F300.00
G01 X-53.8550 Y4.2683 F300.00
G01 X-53.8203 Y4.2625 F300.00
G01 X-53.7939 Y4.2585 F300.00
G01 X-53.7590 Y4.2538 F300.00
G01 X-53.7274 Y4.2500 F300.00
G01 X-53.6916 Y4.2464 F300.00
G01 X-53.6547 Y4.2433 F300.00
G01 X-53.6189 Y4.2411 F300.00
G01 X-53.5819 Y4.2395 F300.00
G01 X-53.5540 Y4.2388 F300.00
G01 X-53.5170 Y4.2385 F300.00
G01 X-53.4811 Y4.2390 F300.00
G01 X-53.4441 Y4.2402 F300.00
G01 X-53.4060 Y4.2419 F300.00
G01 X-53.3696 Y4.2443 F300.00
G01 X-53.3422 Y4.2466 F300.00
G01 X-53.3060 Y4.2502 F300.00
G01 X-53.2708 Y4.2544 F300.00
G01 X-53.2348 Y4.2595 F300.00
G01 X-53.2076 Y4.2637 F300.00
G01 X-53.1814 Y4.2682 F300.00
G01 X-53.1457 Y4.2751 F300.00
G01 X-53.1005 Y4.2845 F300.00
G01 X-53.0738 Y4.2906 F300.00
G01 X-53.0387 Y4.2993 F300.00
G01 X-53.0048 Y4.3084 F300.00
G01 X-52.9700 Y4.3184 F300.00
G01 X-52.9439 Y4.3264 F300.00
G01 X-52.9095 Y4.3376 F300.00
G01 X-52.8763 Y4.3492 F300.00
G01 X-52.8095 Y4.3744 F300.00
G01 X-52.7835 Y4.3848 F300.00
G01 X-52.7495 Y4.3993 F300.00
G01 X-52.6994 Y4.4220 F300.00
G01 X-52.6661 Y4.4380 F300.00
G01 X-52.6341 Y4.4543 F300.00
G01 X-52.6014 Y4.4718 F300.00
G01 X-52.5770 Y4.4854 F300.00
G01 X-52.5449 Y4.5039 F300.00
G01 X-52.5155 Y4.5215 F300.00
G01 X-52.4838 Y4.5413 F300.00
G01 X-52.4601 Y4.5567 F300.00
G01 X-52.4292 Y4.5776 F300.00
G01 X-52.3995 Y4.5986 F300.00
G01 X-52.3694 Y4.6207 F300.00
G01 X-52.3470 Y4.6379 F300.00
G01 X-52.3107 Y4.6668 F300.00
G01 X-52.2629 Y4.7068 F300.00
G01 X-52.2265 Y4.7391 F300.00
G01 X-52.1909 Y4.7723 F300.00
G01 X-52.1629 Y4.7996 F300.00
G01 X-51.7900 Y5.1725 F300.00
G01 X-51.3205 Y5.4117 F300.00
G01 X-50.8000 Y5.4942 F300.00
G01 X-50.2796 Y5.4117 F300.00
G01 X-49.8100 Y5.1725 F300.00
G01 X-49.4375 Y4.8000 F300.00
G01 X-49.1983 Y4.3305 F300.00
G01 X-49.1158 Y3.8100 F300.00
G01 X-49.1983 Y3.2896 F300.00
G01 X-49.4375 Y2.8200 F300.00
G01 X-49.8105 Y2.4470 F300.00
G01 X-49.8354 Y2.4215 F300.00
G01 X-49.8695 Y2.3852 F300.00
G01 X-49.8999 Y2.3512 F300.00
G01 X-49.9295 Y2.3164 F300.00
G01 X-49.9643 Y2.2732 F300.00
G01 X-49.9860 Y2.2448 F300.00
G01 X-50.0086 Y2.2141 F300.00
G01 X-50.0250 Y2.1911 F300.00
G01 X-50.0456 Y2.1612 F300.00
G01 X-50.0661 Y2.1300 F300.00
G01 X-50.0813 Y2.1062 F300.00
G01 X-50.1007 Y2.0744 F300.00
G01 X-50.1189 Y2.0430 F300.00
G01 X-50.1371 Y2.0104 F300.00
G01 X-50.1503 Y1.9855 F300.00
G01 X-50.1712 Y1.9447 F300.00
G01 X-50.1867 Y1.9130 F300.00
G01 X-50.1980 Y1.8889 F300.00
G01 X-50.2124 Y1.8568 F300.00
G01 X-50.2258 Y1.8253 F300.00
G01 X-50.2390 Y1.7927 F300.00
G01 X-50.2485 Y1.7679 F300.00
G01 X-50.2606 Y1.7348 F300.00
G01 X-50.2717 Y1.7025 F300.00
G01 X-50.2845 Y1.6630 F300.00
G01 X-50.2950 Y1.6284 F300.00
G01 X-50.3025 Y1.6021 F300.00
G01 X-50.3119 Y1.5672 F300.00
G01 X-50.3203 Y1.5330 F300.00
G01 X-50.3282 Y1.4977 F300.00
G01 X-50.3338 Y1.4709 F300.00
G01 X-50.3405 Y1.4354 F300.00
G01 X-50.3464 Y1.4007 F300.00
G01 X-50.3567 Y1.3287 F300.00
G01 X-50.3601 Y1.3003 F300.00
G01 X-50.3639 Y1.2628 F300.00
G01 X-50.3669 Y1.2262 F300.00
G01 X-50.3691 Y1.1885 F300.00
G01 X-50.3711 Y1.1325 F300.00
G01 X-50.3715 Y1.0947 F300.00
G01 X-50.3712 Y1.0593 F300.00
G01 X-50.3703 Y1.0229 F300.00
G01 X-50.3686 Y0.9856 F300.00
G01 X-50.3669 Y0.9573 F300.00
G01 X-50.3639 Y0.9200 F300.00
G01 X-50.3603 Y0.8838 F300.00
G01 X-50.3558 Y0.8467 F300.00
G01 X-50.3519 Y0.8187 F300.00
G01 X-50.3461 Y0.7818 F300.00
G01 X-50.3337 Y0.7143 F300.00
G01 X-53.8971 Y0.7132 F300.00
G01 X-54.6247 Y-0.7271 F300.00
G01 X-54.6813 Y-0.7243 F300.00
G01 X-54.7520 Y-0.7138 F300.00
G01 X-54.8213 Y-0.6964 F300.00
G01 X-54.8885 Y-0.6724 F300.00
G01 X-54.9531 Y-0.6419 F300.00
G01 X-55.0143 Y-0.6051 F300.00
G01 X-55.0717 Y-0.5626 F300.00
G01 X-55.1246 Y-0.5146 F300.00
G01 X-55.1726 Y-0.4617 F300.00
G01 X-55.2151 Y-0.4043 F300.00
G01 X-55.2519 Y-0.3431 F300.00
G01 X-55.2824 Y-0.2785 F300.00
G01 X-55.3064 Y-0.2113 F300.00
G01 X-55.3238 Y-0.1420 F300.00
G01 X-55.3343 Y-0.0713 F300.00
G01 X-55.3371 Y-0.0147 F300.00
G01 X-55.3371 Y55.8947 F300.00
G01 X-55.3343 Y55.9513 F300.00
G01 X-55.3238 Y56.0220 F300.00
G01 X-55.3064 Y56.0913 F300.00
G01 X-55.2824 Y56.1585 F300.00
G01 X-55.2519 Y56.2231 F300.00
G01 X-55.2151 Y56.2843 F300.00
G01 X-55.1726 Y56.3417 F300.00
G01 X-55.1246 Y56.3946 F300.00
G01 X-55.0717 Y56.4426 F300.00
G01 X-55.0143 Y56.4851 F300.00
G01 X-54.9531 Y56.5219 F300.00
G01 X-54.8885 Y56.5524 F300.00
G01 X-54.8213 Y56.5764 F300.00
G01 X-54.7520 Y56.5938 F300.00
G01 X-54.6813 Y56.6043 F300.00
G01 X-54.6247 Y56.6071 F300.00
G01 X0.0147 Y56.6071 F300.00
G01 X0.0713 Y56.6043 F300.00
G01 X0.1420 Y56.5938 F300.00
G01 X0.2113 Y56.5764 F300.00
G01 X0.2785 Y56.5524 F300.00
G01 X0.3431 Y56.5219 F300.00
G01 X0.4043 Y56.4851 F300.00
G01 X0.4617 Y56.4426 F300.00
G01 X0.5146 Y56.3946 F300.00
G01 X0.5626 Y56.3417 F300.00
G01 X0.6051 Y56.2843 F300.00
G01 X0.6419 Y56.2231 F300.00
G01 X0.6724 Y56.1585 F300.00
G01 X0.6964 Y56.0913 F300.00
G01 X0.7138 Y56.0220 F300.00
G01 X0.7243 Y55.9513 F300.00
G01 X0.7271 Y55.8947 F300.00
G01 X0.7271 Y-0.0147 F300.00
G01 X0.7243 Y-0.0713 F300.00
G01 X0.7138 Y-0.1420 F300.00
G01 X0.6964 Y-0.2113 F300.00
G01 X0.6724 Y-0.2785 F300.00
G01 X0.6419 Y-0.3431 F300.00
G01 X0.6051 Y-0.4043 F300.00
G01 X0.5626 Y-0.4617 F300.00
G01 X0.5146 Y-0.5146 F300.00
G01 X0.4617 Y-0.5626 F300.00
G01 X0.4043 Y-0.6051 F300.00
G01 X0.3431 Y-0.6419 F300.00
G01 X0.2785 Y-0.6724 F300.00
G01 X0.2113 Y-0.6964 F300.00
G01 X0.1420 Y-0.7138 F300.00
G01 X0.0713 Y-0.7243 F300.00
G01 X0.0147 Y-0.7271 F300.00
G01 X-54.6247 Y-0.7271 F300.00
G00 Z0.5000
G00 X-53.1713 Y52.3384
G01 F60.00
G01 Z-0.2000
G01 F300.00
G01 X-53.1754 Y54.4471 F300.00
G01 X-51.0695 Y54.4471 F300.00
G01 X-51.0605 Y54.3840 F300.00
G01 X-51.0508 Y54.3263 F300.00
G01 X-51.0389 Y54.2645 F300.00
G01 X-51.0255 Y54.2014 F300.00
G01 X-51.0109 Y54.1406 F300.00
G01 X-50.9948 Y54.0802 F300.00
G01 X-50.9773 Y54.0202 F300.00
G01 X-50.9583 Y53.9606 F300.00
G01 X-50.9379 Y53.9015 F300.00
G01 X-50.9142 Y53.8380 F300.00
G01 X-50.8913 Y53.7804 F300.00
G01 X-50.8663 Y53.7215 F300.00
G01 X-50.8397 Y53.6633 F300.00
G01 X-50.8118 Y53.6058 F300.00
G01 X-50.7824 Y53.5490 F300.00
G01 X-50.7516 Y53.4929 F300.00
G01 X-50.7223 Y53.4425 F300.00
G01 X-50.6893 Y53.3882 F300.00
G01 X-50.6594 Y53.3414 F300.00
G01 X-50.6233 Y53.2879 F300.00
G01 X-50.5885 Y53.2389 F300.00
G01 X-50.5499 Y53.1871 F300.00
G01 X-50.5099 Y53.1364 F300.00
G01 X-50.4700 Y53.0880 F300.00
G01 X-50.4386 Y53.0513 F300.00
G01 X-50.4062 Y53.0150 F300.00
G01 X-50.3765 Y52.9827 F300.00
G01 X-50.3469 Y52.9517 F300.00
G01 X-50.3195 Y52.9238 F300.00
G01 X-50.0273 Y52.6316 F300.00
G01 X-49.8916 Y52.3652 F300.00
G01 X-49.8448 Y52.0700 F300.00
G01 X-49.8916 Y51.7748 F300.00
G01 X-50.0273 Y51.5084 F300.00
G01 X-50.2384 Y51.2973 F300.00
G01 X-50.5048 Y51.1616 F300.00
G01 X-50.8000 Y51.1148 F300.00
G01 X-51.0952 Y51.1616 F300.00
G01 X-51.3616 Y51.2973 F300.00
G01 X-51.6538 Y51.5895 F300.00
G01 X-51.6834 Y51.6186 F300.00
G01 X-51.7175 Y51.6510 F300.00
G01 X-51.7501 Y51.6811 F300.00
G01 X-51.7868 Y51.7137 F300.00
G01 X-51.8215 Y51.7433 F300.00
G01 X-51.8741 Y51.7864 F300.00
G01 X-51.9207 Y51.8226 F300.00
G01 X-51.9644 Y51.8551 F300.00
G01 X-52.0144 Y51.8907 F300.00
G01 X-52.0602 Y51.9219 F300.00
G01 X-52.1106 Y51.9545 F300.00
G01 X-52.1569 Y51.9831 F300.00
G01 X-52.2126 Y52.0157 F300.00
G01 X-52.2691 Y52.0468 F300.00
G01 X-52.3345 Y52.0808 F300.00
G01 X-52.3875 Y52.1068 F300.00
G01 X-52.4428 Y52.1324 F300.00
G01 X-52.5065 Y52.1599 F300.00
G01 X-52.5629 Y52.1826 F300.00
G01 X-52.6199 Y52.2040 F300.00
G01 X-52.6774 Y52.2239 F300.00
G01 X-52.7419 Y52.2447 F300.00
G01 X-52.8018 Y52.2625 F300.00
G01 X-52.8622 Y52.2788 F300.00
G01 X-52.9230 Y52.2937 F300.00
G01 X-52.9841 Y52.3070 F300.00
G01 X-53.0455 Y52.3189 F300.00
G01 X-53.1072 Y52.3292 F300.00
G01 X-53.1713 Y52.3384 F300.00
G01 X-52.4524 Y52.9079 F300.00
G01 X-52.4540 Y53.7271 F300.00
G01 X-51.6394 Y53.7271 F300.00
G01 X-51.6217 Y53.6753 F300.00
G01 X-51.6056 Y53.6310 F300.00
G01 X-51.5849 Y53.5762 F300.00
G01 X-51.5635 Y53.5218 F300.00
G01 X-51.5436 Y53.4740 F300.00
G01 X-51.5245 Y53.4297 F300.00
G01 X-51.5033 Y53.3826 F300.00
G01 X-51.4789 Y53.3308 F300.00
G01 X-51.4556 Y53.2835 F300.00
G01 X-51.4321 Y53.2375 F300.00
G01 X-51.4052 Y53.1870 F300.00
G01 X-51.3840 Y53.1487 F300.00
G01 X-51.3566 Y53.1007 F300.00
G01 X-51.3281 Y53.0525 F300.00
G01 X-51.3050 Y53.0149 F300.00
G01 X-51.2759 Y52.9688 F300.00
G01 X-51.2404 Y52.9149 F300.00
G01 X-51.2090 Y52.8691 F300.00
G01 X-51.1775 Y52.8246 F300.00
G01 X-51.1405 Y52.7744 F300.00
G01 X-51.1096 Y52.7339 F300.00
G01 X-51.0709 Y52.6851 F300.00
G01 X-51.0339 Y52.6400 F300.00
G01 X-50.9942 Y52.5932 F300.00
G01 X-50.9606 Y52.5547 F300.00
G01 X-50.9288 Y52.5194 F300.00
G01 X-50.9005 Y52.4890 F300.00
G01 X-50.8677 Y52.4545 F300.00
G01 X-50.8295 Y52.4155 F300.00
G01 X-50.6170 Y52.2031 F300.00
G01 X-50.5849 Y52.1400 F300.00
G01 X-50.5738 Y52.0700 F300.00
G01 X-50.5849 Y52.0000 F300.00
G01 X-50.6170 Y51.9369 F300.00
G01 X-50.6669 Y51.8870 F300.00
G01 X-50.7300 Y51.8549 F300.00
G01 X-50.8000 Y51.8438 F300.00
G01 X-50.8700 Y51.8549 F300.00
G01 X-50.9331 Y51.8870 F300.00
G01 X-51.1472 Y52.1011 F300.00
G01 X-51.1920 Y52.1449 F300.00
G01 X-51.2331 Y52.1838 F300.00
G01 X-51.2748 Y52.2219 F300.00
G01 X-51.3149 Y52.2574 F300.00
G01 X-51.3580 Y52.2943 F300.00
G01 X-51.3914 Y52.3220 F300.00
G01 X-51.4331 Y52.3556 F300.00
G01 X-51.4638 Y52.3796 F300.00
G01 X-51.5029 Y52.4093 F300.00
G01 X-51.5387 Y52.4357 F300.00
G01 X-51.5793 Y52.4650 F300.00
G01 X-51.6248 Y52.4967 F300.00
G01 X-51.6576 Y52.5188 F300.00
G01 X-51.7012 Y52.5474 F300.00
G01 X-51.7481 Y52.5770 F300.00
G01 X-51.7974 Y52.6070 F300.00
G01 X-51.8503 Y52.6379 F300.00
G01 X-51.8907 Y52.6606 F300.00
G01 X-51.9455 Y52.6902 F300.00
G01 X-52.0053 Y52.7211 F300.00
G01 X-52.0473 Y52.7420 F300.00
G01 X-52.0936 Y52.7643 F300.00
G01 X-52.1470 Y52.7888 F300.00
G01 X-52.1948 Y52.8098 F300.00
G01 X-52.2470 Y52.8317 F300.00
G01 X-52.2927 Y52.8500 F300.00
G01 X-52.3415 Y52.8687 F300.00
G01 X-52.3967 Y52.8888 F300.00
G01 X-52.4524 Y52.9079 F300.00
G01 X-53.8968 Y55.1671 F300.00
G01 X-50.3337 Y55.1671 F300.00
G01 X-50.3417 Y55.1250 F300.00
G01 X-50.3475 Y55.0903 F300.00
G01 X-50.3515 Y55.0639 F300.00
G01 X-50.3562 Y55.0290 F300.00
G01 X-50.3600 Y54.9974 F300.00
G01 X-50.3636 Y54.9616 F300.00
G01 X-50.3667 Y54.9247 F300.00
G01 X-50.3689 Y54.8889 F300.00
G01 X-50.3705 Y54.8519 F300.00
G01 X-50.3712 Y54.8240 F300.00
G01 X-50.3715 Y54.7870 F300.00
G01 X-50.3710 Y54.7511 F300.00
G01 X-50.3698 Y54.7141 F300.00
G01 X-50.3681 Y54.6760 F300.00
G01 X-50.3657 Y54.6396 F300.00
G01 X-50.3634 Y54.6122 F300.00
G01 X-50.3598 Y54.5760 F300.00
G01 X-50.3556 Y54.5408 F300.00
G01 X-50.3505 Y54.5048 F300.00
G01 X-50.3463 Y54.4776 F300.00
G01 X-50.3418 Y54.4514 F300.00
G01 X-50.3349 Y54.4157 F300.00
G01 X-50.3255 Y54.3705 F300.00
G01 X-50.3194 Y54.3438 F300.00
G01 X-50.3107 Y54.3087 F300.00
G01 X-50.3016 Y54.2748 F300.00
G01 X-50.2916 Y54.2400 F300.00
G01 X-50.2836 Y54.2139 F300.00
G01 X-50.2724 Y54.1795 F300.00
G01 X-50.2608 Y54.1463 F300.00
G01 X-50.2356 Y54.0795 F300.00
G01 X-50.2147 Y54.0286 F300.00
G01 X-50.1998 Y53.9948 F300.00
G01 X-50.1880 Y53.9694 F300.00
G01 X-50.1720 Y53.9361 F300.00
G01 X-50.1557 Y53.9041 F300.00
G01 X-50.1382 Y53.8714 F300.00
G01 X-50.1246 Y53.8470 F300.00
G01 X-50.1061 Y53.8149 F300.00
G01 X-50.0885 Y53.7855 F300.00
G01 X-50.0687 Y53.7538 F300.00
G01 X-50.0533 Y53.7301 F300.00
G01 X-50.0324 Y53.6992 F300.00
G01 X-50.0114 Y53.6695 F300.00
G01 X-49.9893 Y53.6394 F300.00
G01 X-49.9721 Y53.6170 F300.00
G01 X-49.9432 Y53.5807 F300.00
G01 X-49.9032 Y53.5329 F300.00
G01 X-49.8709 Y53.4965 F300.00
G01 X-49.8377 Y53.4609 F300.00
G01 X-49.8104 Y53.4329 F300.00
G01 X-49.4375 Y53.0600 F300.00
G01 X-49.1983 Y52.5905 F300.00
G01 X-49.1158 Y52.0700 F300.00
G01 X-49.1983 Y51.5495 F300.00
G01 X-49.4375 Y51.0800 F300.00
G01 X-49.8100 Y50.7075 F300.00
G01 X-50.2795 Y50.4683 F300.00
G01 X-50.8000 Y50.3858 F300.00
G01 X-51.3205 Y50.4683 F300.00
G01 X-51.7900 Y50.7075 F300.00
G01 X-52.1835 Y51.1006 F300.00
G01 X-52.2211 Y51.1361 F300.00
G01 X-52.2521 Y51.1641 F300.00
G01 X-52.2731 Y51.1823 F300.00
G01 X-52.3081 Y51.2115 F300.00
G01 X-52.3290 Y51.2282 F300.00
G01 X-52.3581 Y51.2507 F300.00
G01 X-52.4107 Y51.2892 F300.00
G01 X-52.4413 Y51.3105 F300.00
G01 X-52.4647 Y51.3262 F300.00
G01 X-52.4961 Y51.3464 F300.00
G01 X-52.5192 Y51.3608 F300.00
G01 X-52.5435 Y51.3753 F300.00
G01 X-52.5758 Y51.3939 F300.00
G01 X-52.6245 Y51.4203 F300.00
G01 X-52.6815 Y51.4492 F300.00
G01 X-52.7133 Y51.4644 F300.00
G01 X-52.7445 Y51.4786 F300.00
G01 X-52.7768 Y51.4925 F300.00
G01 X-52.8014 Y51.5026 F300.00
G01 X-52.8341 Y51.5155 F300.00
G01 X-52.8752 Y51.5306 F300.00
G01 X-52.9166 Y51.5447 F300.00
G01 X-52.9563 Y51.5574 F300.00
G01 X-52.9900 Y51.5675 F300.00
G01 X-53.0249 Y51.5771 F300.00
G01 X-53.0685 Y51.5882 F300.00
G01 X-53.0951 Y51.5944 F300.00
G01 X-53.1305 Y51.6020 F300.00
G01 X-53.1650 Y51.6088 F300.00
G01 X-53.2006 Y51.6150 F300.00
G01 X-53.2277 Y51.6192 F300.00
G01 X-53.2813 Y51.6267 F300.00
G01 X-53.3097 Y51.6301 F300.00
G01 X-53.3472 Y51.6339 F300.00
G01 X-53.3838 Y51.6369 F300.00
G01 X-53.4215 Y51.6391 F300.00
G01 X-53.4500 Y51.6404 F300.00
G01 X-53.4877 Y51.6413 F300.00
G01 X-53.5244 Y51.6414 F300.00
G01 X-53.5598 Y51.6410 F300.00
G01 X-53.6063 Y51.6395 F300.00
G01 X-53.6436 Y51.6375 F300.00
G01 X-53.6799 Y51.6348 F300.00
G01 X-53.7171 Y51.6312 F300.00
G01 X-53.7452 Y51.6280 F300.00
G01 X-53.7823 Y51.6232 F300.00
G01 X-53.8183 Y51.6177 F300.00
G01 X-53.8551 Y51.6114 F300.00
G01 X-53.8957 Y51.6037 F300.00
G01 X-53.8968 Y55.1671 F300.00
G01 X-48.9269 Y55.8871 F300.00
G01 X-48.9518 Y55.8760 F300.00
G01 X-48.9763 Y55.8644 F300.00
G01 X-49.0188 Y55.8428 F300.00
G01 X-49.0526 Y55.8242 F300.00
G01 X-49.0771 Y55.8097 F300.00
G01 X-49.1012 Y55.7946 F300.00
G01 X-49.1249 Y55.7789 F300.00
G01 X-49.1483 Y55.7626 F300.00
G01 X-49.1915 Y55.7304 F300.00
G01 X-49.2206 Y55.7071 F300.00
G01 X-49.2549 Y55.6775 F300.00
G01 X-49.2752 Y55.6589 F300.00
G01 X-49.2950 Y55.6397 F300.00
G01 X-49.3277 Y55.6062 F300.00
G01 X-49.3536 Y55.5778 F300.00
G01 X-49.3836 Y55.5424 F300.00
G01 X-49.4011 Y55.5202 F300.00
G01 X-49.4181 Y55.4976 F300.00
G01 X-49.4481 Y55.4548 F300.00
G01 X-49.4630 Y55.4323 F300.00
G01 X-49.4773 Y55.4095 F300.00
G01 X-49.4959 Y55.3781 F300.00
G01 X-49.5169 Y55.3392 F300.00
G01 X-49.5391 Y55.2941 F300.00
G01 X-49.5481 Y55.2744 F300.00
G01 X-49.5594 Y55.2484 F300.00
G01 X-49.5765 Y55.2050 F300.00
G01 X-49.5860 Y55.1783 F300.00
G01 X-49.5948 Y55.1514 F300.00
G01 X-49.6087 Y55.1043 F300.00
G01 X-49.6156 Y55.0785 F300.00
G01 X-49.6219 Y55.0526 F300.00
G01 X-49.6294 Y55.0173 F300.00
G01 X-49.6370 Y54.9742 F300.00
G01 X-49.6408 Y54.9478 F300.00
G01 X-49.6441 Y54.9198 F300.00
G01 X-49.6464 Y54.8986 F300.00
G01 X-49.6487 Y54.8707 F300.00
G01 X-49.6510 Y54.8248 F300.00
G01 X-49.6515 Y54.7969 F300.00
G01 X-49.6512 Y54.7689 F300.00
G01 X-49.6493 Y54.7176 F300.00
G01 X-49.6475 Y54.6901 F300.00
G01 X-49.6450 Y54.6627 F300.00
G01 X-49.6405 Y54.6256 F300.00
G01 X-49.6365 Y54.5984 F300.00
G01 X-49.6317 Y54.5713 F300.00
G01 X-49.6217 Y54.5224 F300.00
G01 X-49.6154 Y54.4958 F300.00
G01 X-49.6058 Y54.4599 F300.00
G01 X-49.5980 Y54.4337 F300.00
G01 X-49.5895 Y54.4077 F300.00
G01 X-49.5804 Y54.3819 F300.00
G01 X-49.5644 Y54.3401 F300.00
G01 X-49.5538 Y54.3142 F300.00
G01 X-49.5425 Y54.2886 F300.00
G01 X-49.5305 Y54.2633 F300.00
G01 X-49.5180 Y54.2383 F300.00
G01 X-49.5048 Y54.2137 F300.00
G01 X-49.4845 Y54.1782 F300.00
G01 X-49.4699 Y54.1540 F300.00
G01 X-49.4547 Y54.1302 F300.00
G01 X-49.4389 Y54.1068 F300.00
G01 X-49.4225 Y54.0838 F300.00
G01 X-49.4055 Y54.0612 F300.00
G01 X-49.3880 Y54.0390 F300.00
G01 X-49.3677 Y54.0146 F300.00
G01 X-49.3483 Y53.9921 F300.00
G01 X-49.3284 Y53.9702 F300.00
G01 X-49.3013 Y53.9420 F300.00
G01 X-48.8477 Y53.4885 F300.00
G01 X-48.5050 Y52.8157 F300.00
G01 X-48.3869 Y52.0700 F300.00
G01 X-48.5050 Y51.3243 F300.00
G01 X-48.8477 Y50.6515 F300.00
G01 X-49.3815 Y50.1177 F300.00
G01 X-50.0543 Y49.7750 F300.00
G01 X-50.8000 Y49.6569 F300.00
G01 X-51.5457 Y49.7750 F300.00
G01 X-52.2185 Y50.1177 F300.00
G01 X-52.6720 Y50.5713 F300.00
G01 X-52.6959 Y50.5944 F300.00
G01 X-52.7101 Y50.6077 F300.00
G01 X-52.7308 Y50.6262 F300.00
G01 X-52.7596 Y50.6506 F300.00
G01 X-52.7813 Y50.6679 F300.00
G01 X-52.8034 Y50.6847 F300.00
G01 X-52.8346 Y50.7072 F300.00
G01 X-52.8579 Y50.7231 F300.00
G01 X-52.8816 Y50.7384 F300.00
G01 X-52.9057 Y50.7531 F300.00
G01 X-52.9461 Y50.7759 F300.00
G01 X-52.9711 Y50.7890 F300.00
G01 X-53.0102 Y50.8084 F300.00
G01 X-53.0431 Y50.8234 F300.00
G01 X-53.0836 Y50.8400 F300.00
G01 X-53.1174 Y50.8526 F300.00
G01 X-53.1614 Y50.8672 F300.00
G01 X-53.1970 Y50.8778 F300.00
G01 X-53.2406 Y50.8891 F300.00
G01 X-53.2768 Y50.8971 F300.00
G01 X-53.3037 Y50.9022 F300.00
G01 X-53.3481 Y50.9092 F300.00
G01 X-53.3860 Y50.9142 F300.00
G01 X-53.4327 Y50.9185 F300.00
G01 X-53.4612 Y50.9202 F300.00
G01 X-53.5000 Y50.9214 F300.00
G01 X-53.5423 Y50.9212 F300.00
G01 X-53.5888 Y50.9195 F300.00
G01 X-53.6271 Y50.9166 F300.00
G01 X-53.6733 Y50.9114 F300.00
G01 X-53.7112 Y50.9057 F300.00
G01 X-53.7656 Y50.8955 F300.00
G01 X-53.8105 Y50.8852 F300.00
G01 X-53.8472 Y50.8753 F300.00
G01 X-53.8913 Y50.8617 F300.00
G01 X-53.9284 Y50.8488 F300.00
G01 X-53.9708 Y50.8326 F300.00
G01 X-54.0053 Y50.8178 F300.00
G01 X-54.0463 Y50.7985 F300.00
G01 X-54.0796 Y50.7812 F300.00
G01 X-54.1216 Y50.7578 F300.00
G01 X-54.1457 Y50.7435 F300.00
G01 X-54.1695 Y50.7285 F300.00
G01 X-54.2077 Y50.7026 F300.00
G01 X-54.2384 Y50.6801 F300.00
G01 X-54.2728 Y50.6532 F300.00
G01 X-54.2936 Y50.6359 F300.00
G01 X-54.3140 Y50.6182 F300.00
G01 X-54.3466 Y50.5879 F300.00
G01 X-54.3726 Y50.5620 F300.00
G01 X-54.4029 Y50.5295 F300.00
G01 X-54.4329 Y50.4955 F300.00
G01 X-54.4557 Y50.4677 F300.00
G01 X-54.4821 Y50.4331 F300.00
G01 X-54.5028 Y50.4038 F300.00
G01 X-54.5188 Y50.3800 F300.00
G01 X-54.5338 Y50.3566 F300.00
G01 X-54.5572 Y50.3174 F300.00
G01 X-54.5753 Y50.2843 F300.00
G01 X-54.5957 Y50.2435 F300.00
G01 X-54.6171 Y50.1964 F300.00
G01 X-54.6169 Y55.8807 F300.00
G01 X-54.6161 Y55.8833 F300.00
G01 X-54.6138 Y55.8858 F300.00
G01 X-54.6113 Y55.8868 F300.00
G01 X-54.6071 Y55.8871 F300.00
G01 X-48.9269 Y55.8871 F300.00
G00 Z0.5000
G00 X-25.8663 Y55.1659
G01 F60.00
G01 Z-0.2000
G01 F300.00
G01 X-24.9338 Y55.1664 F300.00
G01 X-24.9417 Y55.1250 F300.00
G01 X-24.9475 Y55.0903 F300.00
G01 X-24.9515 Y55.0639 F300.00
G01 X-24.9567 Y55.0253 F300.00
G01 X-24.9618 Y54.9805 F300.00
G01 X-24.9652 Y54.9437 F300.00
G01 X-24.9673 Y54.9158 F300.00
G01 X-24.9694 Y54.8789 F300.00
G01 X-24.9708 Y54.8429 F300.00
G01 X-24.9714 Y54.8060 F300.00
G01 X-24.9714 Y54.7780 F300.00
G01 X-24.9705 Y54.7321 F300.00
G01 X-24.9685 Y54.6848 F300.00
G01 X-24.9669 Y54.6573 F300.00
G01 X-24.9642 Y54.6210 F300.00
G01 X-24.9598 Y54.5760 F300.00
G01 X-24.9556 Y54.5408 F300.00
G01 X-24.9505 Y54.5048 F300.00
G01 X-24.9463 Y54.4776 F300.00
G01 X-24.9383 Y54.4331 F300.00
G01 X-24.9292 Y54.3877 F300.00
G01 X-24.9214 Y54.3524 F300.00
G01 X-24.9131 Y54.3182 F300.00
G01 X-24.9040 Y54.2832 F300.00
G01 X-24.8966 Y54.2569 F300.00
G01 X-24.8836 Y54.2139 F300.00
G01 X-24.8724 Y54.1795 F300.00
G01 X-24.8608 Y54.1463 F300.00
G01 X-24.8472 Y54.1097 F300.00
G01 X-24.8323 Y54.0711 F300.00
G01 X-24.8182 Y54.0369 F300.00
G01 X-24.8071 Y54.0112 F300.00
G01 X-24.7961 Y53.9866 F300.00
G01 X-24.7803 Y53.9532 F300.00
G01 X-24.7679 Y53.9281 F300.00
G01 X-24.7510 Y53.8952 F300.00
G01 X-24.7246 Y53.8470 F300.00
G01 X-24.7061 Y53.8149 F300.00
G01 X-24.6885 Y53.7855 F300.00
G01 X-24.6687 Y53.7538 F300.00
G01 X-24.6638 Y53.7462 F300.00
G01 X-24.6533 Y53.7301 F300.00
G01 X-24.6324 Y53.6992 F300.00
G01 X-24.6167 Y53.6769 F300.00
G01 X-24.5838 Y53.6322 F300.00
G01 X-24.5490 Y53.5877 F300.00
G01 X-24.5199 Y53.5526 F300.00
G01 X-24.4900 Y53.5178 F300.00
G01 X-24.4573 Y53.4817 F300.00
G01 X-24.4311 Y53.4541 F300.00
G01 X-24.4104 Y53.4329 F300.00
G01 X-24.0375 Y53.0600 F300.00
G01 X-23.7983 Y52.5905 F300.00
G01 X-23.7158 Y52.0700 F300.00
G01 X-23.7983 Y51.5495 F300.00
G01 X-24.0375 Y51.0800 F300.00
G01 X-24.4100 Y50.7075 F300.00
G01 X-24.8795 Y50.4683 F300.00
G01 X-25.4000 Y50.3858 F300.00
G01 X-25.9205 Y50.4683 F300.00
G01 X-26.3900 Y50.7075 F300.00
G01 X-26.7625 Y51.0800 F300.00
G01 X-27.0017 Y51.5495 F300.00
G01 X-27.0842 Y52.0700 F300.00
G01 X-27.0017 Y52.5905 F300.00
G01 X-26.7625 Y53.0600 F300.00
G01 X-26.3694 Y53.4535 F300.00
G01 X-26.3339 Y53.4911 F300.00
G01 X-26.3059 Y53.5221 F300.00
G01 X-26.2762 Y53.5567 F300.00
G01 X-26.2585 Y53.5781 F300.00
G01 X-26.2357 Y53.6068 F300.00
G01 X-26.2193 Y53.6281 F300.00
G01 X-26.1808 Y53.6807 F300.00
G01 X-26.1595 Y53.7113 F300.00
G01 X-26.1438 Y53.7347 F300.00
G01 X-26.1236 Y53.7661 F300.00
G01 X-26.1092 Y53.7892 F300.00
G01 X-26.0811 Y53.8370 F300.00
G01 X-26.0629 Y53.8696 F300.00
G01 X-26.0497 Y53.8945 F300.00
G01 X-26.0208 Y53.9515 F300.00
G01 X-26.0056 Y53.9833 F300.00
G01 X-25.9914 Y54.0145 F300.00
G01 X-25.9742 Y54.0547 F300.00
G01 X-25.9610 Y54.0873 F300.00
G01 X-25.9515 Y54.1121 F300.00
G01 X-25.9394 Y54.1452 F300.00
G01 X-25.9253 Y54.1866 F300.00
G01 X-25.9126 Y54.2263 F300.00
G01 X-25.9025 Y54.2600 F300.00
G01 X-25.8929 Y54.2949 F300.00
G01 X-25.8860 Y54.3214 F300.00
G01 X-25.8756 Y54.3651 F300.00
G01 X-25.8680 Y54.4005 F300.00
G01 X-25.8612 Y54.4350 F300.00
G01 X-25.8550 Y54.4706 F300.00
G01 X-25.8508 Y54.4977 F300.00
G01 X-25.8433 Y54.5513 F300.00
G01 X-25.8399 Y54.5797 F300.00
G01 X-25.8361 Y54.6172 F300.00
G01 X-25.8331 Y54.6538 F300.00
G01 X-25.8309 Y54.6915 F300.00
G01 X-25.8296 Y54.7200 F300.00
G01 X-25.8287 Y54.7577 F300.00
G01 X-25.8286 Y54.7944 F300.00
G01 X-25.8290 Y54.8298 F300.00
G01 X-25.8305 Y54.8763 F300.00
G01 X-25.8325 Y54.9136 F300.00
G01 X-25.8352 Y54.9499 F300.00
G01 X-25.8388 Y54.9871 F300.00
G01 X-25.8420 Y55.0152 F300.00
G01 X-25.8468 Y55.0523 F300.00
G01 X-25.8523 Y55.0883 F300.00
G01 X-25.8586 Y55.1251 F300.00
G01 X-25.8663 Y55.1659 F300.00
G01 X-25.4002 Y53.5830 F300.00
G01 X-25.3824 Y53.5490 F300.00
G01 X-25.3652 Y53.5174 F300.00
G01 X-25.3342 Y53.4627 F300.00
G01 X-25.2965 Y53.3997 F300.00
G01 X-25.2619 Y53.3452 F300.00
G01 X-25.2259 Y53.2916 F300.00
G01 X-25.1885 Y53.2389 F300.00
G01 X-25.1499 Y53.1871 F300.00
G01 X-25.1071 Y53.1329 F300.00
G01 X-25.0700 Y53.0880 F300.00
G01 X-25.0479 Y53.0621 F300.00
G01 X-25.0417 Y53.0549 F300.00
G01 X-25.0386 Y53.0513 F300.00
G01 X-25.0316 Y53.0434 F300.00
G01 X-24.9934 Y53.0009 F300.00
G01 X-24.9568 Y52.9620 F300.00
G01 X-24.9195 Y52.9238 F300.00
G01 X-24.6273 Y52.6316 F300.00
G01 X-24.4916 Y52.3652 F300.00
G01 X-24.4448 Y52.0700 F300.00
G01 X-24.4916 Y51.7748 F300.00
G01 X-24.6273 Y51.5084 F300.00
G01 X-24.8384 Y51.2973 F300.00
G01 X-25.1048 Y51.1616 F300.00
G01 X-25.4000 Y51.1148 F300.00
G01 X-25.6952 Y51.1616 F300.00
G01 X-25.9616 Y51.2973 F300.00
G01 X-26.1727 Y51.5084 F300.00
G01 X-26.3084 Y51.7748 F300.00
G01 X-26.3552 Y52.0700 F300.00
G01 X-26.3084 Y52.3652 F300.00
G01 X-26.1727 Y52.6316 F300.00
G01 X-25.8805 Y52.9238 F300.00
G01 X-25.8443 Y52.9608 F300.00
G01 X-25.8037 Y53.0040 F300.00
G01 X-25.7681 Y53.0434 F300.00
G01 X-25.7382 Y53.0779 F300.00
G01 X-25.7004 Y53.1232 F300.00
G01 X-25.6610 Y53.1730 F300.00
G01 X-25.6188 Y53.2290 F300.00
G01 X-25.5793 Y53.2844 F300.00
G01 X-25.5406 Y53.3416 F300.00
G01 X-25.5155 Y53.3806 F300.00
G01 X-25.4963 Y53.4114 F300.00
G01 X-25.4634 Y53.4669 F300.00
G01 X-25.4296 Y53.5271 F300.00
G01 X-25.4002 Y53.5830 F300.00
G01 X-25.4000 Y52.3861 F300.00
G01 X-25.2170 Y52.2031 F300.00
G01 X-25.1849 Y52.1400 F300.00
G01 X-25.1738 Y52.0700 F300.00
G01 X-25.1849 Y52.0000 F300.00
G01 X-25.2170 Y51.9369 F300.00
G01 X-25.2669 Y51.8870 F300.00
G01 X-25.3300 Y51.8549 F300.00
G01 X-25.4000 Y51.8438 F300.00
G01 X-25.4700 Y51.8549 F300.00
G01 X-25.5331 Y51.8870 F300.00
G01 X-25.5830 Y51.9369 F300.00
G01 X-25.6151 Y52.0000 F300.00
G01 X-25.6262 Y52.0700 F300.00
G01 X-25.6151 Y52.1400 F300.00
G01 X-25.5830 Y52.2031 F300.00
G01 X-25.4000 Y52.3861 F300.00
G01 X-23.5269 Y55.8871 F300.00
G01 X-23.5518 Y55.8760 F300.00
G01 X-23.5763 Y55.8644 F300.00
G01 X-23.6188 Y55.8428 F300.00
G01 X-23.6438 Y55.8292 F300.00
G01 X-23.6684 Y55.8150 F300.00
G01 X-23.7012 Y55.7946 F300.00
G01 X-23.7249 Y55.7789 F300.00
G01 X-23.7483 Y55.7626 F300.00
G01 X-23.7915 Y55.7304 F300.00
G01 X-23.8206 Y55.7071 F300.00
G01 X-23.8549 Y55.6775 F300.00
G01 X-23.8752 Y55.6589 F300.00
G01 X-23.8950 Y55.6397 F300.00
G01 X-23.9277 Y55.6062 F300.00
G01 X-23.9536 Y55.5778 F300.00
G01 X-23.9836 Y55.5424 F300.00
G01 X-24.0011 Y55.5202 F300.00
G01 X-24.0181 Y55.4976 F300.00
G01 X-24.0481 Y55.4548 F300.00
G01 X-24.0630 Y55.4323 F300.00
G01 X-24.0773 Y55.4095 F300.00
G01 X-24.0959 Y55.3781 F300.00
G01 X-24.1169 Y55.3392 F300.00
G01 X-24.1391 Y55.2941 F300.00
G01 X-24.1481 Y55.2744 F300.00
G01 X-24.1594 Y55.2484 F300.00
G01 X-24.1765 Y55.2050 F300.00
G01 X-24.1860 Y55.1783 F300.00
G01 X-24.1948 Y55.1514 F300.00
G01 X-24.2087 Y55.1043 F300.00
G01 X-24.2179 Y55.0693 F300.00
G01 X-24.2240 Y55.0434 F300.00
G01 X-24.2294 Y55.0173 F300.00
G01 X-24.2370 Y54.9742 F300.00
G01 X-24.2408 Y54.9478 F300.00
G01 X-24.2441 Y54.9198 F300.00
G01 X-24.2464 Y54.8986 F300.00
G01 X-24.2487 Y54.8707 F300.00
G01 X-24.2510 Y54.8248 F300.00
G01 X-24.2515 Y54.7969 F300.00
G01 X-24.2512 Y54.7689 F300.00
G01 X-24.2493 Y54.7176 F300.00
G01 X-24.2475 Y54.6901 F300.00
G01 X-24.2450 Y54.6627 F300.00
G01 X-24.2405 Y54.6256 F300.00
G01 X-24.2365 Y54.5984 F300.00
G01 X-24.2317 Y54.5713 F300.00
G01 X-24.2283 Y54.5539 F300.00
G01 X-24.2217 Y54.5224 F300.00
G01 X-24.2154 Y54.4958 F300.00
G01 X-24.2084 Y54.4693 F300.00
G01 X-24.2008 Y54.4431 F300.00
G01 X-24.1926 Y54.4170 F300.00
G01 X-24.1804 Y54.3819 F300.00
G01 X-24.1644 Y54.3401 F300.00
G01 X-24.1538 Y54.3142 F300.00
G01 X-24.1425 Y54.2886 F300.00
G01 X-24.1305 Y54.2633 F300.00
G01 X-24.1180 Y54.2383 F300.00
G01 X-24.1048 Y54.2137 F300.00
G01 X-24.0845 Y54.1782 F300.00
G01 X-24.0699 Y54.1540 F300.00
G01 X-24.0547 Y54.1302 F300.00
G01 X-24.0389 Y54.1068 F300.00
G01 X-24.0225 Y54.0838 F300.00
G01 X-24.0055 Y54.0612 F300.00
G01 X-23.9880 Y54.0390 F300.00
G01 X-23.9677 Y54.0146 F300.00
G01 X-23.9483 Y53.9921 F300.00
G01 X-23.9284 Y53.9702 F300.00
G01 X-23.9013 Y53.9420 F300.00
G01 X-23.4477 Y53.4885 F300.00
G01 X-23.1050 Y52.8157 F300.00
G01 X-22.9869 Y52.0700 F300.00
G01 X-23.1050 Y51.3243 F300.00
G01 X-23.4477 Y50.6515 F300.00
G01 X-23.9815 Y50.1177 F300.00
G01 X-24.6543 Y49.7750 F300.00
G01 X-25.4000 Y49.6569 F300.00
G01 X-26.1457 Y49.7750 F300.00
G01 X-26.8185 Y50.1177 F300.00
G01 X-27.3523 Y50.6515 F300.00
G01 X-27.6950 Y51.3243 F300.00
G01 X-27.8131 Y52.0700 F300.00
G01 X-27.6950 Y52.8157 F300.00
G01 X-27.3523 Y53.4885 F300.00
G01 X-26.8987 Y53.9420 F300.00
G01 X-26.8691 Y53.9728 F300.00
G01 X-26.8438 Y54.0008 F300.00
G01 X-26.8257 Y54.0219 F300.00
G01 X-26.8082 Y54.0435 F300.00
G01 X-26.7913 Y54.0654 F300.00
G01 X-26.7687 Y54.0964 F300.00
G01 X-26.7526 Y54.1195 F300.00
G01 X-26.7370 Y54.1431 F300.00
G01 X-26.7221 Y54.1671 F300.00
G01 X-26.7078 Y54.1914 F300.00
G01 X-26.6894 Y54.2250 F300.00
G01 X-26.6733 Y54.2563 F300.00
G01 X-26.6576 Y54.2888 F300.00
G01 X-26.6466 Y54.3131 F300.00
G01 X-26.6300 Y54.3536 F300.00
G01 X-26.6174 Y54.3874 F300.00
G01 X-26.6075 Y54.4169 F300.00
G01 X-26.5949 Y54.4576 F300.00
G01 X-26.5876 Y54.4840 F300.00
G01 X-26.5787 Y54.5201 F300.00
G01 X-26.5729 Y54.5468 F300.00
G01 X-26.5678 Y54.5737 F300.00
G01 X-26.5633 Y54.6007 F300.00
G01 X-26.5571 Y54.6459 F300.00
G01 X-26.5529 Y54.6844 F300.00
G01 X-26.5498 Y54.7312 F300.00
G01 X-26.5486 Y54.7700 F300.00
G01 X-26.5486 Y54.8022 F300.00
G01 X-26.5492 Y54.8305 F300.00
G01 X-26.5511 Y54.8689 F300.00
G01 X-26.5552 Y54.9152 F300.00
G01 X-26.5600 Y54.9533 F300.00
G01 X-26.5643 Y54.9812 F300.00
G01 X-26.5692 Y55.0081 F300.00
G01 X-26.5745 Y55.0356 F300.00
G01 X-26.5806 Y55.0630 F300.00
G01 X-26.5920 Y55.1076 F300.00
G01 X-26.6027 Y55.1441 F300.00
G01 X-26.6115 Y55.1708 F300.00
G01 X-26.6212 Y55.1984 F300.00
G01 X-26.6374 Y55.2408 F300.00
G01 X-26.6522 Y55.2753 F300.00
G01 X-26.6638 Y55.3003 F300.00
G01 X-26.6760 Y55.3251 F300.00
G01 X-26.6984 Y55.3671 F300.00
G01 X-26.7213 Y55.4072 F300.00
G01 X-26.7361 Y55.4310 F300.00
G01 X-26.7514 Y55.4546 F300.00
G01 X-26.7732 Y55.4858 F300.00
G01 X-26.7899 Y55.5084 F300.00
G01 X-26.8050 Y55.5279 F300.00
G01 X-26.8341 Y55.5636 F300.00
G01 X-26.8635 Y55.5969 F300.00
G01 X-26.8888 Y55.6235 F300.00
G01 X-26.9205 Y55.6546 F300.00
G01 X-26.9616 Y55.6918 F300.00
G01 X-26.9818 Y55.7090 F300.00
G01 X-27.0023 Y55.7257 F300.00
G01 X-27.0369 Y55.7521 F300.00
G01 X-27.0662 Y55.7728 F300.00
G01 X-27.0900 Y55.7888 F300.00
G01 X-27.1134 Y55.8038 F300.00
G01 X-27.1526 Y55.8272 F300.00
G01 X-27.1857 Y55.8453 F300.00
G01 X-27.2265 Y55.8657 F300.00
G01 X-27.2736 Y55.8871 F300.00
G01 X-23.5269 Y55.8871 F300.00
G00 Z0.5000
G00 X0.0071 Y55.2575
G01 F60.00
G01 Z-0.2000
G01 F300.00
G01 X-0.0045 Y55.2840 F300.00
G01 X-0.0166 Y55.3103 F300.00
G01 X-0.0294 Y55.3362 F300.00
G01 X-0.0429 Y55.3618 F300.00
G01 X-0.0570 Y55.3871 F300.00
G01 X-0.0718 Y55.4119 F300.00
G01 X-0.0891 Y55.4394 F300.00
G01 X-0.1045 Y55.4625 F300.00
G01 X-0.1205 Y55.4852 F300.00
G01 X-0.1370 Y55.5075 F300.00
G01 X-0.1540 Y55.5294 F300.00
G01 X-0.1716 Y55.5509 F300.00
G01 X-0.1897 Y55.5720 F300.00
G01 X-0.2215 Y55.6071 F300.00
G01 X-0.2548 Y55.6416 F300.00
G01 X-0.2834 Y55.6690 F300.00
G01 X-0.3052 Y55.6885 F300.00
G01 X-0.3274 Y55.7074 F300.00
G01 X-0.3501 Y55.7258 F300.00
G01 X-0.3748 Y55.7448 F300.00
G01 X-0.3961 Y55.7604 F300.00
G01 X-0.4178 Y55.7755 F300.00
G01 X-0.4398 Y55.7900 F300.00
G01 X-0.4621 Y55.8040 F300.00
G01 X-0.4848 Y55.8175 F300.00
G01 X-0.5233 Y55.8393 F300.00
G01 X-0.5481 Y55.8526 F300.00
G01 X-0.5731 Y55.8652 F300.00
G01 X-0.5985 Y55.8772 F300.00
G01 X-0.6208 Y55.8871 F300.00
G01 X-0.0029 Y55.8871 F300.00
G01 X0.0020 Y55.8866 F300.00
G01 X0.0049 Y55.8849 F300.00
G01 X0.0066 Y55.8820 F300.00
G01 X0.0071 Y55.8771 F300.00
G01 X0.0071 Y55.2575 F300.00
G00 Z0.5000
M05
G00 Z0.5000
G00 Z15.00
G00 X0.0 Y0.0


