(G-CODE GENERATED BY FLATCAM v8.994 - www.flatcam.org - Version Date: 2020/11/7)

(Name: copper_bottom.gbr_ncc_fine)
(Type: G-code from Geometry)
(Units: MM)

(Created on Saturday, 14 November 2020 at 13:47)

(This preprocessor is used with a motion controller loaded with GRBL firmware.)
(It is configured to be compatible with almost any version of GRBL firmware.)

(TOOL DIAMETER: 0.2 mm)
(Feedrate_XY: 300.0 mm/min)
(Feedrate_Z: 60.0 mm/min)
(Feedrate rapids 1500.0 mm/min)

(Z_Cut: -0.2 mm)
(Z_Move: 0.5 mm)
(Z Start: None mm)
(Z End: 15.0 mm)
(X,Y End: 0.0000, 0.0000 mm)
(Steps per circle: 64)
(Steps per circle: 64)
(Preprocessor Geometry: GRBL_11_no_M6)

(X range:    0.0000 ...    0.0000  mm)
(Y range:    0.0000 ...    0.0000  mm)

(Spindle Speed: 1000.0 RPM)
G21
G90
G17
G94


G01 F300.00

M5             
G00 Z15.0000
G00 X0.0000 Y0.0000                
T2
(MSG, Change to Tool Dia = 0.2000)
M0
G00 Z15.0000
        
M03 S1000.0
G01 F300.00
G00 X-4.1767 Y10.4758
G01 F60.00
G01 Z-0.2000
G01 F300.00
G01 X-4.3197 Y10.4758 F300.00
G01 X-4.3197 Y10.5299 F300.00
G01 X-4.2381 Y10.5299 F300.00
G01 X-4.2308 Y10.5304 F300.00
G01 X-4.2235 Y10.5314 F300.00
G01 X-4.2116 Y10.5342 F300.00
G01 X-4.2046 Y10.5366 F300.00
G01 X-4.1978 Y10.5395 F300.00
G01 X-4.1913 Y10.5429 F300.00
G01 X-4.1850 Y10.5468 F300.00
G01 X-4.1791 Y10.5511 F300.00
G01 X-4.1734 Y10.5558 F300.00
G01 X-3.7012 Y11.0279 F300.00
G01 X-3.6946 Y11.0351 F300.00
G01 X-3.6901 Y11.0410 F300.00
G01 X-3.6861 Y11.0472 F300.00
G01 X-3.6805 Y11.0581 F300.00
G01 X-3.6777 Y11.0649 F300.00
G01 X-3.6755 Y11.0719 F300.00
G01 X-3.6730 Y11.0839 F300.00
G01 X-3.6722 Y11.0912 F300.00
G01 X-3.6719 Y11.0986 F300.00
G01 X-3.6719 Y11.1777 F300.00
G01 X-3.6178 Y11.1777 F300.00
G01 X-3.6178 Y11.0347 F300.00
G01 X-4.1767 Y10.4758 F300.00
G00 Z0.5000
G00 X-4.1767 Y10.4758
G01 F60.00
G01 Z-0.2000
G01 F300.00
G01 X-4.3197 Y10.4758 F300.00
G01 X-4.3197 Y10.5299 F300.00
G01 X-4.2381 Y10.5299 F300.00
G01 X-4.2308 Y10.5304 F300.00
G01 X-4.2235 Y10.5314 F300.00
G01 X-4.2116 Y10.5342 F300.00
G01 X-4.2046 Y10.5366 F300.00
G01 X-4.1978 Y10.5395 F300.00
G01 X-4.1913 Y10.5429 F300.00
G01 X-4.1850 Y10.5468 F300.00
G01 X-4.1791 Y10.5511 F300.00
G01 X-4.1734 Y10.5558 F300.00
G01 X-3.7012 Y11.0279 F300.00
G01 X-3.6946 Y11.0351 F300.00
G01 X-3.6901 Y11.0410 F300.00
G01 X-3.6861 Y11.0472 F300.00
G01 X-3.6805 Y11.0581 F300.00
G01 X-3.6777 Y11.0649 F300.00
G01 X-3.6755 Y11.0719 F300.00
G01 X-3.6730 Y11.0839 F300.00
G01 X-3.6722 Y11.0912 F300.00
G01 X-3.6719 Y11.0986 F300.00
G01 X-3.6719 Y11.1777 F300.00
G01 X-3.6178 Y11.1777 F300.00
G01 X-3.6178 Y11.0347 F300.00
G01 X-4.1767 Y10.4758 F300.00
G00 Z0.5000
G00 X-4.8243 Y10.4758
G01 F60.00
G01 Z-0.2000
G01 F300.00
G01 X-4.9673 Y10.4758 F300.00
G01 X-5.5262 Y11.0347 F300.00
G01 X-5.5262 Y11.1777 F300.00
G01 X-5.4721 Y11.1777 F300.00
G01 X-5.4721 Y11.0986 F300.00
G01 X-5.4718 Y11.0912 F300.00
G01 X-5.4710 Y11.0839 F300.00
G01 X-5.4685 Y11.0719 F300.00
G01 X-5.4663 Y11.0649 F300.00
G01 X-5.4635 Y11.0581 F300.00
G01 X-5.4579 Y11.0472 F300.00
G01 X-5.4539 Y11.0410 F300.00
G01 X-5.4494 Y11.0351 F300.00
G01 X-5.4428 Y11.0279 F300.00
G01 X-4.9741 Y10.5592 F300.00
G01 X-4.9687 Y10.5542 F300.00
G01 X-4.9630 Y10.5496 F300.00
G01 X-4.9569 Y10.5454 F300.00
G01 X-4.9506 Y10.5417 F300.00
G01 X-4.9439 Y10.5385 F300.00
G01 X-4.9371 Y10.5357 F300.00
G01 X-4.9301 Y10.5335 F300.00
G01 X-4.9229 Y10.5318 F300.00
G01 X-4.9132 Y10.5304 F300.00
G01 X-4.9059 Y10.5299 F300.00
G01 X-4.8243 Y10.5299 F300.00
G01 X-4.8243 Y10.4758 F300.00
G00 Z0.5000
G00 X-4.8243 Y10.4758
G01 F60.00
G01 Z-0.2000
G01 F300.00
G01 X-4.9673 Y10.4758 F300.00
G01 X-5.5262 Y11.0347 F300.00
G01 X-5.5262 Y11.1777 F300.00
G01 X-5.4721 Y11.1777 F300.00
G01 X-5.4721 Y11.0986 F300.00
G01 X-5.4718 Y11.0912 F300.00
G01 X-5.4710 Y11.0839 F300.00
G01 X-5.4685 Y11.0719 F300.00
G01 X-5.4663 Y11.0649 F300.00
G01 X-5.4635 Y11.0581 F300.00
G01 X-5.4579 Y11.0472 F300.00
G01 X-5.4539 Y11.0410 F300.00
G01 X-5.4494 Y11.0351 F300.00
G01 X-5.4428 Y11.0279 F300.00
G01 X-4.9741 Y10.5592 F300.00
G01 X-4.9687 Y10.5542 F300.00
G01 X-4.9630 Y10.5496 F300.00
G01 X-4.9569 Y10.5454 F300.00
G01 X-4.9506 Y10.5417 F300.00
G01 X-4.9439 Y10.5385 F300.00
G01 X-4.9371 Y10.5357 F300.00
G01 X-4.9301 Y10.5335 F300.00
G01 X-4.9229 Y10.5318 F300.00
G01 X-4.9132 Y10.5304 F300.00
G01 X-4.9059 Y10.5299 F300.00
G01 X-4.8243 Y10.5299 F300.00
G01 X-4.8243 Y10.4758 F300.00
G00 Z0.5000
G00 X-3.6178 Y11.6823
G01 F60.00
G01 Z-0.2000
G01 F300.00
G01 X-3.6719 Y11.6823 F300.00
G01 X-3.6719 Y11.7614 F300.00
G01 X-3.6722 Y11.7688 F300.00
G01 X-3.6730 Y11.7761 F300.00
G01 X-3.6743 Y11.7833 F300.00
G01 X-3.6762 Y11.7904 F300.00
G01 X-3.6805 Y11.8019 F300.00
G01 X-3.6861 Y11.8128 F300.00
G01 X-3.6901 Y11.8190 F300.00
G01 X-3.6946 Y11.8249 F300.00
G01 X-3.7012 Y11.8321 F300.00
G01 X-4.1699 Y12.3008 F300.00
G01 X-4.1753 Y12.3058 F300.00
G01 X-4.1810 Y12.3104 F300.00
G01 X-4.1871 Y12.3146 F300.00
G01 X-4.1934 Y12.3183 F300.00
G01 X-4.2001 Y12.3215 F300.00
G01 X-4.2069 Y12.3243 F300.00
G01 X-4.2139 Y12.3265 F300.00
G01 X-4.2211 Y12.3282 F300.00
G01 X-4.2308 Y12.3296 F300.00
G01 X-4.2381 Y12.3301 F300.00
G01 X-4.3197 Y12.3301 F300.00
G01 X-4.3197 Y12.3842 F300.00
G01 X-4.1767 Y12.3842 F300.00
G01 X-3.6178 Y11.8253 F300.00
G01 X-3.6178 Y11.6823 F300.00
G00 Z0.5000
G00 X-3.6178 Y11.6823
G01 F60.00
G01 Z-0.2000
G01 F300.00
G01 X-3.6719 Y11.6823 F300.00
G01 X-3.6719 Y11.7614 F300.00
G01 X-3.6722 Y11.7688 F300.00
G01 X-3.6730 Y11.7761 F300.00
G01 X-3.6743 Y11.7833 F300.00
G01 X-3.6762 Y11.7904 F300.00
G01 X-3.6805 Y11.8019 F300.00
G01 X-3.6861 Y11.8128 F300.00
G01 X-3.6901 Y11.8190 F300.00
G01 X-3.6946 Y11.8249 F300.00
G01 X-3.7012 Y11.8321 F300.00
G01 X-4.1699 Y12.3008 F300.00
G01 X-4.1753 Y12.3058 F300.00
G01 X-4.1810 Y12.3104 F300.00
G01 X-4.1871 Y12.3146 F300.00
G01 X-4.1934 Y12.3183 F300.00
G01 X-4.2001 Y12.3215 F300.00
G01 X-4.2069 Y12.3243 F300.00
G01 X-4.2139 Y12.3265 F300.00
G01 X-4.2211 Y12.3282 F300.00
G01 X-4.2308 Y12.3296 F300.00
G01 X-4.2381 Y12.3301 F300.00
G01 X-4.3197 Y12.3301 F300.00
G01 X-4.3197 Y12.3842 F300.00
G01 X-4.1767 Y12.3842 F300.00
G01 X-3.6178 Y11.8253 F300.00
G01 X-3.6178 Y11.6823 F300.00
G00 Z0.5000
G00 X-4.8243 Y12.3301
G01 F60.00
G01 Z-0.2000
G01 F300.00
G01 X-4.9059 Y12.3301 F300.00
G01 X-4.9132 Y12.3296 F300.00
G01 X-4.9205 Y12.3286 F300.00
G01 X-4.9277 Y12.3271 F300.00
G01 X-4.9348 Y12.3251 F300.00
G01 X-4.9462 Y12.3205 F300.00
G01 X-4.9527 Y12.3171 F300.00
G01 X-4.9590 Y12.3132 F300.00
G01 X-4.9649 Y12.3089 F300.00
G01 X-4.9706 Y12.3042 F300.00
G01 X-5.4428 Y11.8321 F300.00
G01 X-5.4494 Y11.8249 F300.00
G01 X-5.4539 Y11.8190 F300.00
G01 X-5.4579 Y11.8128 F300.00
G01 X-5.4635 Y11.8019 F300.00
G01 X-5.4663 Y11.7951 F300.00
G01 X-5.4685 Y11.7881 F300.00
G01 X-5.4710 Y11.7761 F300.00
G01 X-5.4718 Y11.7688 F300.00
G01 X-5.4721 Y11.7614 F300.00
G01 X-5.4721 Y11.6823 F300.00
G01 X-5.5262 Y11.6823 F300.00
G01 X-5.5262 Y11.8253 F300.00
G01 X-4.9673 Y12.3842 F300.00
G01 X-4.8243 Y12.3842 F300.00
G01 X-4.8243 Y12.3301 F300.00
G00 Z0.5000
G00 X-4.8243 Y12.3301
G01 F60.00
G01 Z-0.2000
G01 F300.00
G01 X-4.9059 Y12.3301 F300.00
G01 X-4.9132 Y12.3296 F300.00
G01 X-4.9205 Y12.3286 F300.00
G01 X-4.9277 Y12.3271 F300.00
G01 X-4.9348 Y12.3251 F300.00
G01 X-4.9462 Y12.3205 F300.00
G01 X-4.9527 Y12.3171 F300.00
G01 X-4.9590 Y12.3132 F300.00
G01 X-4.9649 Y12.3089 F300.00
G01 X-4.9706 Y12.3042 F300.00
G01 X-5.4428 Y11.8321 F300.00
G01 X-5.4494 Y11.8249 F300.00
G01 X-5.4539 Y11.8190 F300.00
G01 X-5.4579 Y11.8128 F300.00
G01 X-5.4635 Y11.8019 F300.00
G01 X-5.4663 Y11.7951 F300.00
G01 X-5.4685 Y11.7881 F300.00
G01 X-5.4710 Y11.7761 F300.00
G01 X-5.4718 Y11.7688 F300.00
G01 X-5.4721 Y11.7614 F300.00
G01 X-5.4721 Y11.6823 F300.00
G01 X-5.5262 Y11.6823 F300.00
G01 X-5.5262 Y11.8253 F300.00
G01 X-4.9673 Y12.3842 F300.00
G01 X-4.8243 Y12.3842 F300.00
G01 X-4.8243 Y12.3301 F300.00
G00 Z0.5000
G00 X-7.3677 Y17.0098
G01 F60.00
G01 Z-0.2000
G01 F300.00
G01 X-7.3677 Y17.0703 F300.00
G01 X-7.3292 Y17.0844 F300.00
G01 X-7.2624 Y17.1162 F300.00
G01 X-7.2011 Y17.1531 F300.00
G01 X-7.1455 Y17.1941 F300.00
G01 X-7.1398 Y17.1987 F300.00
G01 X-7.0904 Y17.2435 F300.00
G01 X-7.0835 Y17.2504 F300.00
G01 X-7.0372 Y17.3017 F300.00
G01 X-6.9945 Y17.3591 F300.00
G01 X-6.9904 Y17.3652 F300.00
G01 X-6.9539 Y17.4267 F300.00
G01 X-6.9244 Y17.4892 F300.00
G01 X-6.9103 Y17.5277 F300.00
G01 X-6.8498 Y17.5277 F300.00
G01 X-6.9039 Y17.3973 F300.00
G01 X-6.9924 Y17.2648 F300.00
G01 X-7.1048 Y17.1524 F300.00
G01 X-7.2373 Y17.0639 F300.00
G01 X-7.3677 Y17.0098 F300.00
G00 Z0.5000
G00 X-7.3677 Y17.0098
G01 F60.00
G01 Z-0.2000
G01 F300.00
G01 X-7.3677 Y17.0703 F300.00
G01 X-7.3292 Y17.0844 F300.00
G01 X-7.2624 Y17.1162 F300.00
G01 X-7.2011 Y17.1531 F300.00
G01 X-7.1455 Y17.1941 F300.00
G01 X-7.1398 Y17.1987 F300.00
G01 X-7.0904 Y17.2435 F300.00
G01 X-7.0835 Y17.2504 F300.00
G01 X-7.0372 Y17.3017 F300.00
G01 X-6.9945 Y17.3591 F300.00
G01 X-6.9904 Y17.3652 F300.00
G01 X-6.9539 Y17.4267 F300.00
G01 X-6.9244 Y17.4892 F300.00
G01 X-6.9103 Y17.5277 F300.00
G01 X-6.8498 Y17.5277 F300.00
G01 X-6.9039 Y17.3973 F300.00
G01 X-6.9924 Y17.2648 F300.00
G01 X-7.1048 Y17.1524 F300.00
G01 X-7.2373 Y17.0639 F300.00
G01 X-7.3677 Y17.0098 F300.00
G00 Z0.5000
G00 X-8.3902 Y17.5277
G01 F60.00
G01 Z-0.2000
G01 F300.00
G01 X-8.3297 Y17.5277 F300.00
G01 X-8.3156 Y17.4892 F300.00
G01 X-8.2838 Y17.4224 F300.00
G01 X-8.2469 Y17.3611 F300.00
G01 X-8.2059 Y17.3055 F300.00
G01 X-8.2013 Y17.2998 F300.00
G01 X-8.1532 Y17.2468 F300.00
G01 X-8.1020 Y17.2004 F300.00
G01 X-8.0945 Y17.1941 F300.00
G01 X-8.0409 Y17.1545 F300.00
G01 X-7.9797 Y17.1175 F300.00
G01 X-7.9733 Y17.1139 F300.00
G01 X-7.9108 Y17.0844 F300.00
G01 X-7.8723 Y17.0703 F300.00
G01 X-7.8723 Y17.0098 F300.00
G01 X-8.0027 Y17.0639 F300.00
G01 X-8.1352 Y17.1524 F300.00
G01 X-8.2476 Y17.2648 F300.00
G01 X-8.3361 Y17.3973 F300.00
G01 X-8.3902 Y17.5277 F300.00
G00 Z0.5000
G00 X-8.3902 Y17.5277
G01 F60.00
G01 Z-0.2000
G01 F300.00
G01 X-8.3297 Y17.5277 F300.00
G01 X-8.3156 Y17.4892 F300.00
G01 X-8.2838 Y17.4224 F300.00
G01 X-8.2469 Y17.3611 F300.00
G01 X-8.2059 Y17.3055 F300.00
G01 X-8.2013 Y17.2998 F300.00
G01 X-8.1532 Y17.2468 F300.00
G01 X-8.1020 Y17.2004 F300.00
G01 X-8.0945 Y17.1941 F300.00
G01 X-8.0409 Y17.1545 F300.00
G01 X-7.9797 Y17.1175 F300.00
G01 X-7.9733 Y17.1139 F300.00
G01 X-7.9108 Y17.0844 F300.00
G01 X-7.8723 Y17.0703 F300.00
G01 X-7.8723 Y17.0098 F300.00
G01 X-8.0027 Y17.0639 F300.00
G01 X-8.1352 Y17.1524 F300.00
G01 X-8.2476 Y17.2648 F300.00
G01 X-8.3361 Y17.3973 F300.00
G01 X-8.3902 Y17.5277 F300.00
G00 Z0.5000
G00 X-8.3902 Y18.0323
G01 F60.00
G01 Z-0.2000
G01 F300.00
G01 X-8.3361 Y18.1627 F300.00
G01 X-8.2476 Y18.2952 F300.00
G01 X-8.1352 Y18.4076 F300.00
G01 X-8.0027 Y18.4961 F300.00
G01 X-7.8723 Y18.5502 F300.00
G01 X-7.8723 Y18.4897 F300.00
G01 X-7.9108 Y18.4756 F300.00
G01 X-7.9776 Y18.4438 F300.00
G01 X-8.0389 Y18.4069 F300.00
G01 X-8.0945 Y18.3659 F300.00
G01 X-8.1002 Y18.3613 F300.00
G01 X-8.1496 Y18.3165 F300.00
G01 X-8.1565 Y18.3096 F300.00
G01 X-8.2028 Y18.2583 F300.00
G01 X-8.2455 Y18.2009 F300.00
G01 X-8.2825 Y18.1397 F300.00
G01 X-8.2861 Y18.1333 F300.00
G01 X-8.3156 Y18.0708 F300.00
G01 X-8.3297 Y18.0323 F300.00
G01 X-8.3902 Y18.0323 F300.00
G00 Z0.5000
G00 X-8.3902 Y18.0323
G01 F60.00
G01 Z-0.2000
G01 F300.00
G01 X-8.3361 Y18.1627 F300.00
G01 X-8.2476 Y18.2952 F300.00
G01 X-8.1352 Y18.4076 F300.00
G01 X-8.0027 Y18.4961 F300.00
G01 X-7.8723 Y18.5502 F300.00
G01 X-7.8723 Y18.4897 F300.00
G01 X-7.9108 Y18.4756 F300.00
G01 X-7.9776 Y18.4438 F300.00
G01 X-8.0389 Y18.4069 F300.00
G01 X-8.0945 Y18.3659 F300.00
G01 X-8.1002 Y18.3613 F300.00
G01 X-8.1496 Y18.3165 F300.00
G01 X-8.1565 Y18.3096 F300.00
G01 X-8.2028 Y18.2583 F300.00
G01 X-8.2455 Y18.2009 F300.00
G01 X-8.2825 Y18.1397 F300.00
G01 X-8.2861 Y18.1333 F300.00
G01 X-8.3156 Y18.0708 F300.00
G01 X-8.3297 Y18.0323 F300.00
G01 X-8.3902 Y18.0323 F300.00
G00 Z0.5000
G00 X-7.3677 Y18.5502
G01 F60.00
G01 Z-0.2000
G01 F300.00
G01 X-7.2373 Y18.4961 F300.00
G01 X-7.1048 Y18.4076 F300.00
G01 X-6.9924 Y18.2952 F300.00
G01 X-6.9039 Y18.1627 F300.00
G01 X-6.8498 Y18.0323 F300.00
G01 X-6.9103 Y18.0323 F300.00
G01 X-6.9244 Y18.0708 F300.00
G01 X-6.9562 Y18.1376 F300.00
G01 X-6.9931 Y18.1989 F300.00
G01 X-7.0341 Y18.2545 F300.00
G01 X-7.0387 Y18.2602 F300.00
G01 X-7.0868 Y18.3132 F300.00
G01 X-7.1380 Y18.3596 F300.00
G01 X-7.1455 Y18.3659 F300.00
G01 X-7.1991 Y18.4055 F300.00
G01 X-7.2052 Y18.4096 F300.00
G01 X-7.2667 Y18.4461 F300.00
G01 X-7.3292 Y18.4756 F300.00
G01 X-7.3677 Y18.4897 F300.00
G01 X-7.3677 Y18.5502 F300.00
G00 Z0.5000
G00 X-7.3677 Y18.5502
G01 F60.00
G01 Z-0.2000
G01 F300.00
G01 X-7.2373 Y18.4961 F300.00
G01 X-7.1048 Y18.4076 F300.00
G01 X-6.9924 Y18.2952 F300.00
G01 X-6.9039 Y18.1627 F300.00
G01 X-6.8498 Y18.0323 F300.00
G01 X-6.9103 Y18.0323 F300.00
G01 X-6.9244 Y18.0708 F300.00
G01 X-6.9562 Y18.1376 F300.00
G01 X-6.9931 Y18.1989 F300.00
G01 X-7.0341 Y18.2545 F300.00
G01 X-7.0387 Y18.2602 F300.00
G01 X-7.0868 Y18.3132 F300.00
G01 X-7.1380 Y18.3596 F300.00
G01 X-7.1455 Y18.3659 F300.00
G01 X-7.1991 Y18.4055 F300.00
G01 X-7.2052 Y18.4096 F300.00
G01 X-7.2667 Y18.4461 F300.00
G01 X-7.3292 Y18.4756 F300.00
G01 X-7.3677 Y18.4897 F300.00
G01 X-7.3677 Y18.5502 F300.00
G00 Z0.5000
G00 X-14.4399 Y8.6823
G01 F60.00
G01 Z-0.2000
G01 F300.00
G01 X-14.4569 Y8.7495 F300.00
G01 X-14.4924 Y8.8489 F300.00
G01 X-14.4953 Y8.8556 F300.00
G01 X-14.5383 Y8.9466 F300.00
G01 X-14.5419 Y8.9530 F300.00
G01 X-14.5950 Y9.0414 F300.00
G01 X-14.6578 Y9.1262 F300.00
G01 X-14.6625 Y9.1319 F300.00
G01 X-14.7318 Y9.2082 F300.00
G01 X-14.8119 Y9.2807 F300.00
G01 X-14.8986 Y9.3450 F300.00
G01 X-14.9870 Y9.3981 F300.00
G01 X-14.9934 Y9.4017 F300.00
G01 X-15.0889 Y9.4467 F300.00
G01 X-15.1905 Y9.4831 F300.00
G01 X-15.2953 Y9.5094 F300.00
G01 X-15.3973 Y9.5246 F300.00
G01 X-15.4070 Y9.5256 F300.00
G01 X-15.5100 Y9.5305 F300.00
G01 X-16.2577 Y9.5305 F300.00
G01 X-16.2577 Y9.5841 F300.00
G01 X-15.4192 Y9.5841 F300.00
G01 X-15.2397 Y9.5557 F300.00
G01 X-15.0670 Y9.4995 F300.00
G01 X-14.9051 Y9.4171 F300.00
G01 X-14.7581 Y9.3103 F300.00
G01 X-14.6297 Y9.1819 F300.00
G01 X-14.5229 Y9.0349 F300.00
G01 X-14.4405 Y8.8730 F300.00
G01 X-14.3843 Y8.7003 F300.00
G01 X-14.3815 Y8.6823 F300.00
G01 X-14.4399 Y8.6823 F300.00
G00 Z0.5000
G00 X-14.4399 Y8.6823
G01 F60.00
G01 Z-0.2000
G01 F300.00
G01 X-14.4569 Y8.7495 F300.00
G01 X-14.4924 Y8.8489 F300.00
G01 X-14.4953 Y8.8556 F300.00
G01 X-14.5383 Y8.9466 F300.00
G01 X-14.5419 Y8.9530 F300.00
G01 X-14.5950 Y9.0414 F300.00
G01 X-14.6578 Y9.1262 F300.00
G01 X-14.6625 Y9.1319 F300.00
G01 X-14.7318 Y9.2082 F300.00
G01 X-14.8119 Y9.2807 F300.00
G01 X-14.8986 Y9.3450 F300.00
G01 X-14.9870 Y9.3981 F300.00
G01 X-14.9934 Y9.4017 F300.00
G01 X-15.0889 Y9.4467 F300.00
G01 X-15.1905 Y9.4831 F300.00
G01 X-15.2953 Y9.5094 F300.00
G01 X-15.3973 Y9.5246 F300.00
G01 X-15.4070 Y9.5256 F300.00
G01 X-15.5100 Y9.5305 F300.00
G01 X-16.2577 Y9.5305 F300.00
G01 X-16.2577 Y9.5841 F300.00
G01 X-15.4192 Y9.5841 F300.00
G01 X-15.2397 Y9.5557 F300.00
G01 X-15.0670 Y9.4995 F300.00
G01 X-14.9051 Y9.4171 F300.00
G01 X-14.7581 Y9.3103 F300.00
G01 X-14.6297 Y9.1819 F300.00
G01 X-14.5229 Y9.0349 F300.00
G01 X-14.4405 Y8.8730 F300.00
G01 X-14.3843 Y8.7003 F300.00
G01 X-14.3815 Y8.6823 F300.00
G01 X-14.4399 Y8.6823 F300.00
G00 Z0.5000
G00 X-15.4192 Y7.2759
G01 F60.00
G01 Z-0.2000
G01 F300.00
G01 X-16.2577 Y7.2759 F300.00
G01 X-16.2577 Y7.3295 F300.00
G01 X-15.5100 Y7.3295 F300.00
G01 X-15.4046 Y7.3346 F300.00
G01 X-15.3973 Y7.3354 F300.00
G01 X-15.2953 Y7.3506 F300.00
G01 X-15.1953 Y7.3756 F300.00
G01 X-15.1859 Y7.3784 F300.00
G01 X-15.0934 Y7.4115 F300.00
G01 X-15.0866 Y7.4142 F300.00
G01 X-14.9912 Y7.4594 F300.00
G01 X-14.8986 Y7.5150 F300.00
G01 X-14.8119 Y7.5793 F300.00
G01 X-14.7354 Y7.6484 F300.00
G01 X-14.7284 Y7.6554 F300.00
G01 X-14.6593 Y7.7319 F300.00
G01 X-14.5978 Y7.8146 F300.00
G01 X-14.5923 Y7.8227 F300.00
G01 X-14.5406 Y7.9091 F300.00
G01 X-14.5372 Y7.9156 F300.00
G01 X-14.4953 Y8.0044 F300.00
G01 X-14.4924 Y8.0111 F300.00
G01 X-14.4569 Y8.1105 F300.00
G01 X-14.4399 Y8.1777 F300.00
G01 X-14.3815 Y8.1777 F300.00
G01 X-14.3843 Y8.1597 F300.00
G01 X-14.4405 Y7.9870 F300.00
G01 X-14.5229 Y7.8251 F300.00
G01 X-14.6297 Y7.6781 F300.00
G01 X-14.7581 Y7.5497 F300.00
G01 X-14.9051 Y7.4429 F300.00
G01 X-15.0670 Y7.3605 F300.00
G01 X-15.2397 Y7.3043 F300.00
G01 X-15.4192 Y7.2759 F300.00
G00 Z0.5000
G00 X-15.4192 Y7.2759
G01 F60.00
G01 Z-0.2000
G01 F300.00
G01 X-16.2577 Y7.2759 F300.00
G01 X-16.2577 Y7.3295 F300.00
G01 X-15.5100 Y7.3295 F300.00
G01 X-15.4046 Y7.3346 F300.00
G01 X-15.3973 Y7.3354 F300.00
G01 X-15.2953 Y7.3506 F300.00
G01 X-15.1953 Y7.3756 F300.00
G01 X-15.1859 Y7.3784 F300.00
G01 X-15.0934 Y7.4115 F300.00
G01 X-15.0866 Y7.4142 F300.00
G01 X-14.9912 Y7.4594 F300.00
G01 X-14.8986 Y7.5150 F300.00
G01 X-14.8119 Y7.5793 F300.00
G01 X-14.7354 Y7.6484 F300.00
G01 X-14.7284 Y7.6554 F300.00
G01 X-14.6593 Y7.7319 F300.00
G01 X-14.5978 Y7.8146 F300.00
G01 X-14.5923 Y7.8227 F300.00
G01 X-14.5406 Y7.9091 F300.00
G01 X-14.5372 Y7.9156 F300.00
G01 X-14.4953 Y8.0044 F300.00
G01 X-14.4924 Y8.0111 F300.00
G01 X-14.4569 Y8.1105 F300.00
G01 X-14.4399 Y8.1777 F300.00
G01 X-14.3815 Y8.1777 F300.00
G01 X-14.3843 Y8.1597 F300.00
G01 X-14.4405 Y7.9870 F300.00
G01 X-14.5229 Y7.8251 F300.00
G01 X-14.6297 Y7.6781 F300.00
G01 X-14.7581 Y7.5497 F300.00
G01 X-14.9051 Y7.4429 F300.00
G01 X-15.0670 Y7.3605 F300.00
G01 X-15.2397 Y7.3043 F300.00
G01 X-15.4192 Y7.2759 F300.00
G00 Z0.5000
G00 X-18.5801 Y8.1777
G01 F60.00
G01 Z-0.2000
G01 F300.00
G01 X-18.5631 Y8.1105 F300.00
G01 X-18.5276 Y8.0111 F300.00
G01 X-18.5247 Y8.0044 F300.00
G01 X-18.4817 Y7.9134 F300.00
G01 X-18.4781 Y7.9070 F300.00
G01 X-18.4250 Y7.8186 F300.00
G01 X-18.3622 Y7.7338 F300.00
G01 X-18.3575 Y7.7281 F300.00
G01 X-18.2882 Y7.6518 F300.00
G01 X-18.2081 Y7.5793 F300.00
G01 X-18.1214 Y7.5150 F300.00
G01 X-18.0330 Y7.4619 F300.00
G01 X-18.0266 Y7.4583 F300.00
G01 X-17.9311 Y7.4133 F300.00
G01 X-17.8295 Y7.3769 F300.00
G01 X-17.7247 Y7.3506 F300.00
G01 X-17.6227 Y7.3354 F300.00
G01 X-17.6130 Y7.3344 F300.00
G01 X-17.5100 Y7.3295 F300.00
G01 X-16.7623 Y7.3295 F300.00
G01 X-16.7623 Y7.2759 F300.00
G01 X-17.6008 Y7.2759 F300.00
G01 X-17.7803 Y7.3043 F300.00
G01 X-17.9530 Y7.3605 F300.00
G01 X-18.1149 Y7.4429 F300.00
G01 X-18.2619 Y7.5497 F300.00
G01 X-18.3903 Y7.6781 F300.00
G01 X-18.4971 Y7.8251 F300.00
G01 X-18.5795 Y7.9870 F300.00
G01 X-18.6357 Y8.1597 F300.00
G01 X-18.6385 Y8.1777 F300.00
G01 X-18.5801 Y8.1777 F300.00
G00 Z0.5000
G00 X-18.5801 Y8.1777
G01 F60.00
G01 Z-0.2000
G01 F300.00
G01 X-18.5631 Y8.1105 F300.00
G01 X-18.5276 Y8.0111 F300.00
G01 X-18.5247 Y8.0044 F300.00
G01 X-18.4817 Y7.9134 F300.00
G01 X-18.4781 Y7.9070 F300.00
G01 X-18.4250 Y7.8186 F300.00
G01 X-18.3622 Y7.7338 F300.00
G01 X-18.3575 Y7.7281 F300.00
G01 X-18.2882 Y7.6518 F300.00
G01 X-18.2081 Y7.5793 F300.00
G01 X-18.1214 Y7.5150 F300.00
G01 X-18.0330 Y7.4619 F300.00
G01 X-18.0266 Y7.4583 F300.00
G01 X-17.9311 Y7.4133 F300.00
G01 X-17.8295 Y7.3769 F300.00
G01 X-17.7247 Y7.3506 F300.00
G01 X-17.6227 Y7.3354 F300.00
G01 X-17.6130 Y7.3344 F300.00
G01 X-17.5100 Y7.3295 F300.00
G01 X-16.7623 Y7.3295 F300.00
G01 X-16.7623 Y7.2759 F300.00
G01 X-17.6008 Y7.2759 F300.00
G01 X-17.7803 Y7.3043 F300.00
G01 X-17.9530 Y7.3605 F300.00
G01 X-18.1149 Y7.4429 F300.00
G01 X-18.2619 Y7.5497 F300.00
G01 X-18.3903 Y7.6781 F300.00
G01 X-18.4971 Y7.8251 F300.00
G01 X-18.5795 Y7.9870 F300.00
G01 X-18.6357 Y8.1597 F300.00
G01 X-18.6385 Y8.1777 F300.00
G01 X-18.5801 Y8.1777 F300.00
G00 Z0.5000
G00 X-18.5801 Y8.6823
G01 F60.00
G01 Z-0.2000
G01 F300.00
G01 X-18.6385 Y8.6823 F300.00
G01 X-18.6357 Y8.7003 F300.00
G01 X-18.5795 Y8.8730 F300.00
G01 X-18.4971 Y9.0349 F300.00
G01 X-18.3903 Y9.1819 F300.00
G01 X-18.2619 Y9.3103 F300.00
G01 X-18.1149 Y9.4171 F300.00
G01 X-17.9530 Y9.4995 F300.00
G01 X-17.7803 Y9.5557 F300.00
G01 X-17.6008 Y9.5841 F300.00
G01 X-16.7623 Y9.5841 F300.00
G01 X-16.7623 Y9.5305 F300.00
G01 X-17.5100 Y9.5305 F300.00
G01 X-17.6130 Y9.5256 F300.00
G01 X-17.6227 Y9.5246 F300.00
G01 X-17.7247 Y9.5094 F300.00
G01 X-17.8295 Y9.4831 F300.00
G01 X-17.9311 Y9.4467 F300.00
G01 X-18.0266 Y9.4017 F300.00
G01 X-18.0330 Y9.3981 F300.00
G01 X-18.1214 Y9.3450 F300.00
G01 X-18.2081 Y9.2807 F300.00
G01 X-18.2882 Y9.2082 F300.00
G01 X-18.3575 Y9.1319 F300.00
G01 X-18.3622 Y9.1262 F300.00
G01 X-18.4250 Y9.0414 F300.00
G01 X-18.4781 Y8.9530 F300.00
G01 X-18.4817 Y8.9466 F300.00
G01 X-18.5247 Y8.8556 F300.00
G01 X-18.5276 Y8.8489 F300.00
G01 X-18.5631 Y8.7495 F300.00
G01 X-18.5801 Y8.6823 F300.00
G00 Z0.5000
G00 X-18.5801 Y8.6823
G01 F60.00
G01 Z-0.2000
G01 F300.00
G01 X-18.6385 Y8.6823 F300.00
G01 X-18.6357 Y8.7003 F300.00
G01 X-18.5795 Y8.8730 F300.00
G01 X-18.4971 Y9.0349 F300.00
G01 X-18.3903 Y9.1819 F300.00
G01 X-18.2619 Y9.3103 F300.00
G01 X-18.1149 Y9.4171 F300.00
G01 X-17.9530 Y9.4995 F300.00
G01 X-17.7803 Y9.5557 F300.00
G01 X-17.6008 Y9.5841 F300.00
G01 X-16.7623 Y9.5841 F300.00
G01 X-16.7623 Y9.5305 F300.00
G01 X-17.5100 Y9.5305 F300.00
G01 X-17.6130 Y9.5256 F300.00
G01 X-17.6227 Y9.5246 F300.00
G01 X-17.7247 Y9.5094 F300.00
G01 X-17.8295 Y9.4831 F300.00
G01 X-17.9311 Y9.4467 F300.00
G01 X-18.0266 Y9.4017 F300.00
G01 X-18.0330 Y9.3981 F300.00
G01 X-18.1214 Y9.3450 F300.00
G01 X-18.2081 Y9.2807 F300.00
G01 X-18.2882 Y9.2082 F300.00
G01 X-18.3575 Y9.1319 F300.00
G01 X-18.3622 Y9.1262 F300.00
G01 X-18.4250 Y9.0414 F300.00
G01 X-18.4781 Y8.9530 F300.00
G01 X-18.4817 Y8.9466 F300.00
G01 X-18.5247 Y8.8556 F300.00
G01 X-18.5276 Y8.8489 F300.00
G01 X-18.5631 Y8.7495 F300.00
G01 X-18.5801 Y8.6823 F300.00
G00 Z0.5000
G00 X-21.0577 Y9.3599
G01 F60.00
G01 Z-0.2000
G01 F300.00
G01 X-20.9905 Y9.3769 F300.00
G01 X-20.8911 Y9.4124 F300.00
G01 X-20.8844 Y9.4153 F300.00
G01 X-20.7934 Y9.4583 F300.00
G01 X-20.7870 Y9.4619 F300.00
G01 X-20.6986 Y9.5150 F300.00
G01 X-20.6138 Y9.5778 F300.00
G01 X-20.6081 Y9.5825 F300.00
G01 X-20.5318 Y9.6518 F300.00
G01 X-20.4593 Y9.7319 F300.00
G01 X-20.3950 Y9.8186 F300.00
G01 X-20.3419 Y9.9070 F300.00
G01 X-20.3383 Y9.9134 F300.00
G01 X-20.2933 Y10.0089 F300.00
G01 X-20.2569 Y10.1105 F300.00
G01 X-20.2306 Y10.2153 F300.00
G01 X-20.2154 Y10.3173 F300.00
G01 X-20.2144 Y10.3270 F300.00
G01 X-20.2095 Y10.4300 F300.00
G01 X-20.2095 Y11.1777 F300.00
G01 X-20.1559 Y11.1777 F300.00
G01 X-20.1559 Y10.3392 F300.00
G01 X-20.1843 Y10.1597 F300.00
G01 X-20.2405 Y9.9870 F300.00
G01 X-20.3229 Y9.8251 F300.00
G01 X-20.4297 Y9.6781 F300.00
G01 X-20.5581 Y9.5497 F300.00
G01 X-20.7051 Y9.4429 F300.00
G01 X-20.8670 Y9.3605 F300.00
G01 X-21.0397 Y9.3043 F300.00
G01 X-21.0577 Y9.3015 F300.00
G01 X-21.0577 Y9.3599 F300.00
G00 Z0.5000
G00 X-21.0577 Y9.3599
G01 F60.00
G01 Z-0.2000
G01 F300.00
G01 X-20.9905 Y9.3769 F300.00
G01 X-20.8911 Y9.4124 F300.00
G01 X-20.8844 Y9.4153 F300.00
G01 X-20.7934 Y9.4583 F300.00
G01 X-20.7870 Y9.4619 F300.00
G01 X-20.6986 Y9.5150 F300.00
G01 X-20.6138 Y9.5778 F300.00
G01 X-20.6081 Y9.5825 F300.00
G01 X-20.5318 Y9.6518 F300.00
G01 X-20.4593 Y9.7319 F300.00
G01 X-20.3950 Y9.8186 F300.00
G01 X-20.3419 Y9.9070 F300.00
G01 X-20.3383 Y9.9134 F300.00
G01 X-20.2933 Y10.0089 F300.00
G01 X-20.2569 Y10.1105 F300.00
G01 X-20.2306 Y10.2153 F300.00
G01 X-20.2154 Y10.3173 F300.00
G01 X-20.2144 Y10.3270 F300.00
G01 X-20.2095 Y10.4300 F300.00
G01 X-20.2095 Y11.1777 F300.00
G01 X-20.1559 Y11.1777 F300.00
G01 X-20.1559 Y10.3392 F300.00
G01 X-20.1843 Y10.1597 F300.00
G01 X-20.2405 Y9.9870 F300.00
G01 X-20.3229 Y9.8251 F300.00
G01 X-20.4297 Y9.6781 F300.00
G01 X-20.5581 Y9.5497 F300.00
G01 X-20.7051 Y9.4429 F300.00
G01 X-20.8670 Y9.3605 F300.00
G01 X-21.0397 Y9.3043 F300.00
G01 X-21.0577 Y9.3015 F300.00
G01 X-21.0577 Y9.3599 F300.00
G00 Z0.5000
G00 X-22.4105 Y11.1777
G01 F60.00
G01 Z-0.2000
G01 F300.00
G01 X-22.4105 Y10.4300 F300.00
G01 X-22.4054 Y10.3246 F300.00
G01 X-22.4046 Y10.3173 F300.00
G01 X-22.3894 Y10.2153 F300.00
G01 X-22.3644 Y10.1153 F300.00
G01 X-22.3616 Y10.1059 F300.00
G01 X-22.3285 Y10.0134 F300.00
G01 X-22.3258 Y10.0066 F300.00
G01 X-22.2806 Y9.9112 F300.00
G01 X-22.2250 Y9.8186 F300.00
G01 X-22.1607 Y9.7319 F300.00
G01 X-22.0916 Y9.6554 F300.00
G01 X-22.0846 Y9.6484 F300.00
G01 X-22.0081 Y9.5793 F300.00
G01 X-21.9254 Y9.5178 F300.00
G01 X-21.9173 Y9.5123 F300.00
G01 X-21.8309 Y9.4606 F300.00
G01 X-21.8244 Y9.4572 F300.00
G01 X-21.7356 Y9.4153 F300.00
G01 X-21.7289 Y9.4124 F300.00
G01 X-21.6295 Y9.3769 F300.00
G01 X-21.5623 Y9.3599 F300.00
G01 X-21.5623 Y9.3015 F300.00
G01 X-21.5803 Y9.3043 F300.00
G01 X-21.7530 Y9.3605 F300.00
G01 X-21.9149 Y9.4429 F300.00
G01 X-22.0619 Y9.5497 F300.00
G01 X-22.1903 Y9.6781 F300.00
G01 X-22.2971 Y9.8251 F300.00
G01 X-22.3795 Y9.9870 F300.00
G01 X-22.4357 Y10.1597 F300.00
G01 X-22.4641 Y10.3392 F300.00
G01 X-22.4641 Y11.1777 F300.00
G01 X-22.4105 Y11.1777 F300.00
G00 Z0.5000
G00 X-22.4105 Y11.1777
G01 F60.00
G01 Z-0.2000
G01 F300.00
G01 X-22.4105 Y10.4300 F300.00
G01 X-22.4054 Y10.3246 F300.00
G01 X-22.4046 Y10.3173 F300.00
G01 X-22.3894 Y10.2153 F300.00
G01 X-22.3644 Y10.1153 F300.00
G01 X-22.3616 Y10.1059 F300.00
G01 X-22.3285 Y10.0134 F300.00
G01 X-22.3258 Y10.0066 F300.00
G01 X-22.2806 Y9.9112 F300.00
G01 X-22.2250 Y9.8186 F300.00
G01 X-22.1607 Y9.7319 F300.00
G01 X-22.0916 Y9.6554 F300.00
G01 X-22.0846 Y9.6484 F300.00
G01 X-22.0081 Y9.5793 F300.00
G01 X-21.9254 Y9.5178 F300.00
G01 X-21.9173 Y9.5123 F300.00
G01 X-21.8309 Y9.4606 F300.00
G01 X-21.8244 Y9.4572 F300.00
G01 X-21.7356 Y9.4153 F300.00
G01 X-21.7289 Y9.4124 F300.00
G01 X-21.6295 Y9.3769 F300.00
G01 X-21.5623 Y9.3599 F300.00
G01 X-21.5623 Y9.3015 F300.00
G01 X-21.5803 Y9.3043 F300.00
G01 X-21.7530 Y9.3605 F300.00
G01 X-21.9149 Y9.4429 F300.00
G01 X-22.0619 Y9.5497 F300.00
G01 X-22.1903 Y9.6781 F300.00
G01 X-22.2971 Y9.8251 F300.00
G01 X-22.3795 Y9.9870 F300.00
G01 X-22.4357 Y10.1597 F300.00
G01 X-22.4641 Y10.3392 F300.00
G01 X-22.4641 Y11.1777 F300.00
G01 X-22.4105 Y11.1777 F300.00
G00 Z0.5000
G00 X-21.5623 Y13.5001
G01 F60.00
G01 Z-0.2000
G01 F300.00
G01 X-21.6295 Y13.4831 F300.00
G01 X-21.7289 Y13.4476 F300.00
G01 X-21.7356 Y13.4447 F300.00
G01 X-21.8266 Y13.4017 F300.00
G01 X-21.8330 Y13.3981 F300.00
G01 X-21.9214 Y13.3450 F300.00
G01 X-22.0062 Y13.2822 F300.00
G01 X-22.0119 Y13.2775 F300.00
G01 X-22.0882 Y13.2082 F300.00
G01 X-22.1607 Y13.1281 F300.00
G01 X-22.2250 Y13.0414 F300.00
G01 X-22.2781 Y12.9530 F300.00
G01 X-22.2817 Y12.9466 F300.00
G01 X-22.3267 Y12.8511 F300.00
G01 X-22.3631 Y12.7495 F300.00
G01 X-22.3894 Y12.6447 F300.00
G01 X-22.4046 Y12.5427 F300.00
G01 X-22.4056 Y12.5330 F300.00
G01 X-22.4105 Y12.4300 F300.00
G01 X-22.4105 Y11.6823 F300.00
G01 X-22.4641 Y11.6823 F300.00
G01 X-22.4641 Y12.5208 F300.00
G01 X-22.4357 Y12.7003 F300.00
G01 X-22.3795 Y12.8730 F300.00
G01 X-22.2971 Y13.0349 F300.00
G01 X-22.1903 Y13.1819 F300.00
G01 X-22.0619 Y13.3103 F300.00
G01 X-21.9149 Y13.4171 F300.00
G01 X-21.7530 Y13.4995 F300.00
G01 X-21.5803 Y13.5557 F300.00
G01 X-21.5623 Y13.5585 F300.00
G01 X-21.5623 Y13.5001 F300.00
G00 Z0.5000
G00 X-21.5623 Y13.5001
G01 F60.00
G01 Z-0.2000
G01 F300.00
G01 X-21.6295 Y13.4831 F300.00
G01 X-21.7289 Y13.4476 F300.00
G01 X-21.7356 Y13.4447 F300.00
G01 X-21.8266 Y13.4017 F300.00
G01 X-21.8330 Y13.3981 F300.00
G01 X-21.9214 Y13.3450 F300.00
G01 X-22.0062 Y13.2822 F300.00
G01 X-22.0119 Y13.2775 F300.00
G01 X-22.0882 Y13.2082 F300.00
G01 X-22.1607 Y13.1281 F300.00
G01 X-22.2250 Y13.0414 F300.00
G01 X-22.2781 Y12.9530 F300.00
G01 X-22.2817 Y12.9466 F300.00
G01 X-22.3267 Y12.8511 F300.00
G01 X-22.3631 Y12.7495 F300.00
G01 X-22.3894 Y12.6447 F300.00
G01 X-22.4046 Y12.5427 F300.00
G01 X-22.4056 Y12.5330 F300.00
G01 X-22.4105 Y12.4300 F300.00
G01 X-22.4105 Y11.6823 F300.00
G01 X-22.4641 Y11.6823 F300.00
G01 X-22.4641 Y12.5208 F300.00
G01 X-22.4357 Y12.7003 F300.00
G01 X-22.3795 Y12.8730 F300.00
G01 X-22.2971 Y13.0349 F300.00
G01 X-22.1903 Y13.1819 F300.00
G01 X-22.0619 Y13.3103 F300.00
G01 X-21.9149 Y13.4171 F300.00
G01 X-21.7530 Y13.4995 F300.00
G01 X-21.5803 Y13.5557 F300.00
G01 X-21.5623 Y13.5585 F300.00
G01 X-21.5623 Y13.5001 F300.00
G00 Z0.5000
G00 X-21.0577 Y13.5001
G01 F60.00
G01 Z-0.2000
G01 F300.00
G01 X-21.0577 Y13.5585 F300.00
G01 X-21.0397 Y13.5557 F300.00
G01 X-20.8670 Y13.4995 F300.00
G01 X-20.7051 Y13.4171 F300.00
G01 X-20.5581 Y13.3103 F300.00
G01 X-20.4297 Y13.1819 F300.00
G01 X-20.3229 Y13.0349 F300.00
G01 X-20.2405 Y12.8730 F300.00
G01 X-20.1843 Y12.7003 F300.00
G01 X-20.1559 Y12.5208 F300.00
G01 X-20.1559 Y11.6823 F300.00
G01 X-20.2095 Y11.6823 F300.00
G01 X-20.2095 Y12.4300 F300.00
G01 X-20.2144 Y12.5330 F300.00
G01 X-20.2154 Y12.5427 F300.00
G01 X-20.2306 Y12.6447 F300.00
G01 X-20.2569 Y12.7495 F300.00
G01 X-20.2933 Y12.8511 F300.00
G01 X-20.3383 Y12.9466 F300.00
G01 X-20.3419 Y12.9530 F300.00
G01 X-20.3950 Y13.0414 F300.00
G01 X-20.4593 Y13.1281 F300.00
G01 X-20.5318 Y13.2082 F300.00
G01 X-20.6081 Y13.2775 F300.00
G01 X-20.6138 Y13.2822 F300.00
G01 X-20.6986 Y13.3450 F300.00
G01 X-20.7870 Y13.3981 F300.00
G01 X-20.7934 Y13.4017 F300.00
G01 X-20.8844 Y13.4447 F300.00
G01 X-20.8911 Y13.4476 F300.00
G01 X-20.9905 Y13.4831 F300.00
G01 X-21.0577 Y13.5001 F300.00
G00 Z0.5000
G00 X-21.0577 Y13.5001
G01 F60.00
G01 Z-0.2000
G01 F300.00
G01 X-21.0577 Y13.5585 F300.00
G01 X-21.0397 Y13.5557 F300.00
G01 X-20.8670 Y13.4995 F300.00
G01 X-20.7051 Y13.4171 F300.00
G01 X-20.5581 Y13.3103 F300.00
G01 X-20.4297 Y13.1819 F300.00
G01 X-20.3229 Y13.0349 F300.00
G01 X-20.2405 Y12.8730 F300.00
G01 X-20.1843 Y12.7003 F300.00
G01 X-20.1559 Y12.5208 F300.00
G01 X-20.1559 Y11.6823 F300.00
G01 X-20.2095 Y11.6823 F300.00
G01 X-20.2095 Y12.4300 F300.00
G01 X-20.2144 Y12.5330 F300.00
G01 X-20.2154 Y12.5427 F300.00
G01 X-20.2306 Y12.6447 F300.00
G01 X-20.2569 Y12.7495 F300.00
G01 X-20.2933 Y12.8511 F300.00
G01 X-20.3383 Y12.9466 F300.00
G01 X-20.3419 Y12.9530 F300.00
G01 X-20.3950 Y13.0414 F300.00
G01 X-20.4593 Y13.1281 F300.00
G01 X-20.5318 Y13.2082 F300.00
G01 X-20.6081 Y13.2775 F300.00
G01 X-20.6138 Y13.2822 F300.00
G01 X-20.6986 Y13.3450 F300.00
G01 X-20.7870 Y13.3981 F300.00
G01 X-20.7934 Y13.4017 F300.00
G01 X-20.8844 Y13.4447 F300.00
G01 X-20.8911 Y13.4476 F300.00
G01 X-20.9905 Y13.4831 F300.00
G01 X-21.0577 Y13.5001 F300.00
G00 Z0.5000
G00 X-24.9898 Y12.3410
G01 F60.00
G01 Z-0.2000
G01 F300.00
G01 X-25.0196 Y12.3548 F300.00
G01 X-25.1074 Y12.3862 F300.00
G01 X-25.1144 Y12.3882 F300.00
G01 X-25.2025 Y12.4103 F300.00
G01 X-25.2097 Y12.4116 F300.00
G01 X-25.3020 Y12.4252 F300.00
G01 X-25.3975 Y12.4300 F300.00
G01 X-25.4049 Y12.4299 F300.00
G01 X-25.4980 Y12.4252 F300.00
G01 X-25.5951 Y12.4108 F300.00
G01 X-25.6903 Y12.3869 F300.00
G01 X-25.7804 Y12.3548 F300.00
G01 X-25.7872 Y12.3519 F300.00
G01 X-25.8714 Y12.3119 F300.00
G01 X-25.9556 Y12.2615 F300.00
G01 X-26.0344 Y12.2030 F300.00
G01 X-26.1071 Y12.1371 F300.00
G01 X-26.1730 Y12.0644 F300.00
G01 X-26.2315 Y11.9856 F300.00
G01 X-26.2819 Y11.9014 F300.00
G01 X-26.3229 Y11.8149 F300.00
G01 X-26.3256 Y11.8081 F300.00
G01 X-26.3569 Y11.7203 F300.00
G01 X-26.3808 Y11.6251 F300.00
G01 X-26.3952 Y11.5280 F300.00
G01 X-26.4000 Y11.4300 F300.00
G01 X-26.3952 Y11.3320 F300.00
G01 X-26.3808 Y11.2349 F300.00
G01 X-26.3569 Y11.1397 F300.00
G01 X-26.3239 Y11.0473 F300.00
G01 X-26.2819 Y10.9586 F300.00
G01 X-26.2315 Y10.8744 F300.00
G01 X-26.1730 Y10.7956 F300.00
G01 X-26.1071 Y10.7229 F300.00
G01 X-26.0344 Y10.6570 F300.00
G01 X-25.9556 Y10.5985 F300.00
G01 X-25.8714 Y10.5481 F300.00
G01 X-25.7849 Y10.5071 F300.00
G01 X-25.7781 Y10.5044 F300.00
G01 X-25.6949 Y10.4746 F300.00
G01 X-25.6856 Y10.4718 F300.00
G01 X-25.5951 Y10.4492 F300.00
G01 X-25.4980 Y10.4348 F300.00
G01 X-25.4049 Y10.4301 F300.00
G01 X-25.3951 Y10.4301 F300.00
G01 X-25.3020 Y10.4348 F300.00
G01 X-25.2049 Y10.4492 F300.00
G01 X-25.1097 Y10.4731 F300.00
G01 X-25.0219 Y10.5044 F300.00
G01 X-25.0128 Y10.5081 F300.00
G01 X-24.9286 Y10.5481 F300.00
G01 X-24.8486 Y10.5959 F300.00
G01 X-24.8404 Y10.6014 F300.00
G01 X-24.7656 Y10.6570 F300.00
G01 X-24.6929 Y10.7229 F300.00
G01 X-24.6302 Y10.7919 F300.00
G01 X-24.6240 Y10.7995 F300.00
G01 X-24.5685 Y10.8744 F300.00
G01 X-24.5181 Y10.9586 F300.00
G01 X-24.4761 Y11.0473 F300.00
G01 X-24.4446 Y11.1351 F300.00
G01 X-24.4418 Y11.1444 F300.00
G01 X-24.4203 Y11.2301 F300.00
G01 X-24.4188 Y11.2373 F300.00
G01 X-24.4048 Y11.3320 F300.00
G01 X-24.4001 Y11.4251 F300.00
G01 X-24.4001 Y11.4349 F300.00
G01 X-24.4045 Y11.5231 F300.00
G01 X-24.4051 Y11.5305 F300.00
G01 X-24.4192 Y11.6251 F300.00
G01 X-24.4424 Y11.7179 F300.00
G01 X-24.4446 Y11.7249 F300.00
G01 X-24.4752 Y11.8104 F300.00
G01 X-24.4890 Y11.8402 F300.00
G01 X-22.1533 Y14.1759 F300.00
G01 X-18.5508 Y14.1759 F300.00
G01 X-18.5267 Y14.1089 F300.00
G01 X-18.4828 Y14.0156 F300.00
G01 X-18.4781 Y14.0070 F300.00
G01 X-18.4264 Y13.9207 F300.00
G01 X-18.4222 Y13.9146 F300.00
G01 X-18.3607 Y13.8319 F300.00
G01 X-18.2916 Y13.7554 F300.00
G01 X-18.2864 Y13.7501 F300.00
G01 X-18.2119 Y13.6825 F300.00
G01 X-18.2043 Y13.6763 F300.00
G01 X-18.1214 Y13.6150 F300.00
G01 X-18.0330 Y13.5619 F300.00
G01 X-18.0244 Y13.5572 F300.00
G01 X-17.9311 Y13.5133 F300.00
G01 X-17.8341 Y13.4784 F300.00
G01 X-17.8271 Y13.4762 F300.00
G01 X-17.7247 Y13.4506 F300.00
G01 X-17.6227 Y13.4354 F300.00
G01 X-17.6130 Y13.4344 F300.00
G01 X-17.5125 Y13.4295 F300.00
G01 X-15.9103 Y13.4295 F300.00
G01 X-13.6604 Y11.1796 F300.00
G01 X-13.6347 Y11.1563 F300.00
G01 X-13.6108 Y11.1384 F300.00
G01 X-13.6026 Y11.1329 F300.00
G01 X-13.5769 Y11.1177 F300.00
G01 X-13.5500 Y11.1048 F300.00
G01 X-13.5432 Y11.1019 F300.00
G01 X-13.5175 Y11.0927 F300.00
G01 X-13.5081 Y11.0898 F300.00
G01 X-13.4815 Y11.0832 F300.00
G01 X-13.4743 Y11.0818 F300.00
G01 X-13.4447 Y11.0776 F300.00
G01 X-13.4100 Y11.0759 F300.00
G01 X-8.9551 Y11.0759 F300.00
G01 X-8.9218 Y11.0057 F300.00
G01 X-8.8764 Y10.9299 F300.00
G01 X-8.8238 Y10.8590 F300.00
G01 X-8.7679 Y10.7971 F300.00
G01 X-8.7609 Y10.7901 F300.00
G01 X-8.7027 Y10.7374 F300.00
G01 X-8.6951 Y10.7312 F300.00
G01 X-8.6281 Y10.6816 F300.00
G01 X-8.5566 Y10.6386 F300.00
G01 X-8.5479 Y10.6340 F300.00
G01 X-8.4769 Y10.6004 F300.00
G01 X-8.4679 Y10.5966 F300.00
G01 X-8.3893 Y10.5687 F300.00
G01 X-8.3036 Y10.5472 F300.00
G01 X-8.2162 Y10.5342 F300.00
G01 X-8.1329 Y10.5300 F300.00
G01 X-8.1231 Y10.5300 F300.00
G01 X-8.0398 Y10.5342 F300.00
G01 X-7.9524 Y10.5472 F300.00
G01 X-7.8667 Y10.5687 F300.00
G01 X-7.7835 Y10.5984 F300.00
G01 X-7.7037 Y10.6362 F300.00
G01 X-7.6279 Y10.6816 F300.00
G01 X-7.5570 Y10.7342 F300.00
G01 X-7.4915 Y10.7935 F300.00
G01 X-7.4338 Y10.8571 F300.00
G01 X-7.3824 Y10.9259 F300.00
G01 X-7.3770 Y10.9341 F300.00
G01 X-7.3342 Y11.0057 F300.00
G01 X-7.2984 Y11.0811 F300.00
G01 X-7.2946 Y11.0901 F300.00
G01 X-7.2667 Y11.1687 F300.00
G01 X-7.2463 Y11.2496 F300.00
G01 X-7.2444 Y11.2592 F300.00
G01 X-7.2322 Y11.3418 F300.00
G01 X-7.2280 Y11.4251 F300.00
G01 X-7.2280 Y11.4349 F300.00
G01 X-7.2322 Y11.5182 F300.00
G01 X-7.2444 Y11.6008 F300.00
G01 X-7.2463 Y11.6104 F300.00
G01 X-7.2667 Y11.6913 F300.00
G01 X-7.2927 Y11.7645 F300.00
G01 X-4.8296 Y14.2276 F300.00
G01 X-4.8095 Y14.2496 F300.00
G01 X-4.8032 Y14.2572 F300.00
G01 X-4.7856 Y14.2813 F300.00
G01 X-4.7701 Y14.3068 F300.00
G01 X-4.7655 Y14.3154 F300.00
G01 X-4.7528 Y14.3425 F300.00
G01 X-4.7427 Y14.3705 F300.00
G01 X-4.7398 Y14.3799 F300.00
G01 X-4.7327 Y14.4089 F300.00
G01 X-4.7282 Y14.4384 F300.00
G01 X-4.7272 Y14.4482 F300.00
G01 X-4.7259 Y14.4780 F300.00
G01 X-4.7259 Y36.8300 F300.00
G01 X-4.7272 Y36.8598 F300.00
G01 X-4.7282 Y36.8696 F300.00
G01 X-4.7327 Y36.8991 F300.00
G01 X-4.7404 Y36.9304 F300.00
G01 X-4.7528 Y36.9655 F300.00
G01 X-4.7655 Y36.9926 F300.00
G01 X-4.7701 Y37.0012 F300.00
G01 X-4.7856 Y37.0267 F300.00
G01 X-4.8032 Y37.0508 F300.00
G01 X-4.8095 Y37.0584 F300.00
G01 X-4.8296 Y37.0804 F300.00
G01 X-7.3696 Y39.6204 F300.00
G01 X-7.3973 Y39.6453 F300.00
G01 X-7.4233 Y39.6644 F300.00
G01 X-7.4488 Y39.6799 F300.00
G01 X-7.4574 Y39.6845 F300.00
G01 X-7.4845 Y39.6972 F300.00
G01 X-7.5172 Y39.7089 F300.00
G01 X-7.5461 Y39.7162 F300.00
G01 X-7.5557 Y39.7182 F300.00
G01 X-7.5829 Y39.7222 F300.00
G01 X-7.5902 Y39.7228 F300.00
G01 X-7.6200 Y39.7241 F300.00
G01 X-8.7100 Y39.7241 F300.00
G01 X-8.7100 Y39.9200 F300.00
G01 X-8.7108 Y39.9322 F300.00
G01 X-8.7124 Y39.9419 F300.00
G01 X-8.7143 Y39.9490 F300.00
G01 X-8.7176 Y39.9583 F300.00
G01 X-8.7207 Y39.9650 F300.00
G01 X-8.7255 Y39.9735 F300.00
G01 X-8.7297 Y39.9796 F300.00
G01 X-8.7359 Y39.9872 F300.00
G01 X-8.7410 Y39.9924 F300.00
G01 X-8.7466 Y39.9973 F300.00
G01 X-8.7524 Y40.0018 F300.00
G01 X-8.7586 Y40.0058 F300.00
G01 X-8.7672 Y40.0104 F300.00
G01 X-8.7763 Y40.0142 F300.00
G01 X-8.7833 Y40.0164 F300.00
G01 X-8.7905 Y40.0181 F300.00
G01 X-8.8002 Y40.0195 F300.00
G01 X-8.8100 Y40.0200 F300.00
G01 X-9.0409 Y40.0200 F300.00
G01 X-9.0596 Y40.0404 F300.00
G01 X-9.9114 Y40.8921 F300.00
G01 X-9.9353 Y40.9137 F300.00
G01 X-9.9633 Y40.9344 F300.00
G01 X-9.9931 Y40.9523 F300.00
G01 X-10.0200 Y40.9652 F300.00
G01 X-10.0291 Y40.9689 F300.00
G01 X-10.0572 Y40.9789 F300.00
G01 X-10.0909 Y40.9873 F300.00
G01 X-10.1253 Y40.9924 F300.00
G01 X-10.1600 Y40.9941 F300.00
G01 X-17.6333 Y40.9941 F300.00
G01 X-18.6959 Y42.0567 F300.00
G01 X-18.6959 Y44.3033 F300.00
G01 X-15.0572 Y47.9419 F300.00
G01 X-14.9920 Y47.9584 F300.00
G01 X-14.9176 Y47.9849 F300.00
G01 X-14.9086 Y47.9886 F300.00
G01 X-14.8372 Y48.0225 F300.00
G01 X-14.7695 Y48.0630 F300.00
G01 X-14.7613 Y48.0684 F300.00
G01 X-14.6980 Y48.1156 F300.00
G01 X-14.6359 Y48.1719 F300.00
G01 X-14.5796 Y48.2340 F300.00
G01 X-14.5296 Y48.3013 F300.00
G01 X-14.4865 Y48.3732 F300.00
G01 X-14.4507 Y48.4490 F300.00
G01 X-14.4224 Y48.5280 F300.00
G01 X-14.4020 Y48.6093 F300.00
G01 X-14.3897 Y48.6923 F300.00
G01 X-14.3857 Y48.7735 F300.00
G01 X-14.3856 Y50.2840 F300.00
G01 X-14.3897 Y50.3677 F300.00
G01 X-14.4020 Y50.4507 F300.00
G01 X-14.4211 Y50.5273 F300.00
G01 X-14.4240 Y50.5367 F300.00
G01 X-14.4507 Y50.6110 F300.00
G01 X-14.4865 Y50.6868 F300.00
G01 X-14.5270 Y50.7545 F300.00
G01 X-14.5324 Y50.7627 F300.00
G01 X-14.5796 Y50.8260 F300.00
G01 X-14.6325 Y50.8846 F300.00
G01 X-14.6394 Y50.8915 F300.00
G01 X-14.6943 Y50.9412 F300.00
G01 X-14.7019 Y50.9475 F300.00
G01 X-14.7653 Y50.9944 F300.00
G01 X-14.8330 Y51.0351 F300.00
G01 X-14.8416 Y51.0397 F300.00
G01 X-14.9130 Y51.0733 F300.00
G01 X-14.9873 Y51.1000 F300.00
G01 X-14.9967 Y51.1029 F300.00
G01 X-15.0733 Y51.1220 F300.00
G01 X-15.1563 Y51.1343 F300.00
G01 X-15.2400 Y51.1384 F300.00
G01 X-15.3237 Y51.1343 F300.00
G01 X-15.4067 Y51.1220 F300.00
G01 X-15.4880 Y51.1016 F300.00
G01 X-15.5670 Y51.0733 F300.00
G01 X-15.6428 Y51.0375 F300.00
G01 X-15.7147 Y50.9944 F300.00
G01 X-15.7820 Y50.9444 F300.00
G01 X-15.8441 Y50.8881 F300.00
G01 X-15.9004 Y50.8260 F300.00
G01 X-15.9504 Y50.7587 F300.00
G01 X-15.9935 Y50.6868 F300.00
G01 X-16.0293 Y50.6110 F300.00
G01 X-16.0560 Y50.5367 F300.00
G01 X-16.0583 Y50.5297 F300.00
G01 X-16.0780 Y50.4507 F300.00
G01 X-16.0897 Y50.3726 F300.00
G01 X-16.0906 Y50.3628 F300.00
G01 X-16.0943 Y50.2865 F300.00
G01 X-16.0944 Y48.7760 F300.00
G01 X-16.0903 Y48.6923 F300.00
G01 X-16.0780 Y48.6093 F300.00
G01 X-16.0576 Y48.5280 F300.00
G01 X-16.0293 Y48.4490 F300.00
G01 X-15.9957 Y48.3776 F300.00
G01 X-15.9911 Y48.3690 F300.00
G01 X-15.9504 Y48.3013 F300.00
G01 X-15.9035 Y48.2379 F300.00
G01 X-15.8972 Y48.2303 F300.00
G01 X-15.8475 Y48.1754 F300.00
G01 X-15.8363 Y48.1646 F300.00
G01 X-19.3004 Y44.7004 F300.00
G01 X-19.3237 Y44.6747 F300.00
G01 X-19.3444 Y44.6467 F300.00
G01 X-19.3623 Y44.6169 F300.00
G01 X-19.3752 Y44.5900 F300.00
G01 X-19.3789 Y44.5809 F300.00
G01 X-19.3889 Y44.5528 F300.00
G01 X-19.3973 Y44.5191 F300.00
G01 X-19.4024 Y44.4847 F300.00
G01 X-19.4041 Y44.4500 F300.00
G01 X-19.4041 Y41.9100 F300.00
G01 X-19.4028 Y41.8802 F300.00
G01 X-19.4018 Y41.8704 F300.00
G01 X-19.3973 Y41.8409 F300.00
G01 X-19.3902 Y41.8119 F300.00
G01 X-19.3873 Y41.8025 F300.00
G01 X-19.3772 Y41.7745 F300.00
G01 X-19.3645 Y41.7474 F300.00
G01 X-19.3599 Y41.7388 F300.00
G01 X-19.3444 Y41.7133 F300.00
G01 X-19.3268 Y41.6892 F300.00
G01 X-19.3205 Y41.6816 F300.00
G01 X-19.3021 Y41.6614 F300.00
G01 X-18.0304 Y40.3896 F300.00
G01 X-18.0084 Y40.3695 F300.00
G01 X-18.0008 Y40.3632 F300.00
G01 X-17.9767 Y40.3456 F300.00
G01 X-17.9469 Y40.3277 F300.00
G01 X-17.9155 Y40.3128 F300.00
G01 X-17.8875 Y40.3027 F300.00
G01 X-17.8781 Y40.2998 F300.00
G01 X-17.8467 Y40.2922 F300.00
G01 X-17.8147 Y40.2876 F300.00
G01 X-17.7800 Y40.2859 F300.00
G01 X-10.3067 Y40.2859 F300.00
G01 X-9.9100 Y39.8892 F300.00
G01 X-9.9100 Y38.8175 F300.00
G01 X-9.9089 Y38.8053 F300.00
G01 X-9.9070 Y38.7957 F300.00
G01 X-9.9042 Y38.7863 F300.00
G01 X-9.8993 Y38.7750 F300.00
G01 X-9.8931 Y38.7644 F300.00
G01 X-9.8857 Y38.7547 F300.00
G01 X-9.8790 Y38.7476 F300.00
G01 X-9.8696 Y38.7397 F300.00
G01 X-9.8635 Y38.7355 F300.00
G01 X-9.8571 Y38.7318 F300.00
G01 X-9.8505 Y38.7286 F300.00
G01 X-9.8414 Y38.7250 F300.00
G01 X-9.8343 Y38.7230 F300.00
G01 X-9.8271 Y38.7215 F300.00
G01 X-9.8198 Y38.7205 F300.00
G01 X-9.8125 Y38.7200 F300.00
G01 X-8.8100 Y38.7200 F300.00
G01 X-8.7978 Y38.7208 F300.00
G01 X-8.7905 Y38.7219 F300.00
G01 X-8.7833 Y38.7236 F300.00
G01 X-8.7717 Y38.7276 F300.00
G01 X-8.7650 Y38.7307 F300.00
G01 X-8.7586 Y38.7342 F300.00
G01 X-8.7524 Y38.7382 F300.00
G01 X-8.7466 Y38.7427 F300.00
G01 X-8.7410 Y38.7476 F300.00
G01 X-8.7359 Y38.7528 F300.00
G01 X-8.7312 Y38.7585 F300.00
G01 X-8.7269 Y38.7644 F300.00
G01 X-8.7230 Y38.7707 F300.00
G01 X-8.7196 Y38.7772 F300.00
G01 X-8.7167 Y38.7840 F300.00
G01 X-8.7143 Y38.7910 F300.00
G01 X-8.7115 Y38.8029 F300.00
G01 X-8.7105 Y38.8102 F300.00
G01 X-8.7100 Y38.8175 F300.00
G01 X-8.7100 Y39.0159 F300.00
G01 X-7.7667 Y39.0159 F300.00
G01 X-5.4341 Y36.6833 F300.00
G01 X-5.4341 Y14.6247 F300.00
G01 X-7.7935 Y12.2653 F300.00
G01 X-7.8667 Y12.2913 F300.00
G01 X-7.9524 Y12.3128 F300.00
G01 X-8.0398 Y12.3258 F300.00
G01 X-8.1280 Y12.3301 F300.00
G01 X-8.2162 Y12.3258 F300.00
G01 X-8.3036 Y12.3128 F300.00
G01 X-8.3893 Y12.2913 F300.00
G01 X-8.4725 Y12.2616 F300.00
G01 X-8.5523 Y12.2238 F300.00
G01 X-8.6281 Y12.1784 F300.00
G01 X-8.6990 Y12.1258 F300.00
G01 X-8.7645 Y12.0665 F300.00
G01 X-8.8238 Y12.0010 F300.00
G01 X-8.8764 Y11.9301 F300.00
G01 X-8.9218 Y11.8543 F300.00
G01 X-8.9551 Y11.7841 F300.00
G01 X-13.2633 Y11.7841 F300.00
G01 X-15.0233 Y13.5441 F300.00
G01 X-14.9891 Y13.5606 F300.00
G01 X-14.9007 Y13.6136 F300.00
G01 X-14.8946 Y13.6178 F300.00
G01 X-14.8157 Y13.6763 F300.00
G01 X-14.8100 Y13.6809 F300.00
G01 X-14.7354 Y13.7484 F300.00
G01 X-14.7284 Y13.7554 F300.00
G01 X-14.6593 Y13.8319 F300.00
G01 X-14.5964 Y13.9166 F300.00
G01 X-14.5923 Y13.9227 F300.00
G01 X-14.5394 Y14.0112 F300.00
G01 X-14.4953 Y14.1044 F300.00
G01 X-14.4915 Y14.1134 F300.00
G01 X-14.4569 Y14.2105 F300.00
G01 X-14.4317 Y14.3105 F300.00
G01 X-14.4298 Y14.3201 F300.00
G01 X-14.4151 Y14.4197 F300.00
G01 X-14.4144 Y14.4270 F300.00
G01 X-14.4096 Y14.5251 F300.00
G01 X-14.4096 Y14.5349 F300.00
G01 X-14.4148 Y14.6379 F300.00
G01 X-14.4306 Y14.7447 F300.00
G01 X-14.4569 Y14.8495 F300.00
G01 X-14.4915 Y14.9466 F300.00
G01 X-14.4953 Y14.9556 F300.00
G01 X-14.5372 Y15.0444 F300.00
G01 X-14.5406 Y15.0509 F300.00
G01 X-14.5950 Y15.1414 F300.00
G01 X-14.6563 Y15.2243 F300.00
G01 X-14.6625 Y15.2319 F300.00
G01 X-14.7284 Y15.3046 F300.00
G01 X-14.7336 Y15.3099 F300.00
G01 X-14.8119 Y15.3807 F300.00
G01 X-14.8966 Y15.4436 F300.00
G01 X-14.9027 Y15.4477 F300.00
G01 X-14.9891 Y15.4994 F300.00
G01 X-15.0233 Y15.5159 F300.00
G01 X-14.9879 Y15.5514 F300.00
G01 X-14.9663 Y15.5753 F300.00
G01 X-14.9456 Y15.6033 F300.00
G01 X-14.9277 Y15.6331 F300.00
G01 X-14.9128 Y15.6645 F300.00
G01 X-14.9011 Y15.6972 F300.00
G01 X-14.8927 Y15.7309 F300.00
G01 X-14.8874 Y15.7677 F300.00
G01 X-14.8859 Y15.8000 F300.00
G01 X-14.8859 Y17.1144 F300.00
G01 X-14.8252 Y17.1504 F300.00
G01 X-14.8171 Y17.1559 F300.00
G01 X-14.7617 Y17.1972 F300.00
G01 X-14.7068 Y17.2468 F300.00
G01 X-14.6572 Y17.3017 F300.00
G01 X-14.6159 Y17.3571 F300.00
G01 X-14.6104 Y17.3652 F300.00
G01 X-14.5750 Y17.4246 F300.00
G01 X-14.5434 Y17.4915 F300.00
G01 X-14.5200 Y17.5565 F300.00
G01 X-14.5172 Y17.5659 F300.00
G01 X-14.5005 Y17.6329 F300.00
G01 X-14.4902 Y17.7012 F300.00
G01 X-14.4893 Y17.7110 F300.00
G01 X-14.4860 Y17.7800 F300.00
G01 X-14.4893 Y17.8490 F300.00
G01 X-14.4902 Y17.8588 F300.00
G01 X-14.5005 Y17.9271 F300.00
G01 X-14.5185 Y17.9989 F300.00
G01 X-14.5434 Y18.0685 F300.00
G01 X-14.5750 Y18.1354 F300.00
G01 X-14.6131 Y18.1989 F300.00
G01 X-14.6572 Y18.2583 F300.00
G01 X-14.7068 Y18.3132 F300.00
G01 X-14.7617 Y18.3628 F300.00
G01 X-14.8211 Y18.4069 F300.00
G01 X-14.8846 Y18.4450 F300.00
G01 X-14.9515 Y18.4766 F300.00
G01 X-15.0211 Y18.5015 F300.00
G01 X-15.0929 Y18.5195 F300.00
G01 X-15.1661 Y18.5304 F300.00
G01 X-15.2400 Y18.5340 F300.00
G01 X-15.3090 Y18.5307 F300.00
G01 X-15.3163 Y18.5301 F300.00
G01 X-15.3871 Y18.5195 F300.00
G01 X-15.4541 Y18.5028 F300.00
G01 X-15.4635 Y18.5000 F300.00
G01 X-15.5240 Y18.4784 F300.00
G01 X-15.5330 Y18.4746 F300.00
G01 X-15.5954 Y18.4450 F300.00
G01 X-15.6589 Y18.4069 F300.00
G01 X-15.7183 Y18.3628 F300.00
G01 X-15.7696 Y18.3165 F300.00
G01 X-15.7765 Y18.3096 F300.00
G01 X-15.8196 Y18.2620 F300.00
G01 X-15.8259 Y18.2545 F300.00
G01 X-15.8669 Y18.1989 F300.00
G01 X-15.9050 Y18.1354 F300.00
G01 X-15.9366 Y18.0685 F300.00
G01 X-15.9600 Y18.0035 F300.00
G01 X-15.9628 Y17.9941 F300.00
G01 X-15.9795 Y17.9271 F300.00
G01 X-15.9904 Y17.8539 F300.00
G01 X-15.9939 Y17.7849 F300.00
G01 X-15.9939 Y17.7751 F300.00
G01 X-15.9907 Y17.7110 F300.00
G01 X-15.9898 Y17.7012 F300.00
G01 X-15.9795 Y17.6329 F300.00
G01 X-15.9615 Y17.5611 F300.00
G01 X-15.9366 Y17.4915 F300.00
G01 X-15.9072 Y17.4290 F300.00
G01 X-15.9025 Y17.4203 F300.00
G01 X-15.8696 Y17.3652 F300.00
G01 X-15.8641 Y17.3571 F300.00
G01 X-15.8228 Y17.3017 F300.00
G01 X-15.7732 Y17.2468 F300.00
G01 X-15.7183 Y17.1972 F300.00
G01 X-15.6629 Y17.1559 F300.00
G01 X-15.6548 Y17.1504 F300.00
G01 X-15.5941 Y17.1144 F300.00
G01 X-15.5941 Y15.9467 F300.00
G01 X-15.9103 Y15.6305 F300.00
G01 X-17.5125 Y15.6305 F300.00
G01 X-17.6130 Y15.6256 F300.00
G01 X-17.6227 Y15.6246 F300.00
G01 X-17.7247 Y15.6094 F300.00
G01 X-17.8271 Y15.5838 F300.00
G01 X-17.8341 Y15.5816 F300.00
G01 X-17.9311 Y15.5467 F300.00
G01 X-18.0244 Y15.5028 F300.00
G01 X-18.0330 Y15.4981 F300.00
G01 X-18.1214 Y15.4450 F300.00
G01 X-18.2043 Y15.3837 F300.00
G01 X-18.2119 Y15.3775 F300.00
G01 X-18.2864 Y15.3099 F300.00
G01 X-18.2916 Y15.3046 F300.00
G01 X-18.3607 Y15.2281 F300.00
G01 X-18.4222 Y15.1454 F300.00
G01 X-18.4264 Y15.1393 F300.00
G01 X-18.4781 Y15.0530 F300.00
G01 X-18.4828 Y15.0444 F300.00
G01 X-18.5267 Y14.9511 F300.00
G01 X-18.5508 Y14.8841 F300.00
G01 X-22.3000 Y14.8841 F300.00
G01 X-22.3347 Y14.8824 F300.00
G01 X-22.3691 Y14.8773 F300.00
G01 X-22.4028 Y14.8689 F300.00
G01 X-22.4309 Y14.8589 F300.00
G01 X-22.4400 Y14.8552 F300.00
G01 X-22.4669 Y14.8423 F300.00
G01 X-22.4967 Y14.8244 F300.00
G01 X-22.5247 Y14.8037 F300.00
G01 X-22.5504 Y14.7804 F300.00
G01 X-24.9898 Y12.3410 F300.00
G00 Z0.5000
G00 X-24.9898 Y12.3410
G01 F60.00
G01 Z-0.2000
G01 F300.00
G01 X-25.0196 Y12.3548 F300.00
G01 X-25.1074 Y12.3862 F300.00
G01 X-25.1144 Y12.3882 F300.00
G01 X-25.2025 Y12.4103 F300.00
G01 X-25.2097 Y12.4116 F300.00
G01 X-25.3020 Y12.4252 F300.00
G01 X-25.3975 Y12.4300 F300.00
G01 X-25.4049 Y12.4299 F300.00
G01 X-25.4980 Y12.4252 F300.00
G01 X-25.5951 Y12.4108 F300.00
G01 X-25.6903 Y12.3869 F300.00
G01 X-25.7804 Y12.3548 F300.00
G01 X-25.7872 Y12.3519 F300.00
G01 X-25.8714 Y12.3119 F300.00
G01 X-25.9556 Y12.2615 F300.00
G01 X-26.0344 Y12.2030 F300.00
G01 X-26.1071 Y12.1371 F300.00
G01 X-26.1730 Y12.0644 F300.00
G01 X-26.2315 Y11.9856 F300.00
G01 X-26.2819 Y11.9014 F300.00
G01 X-26.3229 Y11.8149 F300.00
G01 X-26.3256 Y11.8081 F300.00
G01 X-26.3569 Y11.7203 F300.00
G01 X-26.3808 Y11.6251 F300.00
G01 X-26.3952 Y11.5280 F300.00
G01 X-26.4000 Y11.4300 F300.00
G01 X-26.3952 Y11.3320 F300.00
G01 X-26.3808 Y11.2349 F300.00
G01 X-26.3569 Y11.1397 F300.00
G01 X-26.3239 Y11.0473 F300.00
G01 X-26.2819 Y10.9586 F300.00
G01 X-26.2315 Y10.8744 F300.00
G01 X-26.1730 Y10.7956 F300.00
G01 X-26.1071 Y10.7229 F300.00
G01 X-26.0344 Y10.6570 F300.00
G01 X-25.9556 Y10.5985 F300.00
G01 X-25.8714 Y10.5481 F300.00
G01 X-25.7849 Y10.5071 F300.00
G01 X-25.7781 Y10.5044 F300.00
G01 X-25.6949 Y10.4746 F300.00
G01 X-25.6856 Y10.4718 F300.00
G01 X-25.5951 Y10.4492 F300.00
G01 X-25.4980 Y10.4348 F300.00
G01 X-25.4049 Y10.4301 F300.00
G01 X-25.3951 Y10.4301 F300.00
G01 X-25.3020 Y10.4348 F300.00
G01 X-25.2049 Y10.4492 F300.00
G01 X-25.1097 Y10.4731 F300.00
G01 X-25.0219 Y10.5044 F300.00
G01 X-25.0128 Y10.5081 F300.00
G01 X-24.9286 Y10.5481 F300.00
G01 X-24.8486 Y10.5959 F300.00
G01 X-24.8404 Y10.6014 F300.00
G01 X-24.7656 Y10.6570 F300.00
G01 X-24.6929 Y10.7229 F300.00
G01 X-24.6302 Y10.7919 F300.00
G01 X-24.6240 Y10.7995 F300.00
G01 X-24.5685 Y10.8744 F300.00
G01 X-24.5181 Y10.9586 F300.00
G01 X-24.4761 Y11.0473 F300.00
G01 X-24.4446 Y11.1351 F300.00
G01 X-24.4418 Y11.1444 F300.00
G01 X-24.4203 Y11.2301 F300.00
G01 X-24.4188 Y11.2373 F300.00
G01 X-24.4048 Y11.3320 F300.00
G01 X-24.4001 Y11.4251 F300.00
G01 X-24.4001 Y11.4349 F300.00
G01 X-24.4045 Y11.5231 F300.00
G01 X-24.4051 Y11.5305 F300.00
G01 X-24.4192 Y11.6251 F300.00
G01 X-24.4424 Y11.7179 F300.00
G01 X-24.4446 Y11.7249 F300.00
G01 X-24.4752 Y11.8104 F300.00
G01 X-24.4890 Y11.8402 F300.00
G01 X-22.1533 Y14.1759 F300.00
G01 X-18.5508 Y14.1759 F300.00
G01 X-18.5267 Y14.1089 F300.00
G01 X-18.4828 Y14.0156 F300.00
G01 X-18.4781 Y14.0070 F300.00
G01 X-18.4264 Y13.9207 F300.00
G01 X-18.4222 Y13.9146 F300.00
G01 X-18.3607 Y13.8319 F300.00
G01 X-18.2916 Y13.7554 F300.00
G01 X-18.2864 Y13.7501 F300.00
G01 X-18.2119 Y13.6825 F300.00
G01 X-18.2043 Y13.6763 F300.00
G01 X-18.1214 Y13.6150 F300.00
G01 X-18.0330 Y13.5619 F300.00
G01 X-18.0244 Y13.5572 F300.00
G01 X-17.9311 Y13.5133 F300.00
G01 X-17.8341 Y13.4784 F300.00
G01 X-17.8271 Y13.4762 F300.00
G01 X-17.7247 Y13.4506 F300.00
G01 X-17.6227 Y13.4354 F300.00
G01 X-17.6130 Y13.4344 F300.00
G01 X-17.5125 Y13.4295 F300.00
G01 X-15.9103 Y13.4295 F300.00
G01 X-13.6604 Y11.1796 F300.00
G01 X-13.6347 Y11.1563 F300.00
G01 X-13.6108 Y11.1384 F300.00
G01 X-13.6026 Y11.1329 F300.00
G01 X-13.5769 Y11.1177 F300.00
G01 X-13.5500 Y11.1048 F300.00
G01 X-13.5432 Y11.1019 F300.00
G01 X-13.5175 Y11.0927 F300.00
G01 X-13.5081 Y11.0898 F300.00
G01 X-13.4815 Y11.0832 F300.00
G01 X-13.4743 Y11.0818 F300.00
G01 X-13.4447 Y11.0776 F300.00
G01 X-13.4100 Y11.0759 F300.00
G01 X-8.9551 Y11.0759 F300.00
G01 X-8.9218 Y11.0057 F300.00
G01 X-8.8764 Y10.9299 F300.00
G01 X-8.8238 Y10.8590 F300.00
G01 X-8.7679 Y10.7971 F300.00
G01 X-8.7609 Y10.7901 F300.00
G01 X-8.7027 Y10.7374 F300.00
G01 X-8.6951 Y10.7312 F300.00
G01 X-8.6281 Y10.6816 F300.00
G01 X-8.5566 Y10.6386 F300.00
G01 X-8.5479 Y10.6340 F300.00
G01 X-8.4769 Y10.6004 F300.00
G01 X-8.4679 Y10.5966 F300.00
G01 X-8.3893 Y10.5687 F300.00
G01 X-8.3036 Y10.5472 F300.00
G01 X-8.2162 Y10.5342 F300.00
G01 X-8.1329 Y10.5300 F300.00
G01 X-8.1231 Y10.5300 F300.00
G01 X-8.0398 Y10.5342 F300.00
G01 X-7.9524 Y10.5472 F300.00
G01 X-7.8667 Y10.5687 F300.00
G01 X-7.7835 Y10.5984 F300.00
G01 X-7.7037 Y10.6362 F300.00
G01 X-7.6279 Y10.6816 F300.00
G01 X-7.5570 Y10.7342 F300.00
G01 X-7.4915 Y10.7935 F300.00
G01 X-7.4338 Y10.8571 F300.00
G01 X-7.3824 Y10.9259 F300.00
G01 X-7.3770 Y10.9341 F300.00
G01 X-7.3342 Y11.0057 F300.00
G01 X-7.2984 Y11.0811 F300.00
G01 X-7.2946 Y11.0901 F300.00
G01 X-7.2667 Y11.1687 F300.00
G01 X-7.2463 Y11.2496 F300.00
G01 X-7.2444 Y11.2592 F300.00
G01 X-7.2322 Y11.3418 F300.00
G01 X-7.2280 Y11.4251 F300.00
G01 X-7.2280 Y11.4349 F300.00
G01 X-7.2322 Y11.5182 F300.00
G01 X-7.2444 Y11.6008 F300.00
G01 X-7.2463 Y11.6104 F300.00
G01 X-7.2667 Y11.6913 F300.00
G01 X-7.2927 Y11.7645 F300.00
G01 X-4.8296 Y14.2276 F300.00
G01 X-4.8095 Y14.2496 F300.00
G01 X-4.8032 Y14.2572 F300.00
G01 X-4.7856 Y14.2813 F300.00
G01 X-4.7701 Y14.3068 F300.00
G01 X-4.7655 Y14.3154 F300.00
G01 X-4.7528 Y14.3425 F300.00
G01 X-4.7427 Y14.3705 F300.00
G01 X-4.7398 Y14.3799 F300.00
G01 X-4.7327 Y14.4089 F300.00
G01 X-4.7282 Y14.4384 F300.00
G01 X-4.7272 Y14.4482 F300.00
G01 X-4.7259 Y14.4780 F300.00
G01 X-4.7259 Y36.8300 F300.00
G01 X-4.7272 Y36.8598 F300.00
G01 X-4.7282 Y36.8696 F300.00
G01 X-4.7327 Y36.8991 F300.00
G01 X-4.7404 Y36.9304 F300.00
G01 X-4.7528 Y36.9655 F300.00
G01 X-4.7655 Y36.9926 F300.00
G01 X-4.7701 Y37.0012 F300.00
G01 X-4.7856 Y37.0267 F300.00
G01 X-4.8032 Y37.0508 F300.00
G01 X-4.8095 Y37.0584 F300.00
G01 X-4.8296 Y37.0804 F300.00
G01 X-7.3696 Y39.6204 F300.00
G01 X-7.3973 Y39.6453 F300.00
G01 X-7.4233 Y39.6644 F300.00
G01 X-7.4488 Y39.6799 F300.00
G01 X-7.4574 Y39.6845 F300.00
G01 X-7.4845 Y39.6972 F300.00
G01 X-7.5172 Y39.7089 F300.00
G01 X-7.5461 Y39.7162 F300.00
G01 X-7.5557 Y39.7182 F300.00
G01 X-7.5829 Y39.7222 F300.00
G01 X-7.5902 Y39.7228 F300.00
G01 X-7.6200 Y39.7241 F300.00
G01 X-8.7100 Y39.7241 F300.00
G01 X-8.7100 Y39.9200 F300.00
G01 X-8.7108 Y39.9322 F300.00
G01 X-8.7124 Y39.9419 F300.00
G01 X-8.7143 Y39.9490 F300.00
G01 X-8.7176 Y39.9583 F300.00
G01 X-8.7207 Y39.9650 F300.00
G01 X-8.7255 Y39.9735 F300.00
G01 X-8.7297 Y39.9796 F300.00
G01 X-8.7359 Y39.9872 F300.00
G01 X-8.7410 Y39.9924 F300.00
G01 X-8.7466 Y39.9973 F300.00
G01 X-8.7524 Y40.0018 F300.00
G01 X-8.7586 Y40.0058 F300.00
G01 X-8.7672 Y40.0104 F300.00
G01 X-8.7763 Y40.0142 F300.00
G01 X-8.7833 Y40.0164 F300.00
G01 X-8.7905 Y40.0181 F300.00
G01 X-8.8002 Y40.0195 F300.00
G01 X-8.8100 Y40.0200 F300.00
G01 X-9.0409 Y40.0200 F300.00
G01 X-9.0596 Y40.0404 F300.00
G01 X-9.9114 Y40.8921 F300.00
G01 X-9.9353 Y40.9137 F300.00
G01 X-9.9633 Y40.9344 F300.00
G01 X-9.9931 Y40.9523 F300.00
G01 X-10.0200 Y40.9652 F300.00
G01 X-10.0291 Y40.9689 F300.00
G01 X-10.0572 Y40.9789 F300.00
G01 X-10.0909 Y40.9873 F300.00
G01 X-10.1253 Y40.9924 F300.00
G01 X-10.1600 Y40.9941 F300.00
G01 X-17.6333 Y40.9941 F300.00
G01 X-18.6959 Y42.0567 F300.00
G01 X-18.6959 Y44.3033 F300.00
G01 X-15.0572 Y47.9419 F300.00
G01 X-14.9920 Y47.9584 F300.00
G01 X-14.9176 Y47.9849 F300.00
G01 X-14.9086 Y47.9886 F300.00
G01 X-14.8372 Y48.0225 F300.00
G01 X-14.7695 Y48.0630 F300.00
G01 X-14.7613 Y48.0684 F300.00
G01 X-14.6980 Y48.1156 F300.00
G01 X-14.6359 Y48.1719 F300.00
G01 X-14.5796 Y48.2340 F300.00
G01 X-14.5296 Y48.3013 F300.00
G01 X-14.4865 Y48.3732 F300.00
G01 X-14.4507 Y48.4490 F300.00
G01 X-14.4224 Y48.5280 F300.00
G01 X-14.4020 Y48.6093 F300.00
G01 X-14.3897 Y48.6923 F300.00
G01 X-14.3857 Y48.7735 F300.00
G01 X-14.3856 Y50.2840 F300.00
G01 X-14.3897 Y50.3677 F300.00
G01 X-14.4020 Y50.4507 F300.00
G01 X-14.4211 Y50.5273 F300.00
G01 X-14.4240 Y50.5367 F300.00
G01 X-14.4507 Y50.6110 F300.00
G01 X-14.4865 Y50.6868 F300.00
G01 X-14.5270 Y50.7545 F300.00
G01 X-14.5324 Y50.7627 F300.00
G01 X-14.5796 Y50.8260 F300.00
G01 X-14.6325 Y50.8846 F300.00
G01 X-14.6394 Y50.8915 F300.00
G01 X-14.6943 Y50.9412 F300.00
G01 X-14.7019 Y50.9475 F300.00
G01 X-14.7653 Y50.9944 F300.00
G01 X-14.8330 Y51.0351 F300.00
G01 X-14.8416 Y51.0397 F300.00
G01 X-14.9130 Y51.0733 F300.00
G01 X-14.9873 Y51.1000 F300.00
G01 X-14.9967 Y51.1029 F300.00
G01 X-15.0733 Y51.1220 F300.00
G01 X-15.1563 Y51.1343 F300.00
G01 X-15.2400 Y51.1384 F300.00
G01 X-15.3237 Y51.1343 F300.00
G01 X-15.4067 Y51.1220 F300.00
G01 X-15.4880 Y51.1016 F300.00
G01 X-15.5670 Y51.0733 F300.00
G01 X-15.6428 Y51.0375 F300.00
G01 X-15.7147 Y50.9944 F300.00
G01 X-15.7820 Y50.9444 F300.00
G01 X-15.8441 Y50.8881 F300.00
G01 X-15.9004 Y50.8260 F300.00
G01 X-15.9504 Y50.7587 F300.00
G01 X-15.9935 Y50.6868 F300.00
G01 X-16.0293 Y50.6110 F300.00
G01 X-16.0560 Y50.5367 F300.00
G01 X-16.0583 Y50.5297 F300.00
G01 X-16.0780 Y50.4507 F300.00
G01 X-16.0897 Y50.3726 F300.00
G01 X-16.0906 Y50.3628 F300.00
G01 X-16.0943 Y50.2865 F300.00
G01 X-16.0944 Y48.7760 F300.00
G01 X-16.0903 Y48.6923 F300.00
G01 X-16.0780 Y48.6093 F300.00
G01 X-16.0576 Y48.5280 F300.00
G01 X-16.0293 Y48.4490 F300.00
G01 X-15.9957 Y48.3776 F300.00
G01 X-15.9911 Y48.3690 F300.00
G01 X-15.9504 Y48.3013 F300.00
G01 X-15.9035 Y48.2379 F300.00
G01 X-15.8972 Y48.2303 F300.00
G01 X-15.8475 Y48.1754 F300.00
G01 X-15.8363 Y48.1646 F300.00
G01 X-19.3004 Y44.7004 F300.00
G01 X-19.3237 Y44.6747 F300.00
G01 X-19.3444 Y44.6467 F300.00
G01 X-19.3623 Y44.6169 F300.00
G01 X-19.3752 Y44.5900 F300.00
G01 X-19.3789 Y44.5809 F300.00
G01 X-19.3889 Y44.5528 F300.00
G01 X-19.3973 Y44.5191 F300.00
G01 X-19.4024 Y44.4847 F300.00
G01 X-19.4041 Y44.4500 F300.00
G01 X-19.4041 Y41.9100 F300.00
G01 X-19.4028 Y41.8802 F300.00
G01 X-19.4018 Y41.8704 F300.00
G01 X-19.3973 Y41.8409 F300.00
G01 X-19.3902 Y41.8119 F300.00
G01 X-19.3873 Y41.8025 F300.00
G01 X-19.3772 Y41.7745 F300.00
G01 X-19.3645 Y41.7474 F300.00
G01 X-19.3599 Y41.7388 F300.00
G01 X-19.3444 Y41.7133 F300.00
G01 X-19.3268 Y41.6892 F300.00
G01 X-19.3205 Y41.6816 F300.00
G01 X-19.3021 Y41.6614 F300.00
G01 X-18.0304 Y40.3896 F300.00
G01 X-18.0084 Y40.3695 F300.00
G01 X-18.0008 Y40.3632 F300.00
G01 X-17.9767 Y40.3456 F300.00
G01 X-17.9469 Y40.3277 F300.00
G01 X-17.9155 Y40.3128 F300.00
G01 X-17.8875 Y40.3027 F300.00
G01 X-17.8781 Y40.2998 F300.00
G01 X-17.8467 Y40.2922 F300.00
G01 X-17.8147 Y40.2876 F300.00
G01 X-17.7800 Y40.2859 F300.00
G01 X-10.3067 Y40.2859 F300.00
G01 X-9.9100 Y39.8892 F300.00
G01 X-9.9100 Y38.8175 F300.00
G01 X-9.9089 Y38.8053 F300.00
G01 X-9.9070 Y38.7957 F300.00
G01 X-9.9042 Y38.7863 F300.00
G01 X-9.8993 Y38.7750 F300.00
G01 X-9.8931 Y38.7644 F300.00
G01 X-9.8857 Y38.7547 F300.00
G01 X-9.8790 Y38.7476 F300.00
G01 X-9.8696 Y38.7397 F300.00
G01 X-9.8635 Y38.7355 F300.00
G01 X-9.8571 Y38.7318 F300.00
G01 X-9.8505 Y38.7286 F300.00
G01 X-9.8414 Y38.7250 F300.00
G01 X-9.8343 Y38.7230 F300.00
G01 X-9.8271 Y38.7215 F300.00
G01 X-9.8198 Y38.7205 F300.00
G01 X-9.8125 Y38.7200 F300.00
G01 X-8.8100 Y38.7200 F300.00
G01 X-8.7978 Y38.7208 F300.00
G01 X-8.7905 Y38.7219 F300.00
G01 X-8.7833 Y38.7236 F300.00
G01 X-8.7717 Y38.7276 F300.00
G01 X-8.7650 Y38.7307 F300.00
G01 X-8.7586 Y38.7342 F300.00
G01 X-8.7524 Y38.7382 F300.00
G01 X-8.7466 Y38.7427 F300.00
G01 X-8.7410 Y38.7476 F300.00
G01 X-8.7359 Y38.7528 F300.00
G01 X-8.7312 Y38.7585 F300.00
G01 X-8.7269 Y38.7644 F300.00
G01 X-8.7230 Y38.7707 F300.00
G01 X-8.7196 Y38.7772 F300.00
G01 X-8.7167 Y38.7840 F300.00
G01 X-8.7143 Y38.7910 F300.00
G01 X-8.7115 Y38.8029 F300.00
G01 X-8.7105 Y38.8102 F300.00
G01 X-8.7100 Y38.8175 F300.00
G01 X-8.7100 Y39.0159 F300.00
G01 X-7.7667 Y39.0159 F300.00
G01 X-5.4341 Y36.6833 F300.00
G01 X-5.4341 Y14.6247 F300.00
G01 X-7.7935 Y12.2653 F300.00
G01 X-7.8667 Y12.2913 F300.00
G01 X-7.9524 Y12.3128 F300.00
G01 X-8.0398 Y12.3258 F300.00
G01 X-8.1280 Y12.3301 F300.00
G01 X-8.2162 Y12.3258 F300.00
G01 X-8.3036 Y12.3128 F300.00
G01 X-8.3893 Y12.2913 F300.00
G01 X-8.4725 Y12.2616 F300.00
G01 X-8.5523 Y12.2238 F300.00
G01 X-8.6281 Y12.1784 F300.00
G01 X-8.6990 Y12.1258 F300.00
G01 X-8.7645 Y12.0665 F300.00
G01 X-8.8238 Y12.0010 F300.00
G01 X-8.8764 Y11.9301 F300.00
G01 X-8.9218 Y11.8543 F300.00
G01 X-8.9551 Y11.7841 F300.00
G01 X-13.2633 Y11.7841 F300.00
G01 X-15.0233 Y13.5441 F300.00
G01 X-14.9891 Y13.5606 F300.00
G01 X-14.9007 Y13.6136 F300.00
G01 X-14.8946 Y13.6178 F300.00
G01 X-14.8157 Y13.6763 F300.00
G01 X-14.8100 Y13.6809 F300.00
G01 X-14.7354 Y13.7484 F300.00
G01 X-14.7284 Y13.7554 F300.00
G01 X-14.6593 Y13.8319 F300.00
G01 X-14.5964 Y13.9166 F300.00
G01 X-14.5923 Y13.9227 F300.00
G01 X-14.5394 Y14.0112 F300.00
G01 X-14.4953 Y14.1044 F300.00
G01 X-14.4915 Y14.1134 F300.00
G01 X-14.4569 Y14.2105 F300.00
G01 X-14.4317 Y14.3105 F300.00
G01 X-14.4298 Y14.3201 F300.00
G01 X-14.4151 Y14.4197 F300.00
G01 X-14.4144 Y14.4270 F300.00
G01 X-14.4096 Y14.5251 F300.00
G01 X-14.4096 Y14.5349 F300.00
G01 X-14.4148 Y14.6379 F300.00
G01 X-14.4306 Y14.7447 F300.00
G01 X-14.4569 Y14.8495 F300.00
G01 X-14.4915 Y14.9466 F300.00
G01 X-14.4953 Y14.9556 F300.00
G01 X-14.5372 Y15.0444 F300.00
G01 X-14.5406 Y15.0509 F300.00
G01 X-14.5950 Y15.1414 F300.00
G01 X-14.6563 Y15.2243 F300.00
G01 X-14.6625 Y15.2319 F300.00
G01 X-14.7284 Y15.3046 F300.00
G01 X-14.7336 Y15.3099 F300.00
G01 X-14.8119 Y15.3807 F300.00
G01 X-14.8966 Y15.4436 F300.00
G01 X-14.9027 Y15.4477 F300.00
G01 X-14.9891 Y15.4994 F300.00
G01 X-15.0233 Y15.5159 F300.00
G01 X-14.9879 Y15.5514 F300.00
G01 X-14.9663 Y15.5753 F300.00
G01 X-14.9456 Y15.6033 F300.00
G01 X-14.9277 Y15.6331 F300.00
G01 X-14.9128 Y15.6645 F300.00
G01 X-14.9011 Y15.6972 F300.00
G01 X-14.8927 Y15.7309 F300.00
G01 X-14.8874 Y15.7677 F300.00
G01 X-14.8859 Y15.8000 F300.00
G01 X-14.8859 Y17.1144 F300.00
G01 X-14.8252 Y17.1504 F300.00
G01 X-14.8171 Y17.1559 F300.00
G01 X-14.7617 Y17.1972 F300.00
G01 X-14.7068 Y17.2468 F300.00
G01 X-14.6572 Y17.3017 F300.00
G01 X-14.6159 Y17.3571 F300.00
G01 X-14.6104 Y17.3652 F300.00
G01 X-14.5750 Y17.4246 F300.00
G01 X-14.5434 Y17.4915 F300.00
G01 X-14.5200 Y17.5565 F300.00
G01 X-14.5172 Y17.5659 F300.00
G01 X-14.5005 Y17.6329 F300.00
G01 X-14.4902 Y17.7012 F300.00
G01 X-14.4893 Y17.7110 F300.00
G01 X-14.4860 Y17.7800 F300.00
G01 X-14.4893 Y17.8490 F300.00
G01 X-14.4902 Y17.8588 F300.00
G01 X-14.5005 Y17.9271 F300.00
G01 X-14.5185 Y17.9989 F300.00
G01 X-14.5434 Y18.0685 F300.00
G01 X-14.5750 Y18.1354 F300.00
G01 X-14.6131 Y18.1989 F300.00
G01 X-14.6572 Y18.2583 F300.00
G01 X-14.7068 Y18.3132 F300.00
G01 X-14.7617 Y18.3628 F300.00
G01 X-14.8211 Y18.4069 F300.00
G01 X-14.8846 Y18.4450 F300.00
G01 X-14.9515 Y18.4766 F300.00
G01 X-15.0211 Y18.5015 F300.00
G01 X-15.0929 Y18.5195 F300.00
G01 X-15.1661 Y18.5304 F300.00
G01 X-15.2400 Y18.5340 F300.00
G01 X-15.3090 Y18.5307 F300.00
G01 X-15.3163 Y18.5301 F300.00
G01 X-15.3871 Y18.5195 F300.00
G01 X-15.4541 Y18.5028 F300.00
G01 X-15.4635 Y18.5000 F300.00
G01 X-15.5240 Y18.4784 F300.00
G01 X-15.5330 Y18.4746 F300.00
G01 X-15.5954 Y18.4450 F300.00
G01 X-15.6589 Y18.4069 F300.00
G01 X-15.7183 Y18.3628 F300.00
G01 X-15.7696 Y18.3165 F300.00
G01 X-15.7765 Y18.3096 F300.00
G01 X-15.8196 Y18.2620 F300.00
G01 X-15.8259 Y18.2545 F300.00
G01 X-15.8669 Y18.1989 F300.00
G01 X-15.9050 Y18.1354 F300.00
G01 X-15.9366 Y18.0685 F300.00
G01 X-15.9600 Y18.0035 F300.00
G01 X-15.9628 Y17.9941 F300.00
G01 X-15.9795 Y17.9271 F300.00
G01 X-15.9904 Y17.8539 F300.00
G01 X-15.9939 Y17.7849 F300.00
G01 X-15.9939 Y17.7751 F300.00
G01 X-15.9907 Y17.7110 F300.00
G01 X-15.9898 Y17.7012 F300.00
G01 X-15.9795 Y17.6329 F300.00
G01 X-15.9615 Y17.5611 F300.00
G01 X-15.9366 Y17.4915 F300.00
G01 X-15.9072 Y17.4290 F300.00
G01 X-15.9025 Y17.4203 F300.00
G01 X-15.8696 Y17.3652 F300.00
G01 X-15.8641 Y17.3571 F300.00
G01 X-15.8228 Y17.3017 F300.00
G01 X-15.7732 Y17.2468 F300.00
G01 X-15.7183 Y17.1972 F300.00
G01 X-15.6629 Y17.1559 F300.00
G01 X-15.6548 Y17.1504 F300.00
G01 X-15.5941 Y17.1144 F300.00
G01 X-15.5941 Y15.9467 F300.00
G01 X-15.9103 Y15.6305 F300.00
G01 X-17.5125 Y15.6305 F300.00
G01 X-17.6130 Y15.6256 F300.00
G01 X-17.6227 Y15.6246 F300.00
G01 X-17.7247 Y15.6094 F300.00
G01 X-17.8271 Y15.5838 F300.00
G01 X-17.8341 Y15.5816 F300.00
G01 X-17.9311 Y15.5467 F300.00
G01 X-18.0244 Y15.5028 F300.00
G01 X-18.0330 Y15.4981 F300.00
G01 X-18.1214 Y15.4450 F300.00
G01 X-18.2043 Y15.3837 F300.00
G01 X-18.2119 Y15.3775 F300.00
G01 X-18.2864 Y15.3099 F300.00
G01 X-18.2916 Y15.3046 F300.00
G01 X-18.3607 Y15.2281 F300.00
G01 X-18.4222 Y15.1454 F300.00
G01 X-18.4264 Y15.1393 F300.00
G01 X-18.4781 Y15.0530 F300.00
G01 X-18.4828 Y15.0444 F300.00
G01 X-18.5267 Y14.9511 F300.00
G01 X-18.5508 Y14.8841 F300.00
G01 X-22.3000 Y14.8841 F300.00
G01 X-22.3347 Y14.8824 F300.00
G01 X-22.3691 Y14.8773 F300.00
G01 X-22.4028 Y14.8689 F300.00
G01 X-22.4309 Y14.8589 F300.00
G01 X-22.4400 Y14.8552 F300.00
G01 X-22.4669 Y14.8423 F300.00
G01 X-22.4967 Y14.8244 F300.00
G01 X-22.5247 Y14.8037 F300.00
G01 X-22.5504 Y14.7804 F300.00
G01 X-24.9898 Y12.3410 F300.00
G00 Z0.5000
G00 X-25.1903 Y10.3759
G01 F60.00
G01 Z-0.2000
G01 F300.00
G01 X-25.6097 Y10.3759 F300.00
G01 X-25.9971 Y10.5364 F300.00
G01 X-26.2936 Y10.8329 F300.00
G01 X-26.4541 Y11.2203 F300.00
G01 X-26.4541 Y11.6397 F300.00
G01 X-26.2936 Y12.0271 F300.00
G01 X-25.9971 Y12.3236 F300.00
G01 X-25.6097 Y12.4841 F300.00
G01 X-25.1903 Y12.4841 F300.00
G01 X-25.1059 Y12.4492 F300.00
G01 X-25.0834 Y12.4424 F300.00
G01 X-25.0707 Y12.4396 F300.00
G01 X-25.0589 Y12.4386 F300.00
G01 X-25.0349 Y12.4381 F300.00
G01 X-25.0277 Y12.4382 F300.00
G01 X-25.0206 Y12.4388 F300.00
G01 X-25.0122 Y12.4401 F300.00
G01 X-25.0050 Y12.4418 F300.00
G01 X-24.9743 Y12.4515 F300.00
G01 X-24.9620 Y12.4569 F300.00
G01 X-24.9518 Y12.4630 F300.00
G01 X-24.9287 Y12.4798 F300.00
G01 X-24.9198 Y12.4874 F300.00
G01 X-24.5673 Y12.8399 F300.00
G01 X-24.5568 Y12.8517 F300.00
G01 X-24.5467 Y12.8653 F300.00
G01 X-24.5414 Y12.8739 F300.00
G01 X-24.5338 Y12.8885 F300.00
G01 X-24.5308 Y12.8952 F300.00
G01 X-24.5231 Y12.9181 F300.00
G01 X-24.5210 Y12.9274 F300.00
G01 X-24.5185 Y12.9431 F300.00
G01 X-24.5177 Y12.9503 F300.00
G01 X-24.5175 Y12.9575 F300.00
G01 X-24.5177 Y12.9730 F300.00
G01 X-24.5182 Y12.9803 F300.00
G01 X-24.5212 Y12.9989 F300.00
G01 X-24.5227 Y13.0059 F300.00
G01 X-24.5247 Y13.0128 F300.00
G01 X-24.5316 Y13.0321 F300.00
G01 X-24.5347 Y13.0388 F300.00
G01 X-24.5419 Y13.0523 F300.00
G01 X-24.5456 Y13.0584 F300.00
G01 X-24.5496 Y13.0642 F300.00
G01 X-24.5585 Y13.0758 F300.00
G01 X-24.5634 Y13.0815 F300.00
G01 X-24.5687 Y13.0869 F300.00
G01 X-24.5832 Y13.1001 F300.00
G01 X-24.6014 Y13.1128 F300.00
G01 X-24.6079 Y13.1167 F300.00
G01 X-24.6147 Y13.1201 F300.00
G01 X-24.6304 Y13.1272 F300.00
G01 X-24.6398 Y13.1304 F300.00
G01 X-24.6547 Y13.1345 F300.00
G01 X-24.6641 Y13.1364 F300.00
G01 X-24.6841 Y13.1385 F300.00
G01 X-24.6935 Y13.1388 F300.00
G01 X-24.7100 Y13.1380 F300.00
G01 X-24.7196 Y13.1370 F300.00
G01 X-24.7401 Y13.1325 F300.00
G01 X-24.7519 Y13.1288 F300.00
G01 X-24.7664 Y13.1229 F300.00
G01 X-24.7730 Y13.1199 F300.00
G01 X-24.7927 Y13.1082 F300.00
G01 X-24.8475 Y13.0684 F300.00
G01 X-24.9954 Y12.9932 F300.00
G01 X-25.1477 Y12.9436 F300.00
G01 X-25.1477 Y13.0034 F300.00
G01 X-25.1074 Y13.0138 F300.00
G01 X-25.0196 Y13.0452 F300.00
G01 X-25.0128 Y13.0481 F300.00
G01 X-24.9330 Y13.0859 F300.00
G01 X-24.9265 Y13.0893 F300.00
G01 X-24.8444 Y13.1385 F300.00
G01 X-24.7695 Y13.1940 F300.00
G01 X-24.7619 Y13.2002 F300.00
G01 X-24.6929 Y13.2629 F300.00
G01 X-24.6302 Y13.3319 F300.00
G01 X-24.6240 Y13.3395 F300.00
G01 X-24.5685 Y13.4144 F300.00
G01 X-24.5193 Y13.4965 F300.00
G01 X-24.5159 Y13.5030 F300.00
G01 X-24.4781 Y13.5828 F300.00
G01 X-24.4752 Y13.5896 F300.00
G01 X-24.4438 Y13.6774 F300.00
G01 X-24.4334 Y13.7177 F300.00
G01 X-24.3736 Y13.7177 F300.00
G01 X-24.4232 Y13.5654 F300.00
G01 X-24.4984 Y13.4175 F300.00
G01 X-24.5352 Y13.3670 F300.00
G01 X-24.5410 Y13.3585 F300.00
G01 X-24.5508 Y13.3408 F300.00
G01 X-24.5549 Y13.3321 F300.00
G01 X-24.5634 Y13.3070 F300.00
G01 X-24.5650 Y13.3001 F300.00
G01 X-24.5675 Y13.2849 F300.00
G01 X-24.5686 Y13.2722 F300.00
G01 X-24.5686 Y13.2546 F300.00
G01 X-24.5681 Y13.2470 F300.00
G01 X-24.5648 Y13.2260 F300.00
G01 X-24.5616 Y13.2137 F300.00
G01 X-24.5545 Y13.1937 F300.00
G01 X-24.5450 Y13.1751 F300.00
G01 X-24.5385 Y13.1647 F300.00
G01 X-24.5249 Y13.1470 F300.00
G01 X-24.5179 Y13.1397 F300.00
G01 X-24.5035 Y13.1265 F300.00
G01 X-24.4866 Y13.1146 F300.00
G01 X-24.4782 Y13.1094 F300.00
G01 X-24.4592 Y13.1004 F300.00
G01 X-24.4477 Y13.0962 F300.00
G01 X-24.4273 Y13.0908 F300.00
G01 X-24.4201 Y13.0896 F300.00
G01 X-24.4063 Y13.0880 F300.00
G01 X-24.3944 Y13.0874 F300.00
G01 X-24.3735 Y13.0884 F300.00
G01 X-24.3616 Y13.0902 F300.00
G01 X-24.3429 Y13.0946 F300.00
G01 X-24.3334 Y13.0978 F300.00
G01 X-24.3155 Y13.1052 F300.00
G01 X-24.3090 Y13.1086 F300.00
G01 X-24.2907 Y13.1198 F300.00
G01 X-24.2850 Y13.1242 F300.00
G01 X-24.2699 Y13.1372 F300.00
G01 X-22.4691 Y14.9381 F300.00
G01 X-18.7078 Y14.9381 F300.00
G01 X-18.6996 Y14.9384 F300.00
G01 X-18.6796 Y14.9405 F300.00
G01 X-18.6683 Y14.9425 F300.00
G01 X-18.6585 Y14.9454 F300.00
G01 X-18.6308 Y14.9563 F300.00
G01 X-18.6204 Y14.9613 F300.00
G01 X-18.6123 Y14.9662 F300.00
G01 X-18.6047 Y14.9719 F300.00
G01 X-18.5848 Y14.9887 F300.00
G01 X-18.5757 Y14.9978 F300.00
G01 X-18.5704 Y15.0040 F300.00
G01 X-18.5651 Y15.0117 F300.00
G01 X-18.5508 Y15.0352 F300.00
G01 X-18.5472 Y15.0421 F300.00
G01 X-18.4884 Y15.1838 F300.00
G01 X-18.1638 Y15.5084 F300.00
G01 X-17.7396 Y15.6841 F300.00
G01 X-16.0060 Y15.6841 F300.00
G01 X-15.9842 Y15.6855 F300.00
G01 X-15.9656 Y15.6887 F300.00
G01 X-15.9566 Y15.6914 F300.00
G01 X-15.9474 Y15.6950 F300.00
G01 X-15.9376 Y15.6981 F300.00
G01 X-15.9306 Y15.7010 F300.00
G01 X-15.9238 Y15.7044 F300.00
G01 X-15.9136 Y15.7102 F300.00
G01 X-15.9074 Y15.7145 F300.00
G01 X-15.8975 Y15.7225 F300.00
G01 X-15.8893 Y15.7287 F300.00
G01 X-15.8834 Y15.7339 F300.00
G01 X-15.6963 Y15.9211 F300.00
G01 X-15.6836 Y15.9360 F300.00
G01 X-15.6763 Y15.9463 F300.00
G01 X-15.6712 Y15.9550 F300.00
G01 X-15.6587 Y15.9816 F300.00
G01 X-15.6557 Y15.9906 F300.00
G01 X-15.6525 Y16.0031 F300.00
G01 X-15.6512 Y16.0103 F300.00
G01 X-15.6486 Y16.0317 F300.00
G01 X-15.6481 Y16.0420 F300.00
G01 X-15.6483 Y16.9789 F300.00
G01 X-15.6495 Y16.9941 F300.00
G01 X-15.6522 Y17.0104 F300.00
G01 X-15.6547 Y17.0195 F300.00
G01 X-15.6630 Y17.0430 F300.00
G01 X-15.6672 Y17.0523 F300.00
G01 X-15.6742 Y17.0647 F300.00
G01 X-15.6785 Y17.0709 F300.00
G01 X-15.6863 Y17.0806 F300.00
G01 X-15.6919 Y17.0882 F300.00
G01 X-15.6997 Y17.0969 F300.00
G01 X-15.9250 Y17.3222 F300.00
G01 X-16.0481 Y17.6193 F300.00
G01 X-16.0481 Y17.9407 F300.00
G01 X-15.9250 Y18.2378 F300.00
G01 X-15.6978 Y18.4650 F300.00
G01 X-15.4007 Y18.5881 F300.00
G01 X-15.0793 Y18.5881 F300.00
G01 X-14.7822 Y18.4650 F300.00
G01 X-14.5550 Y18.2378 F300.00
G01 X-14.4319 Y17.9407 F300.00
G01 X-14.4319 Y17.6193 F300.00
G01 X-14.5550 Y17.3222 F300.00
G01 X-14.7803 Y17.0969 F300.00
G01 X-14.7858 Y17.0909 F300.00
G01 X-14.7978 Y17.0765 F300.00
G01 X-14.8050 Y17.0659 F300.00
G01 X-14.8099 Y17.0571 F300.00
G01 X-14.8140 Y17.0479 F300.00
G01 X-14.8185 Y17.0392 F300.00
G01 X-14.8221 Y17.0304 F300.00
G01 X-14.8264 Y17.0160 F300.00
G01 X-14.8284 Y17.0064 F300.00
G01 X-14.8314 Y16.9826 F300.00
G01 X-14.8319 Y16.9723 F300.00
G01 X-14.8319 Y15.5590 F300.00
G01 X-14.8322 Y15.5490 F300.00
G01 X-14.8309 Y15.5345 F300.00
G01 X-14.8291 Y15.5244 F300.00
G01 X-14.8222 Y15.4992 F300.00
G01 X-14.8189 Y15.4896 F300.00
G01 X-14.8140 Y15.4790 F300.00
G01 X-14.8091 Y15.4704 F300.00
G01 X-14.7993 Y15.4553 F300.00
G01 X-14.7903 Y15.4432 F300.00
G01 X-14.7808 Y15.4330 F300.00
G01 X-14.5316 Y15.1838 F300.00
G01 X-14.3559 Y14.7596 F300.00
G01 X-14.3559 Y14.3004 F300.00
G01 X-14.5316 Y13.8762 F300.00
G01 X-14.7827 Y13.6250 F300.00
G01 X-14.7881 Y13.6188 F300.00
G01 X-14.8017 Y13.6016 F300.00
G01 X-14.8109 Y13.5869 F300.00
G01 X-14.8150 Y13.5782 F300.00
G01 X-14.8255 Y13.5513 F300.00
G01 X-14.8290 Y13.5369 F300.00
G01 X-14.8308 Y13.5246 F300.00
G01 X-14.8322 Y13.4989 F300.00
G01 X-14.8321 Y13.4914 F300.00
G01 X-14.8315 Y13.4840 F300.00
G01 X-14.8292 Y13.4700 F300.00
G01 X-14.8213 Y13.4413 F300.00
G01 X-14.8170 Y13.4303 F300.00
G01 X-14.8133 Y13.4227 F300.00
G01 X-14.8097 Y13.4163 F300.00
G01 X-14.7931 Y13.3918 F300.00
G01 X-14.7886 Y13.3862 F300.00
G01 X-14.7837 Y13.3809 F300.00
G01 X-13.2925 Y11.8897 F300.00
G01 X-13.2769 Y11.8759 F300.00
G01 X-13.2630 Y11.8659 F300.00
G01 X-13.2528 Y11.8601 F300.00
G01 X-13.2284 Y11.8487 F300.00
G01 X-13.2194 Y11.8457 F300.00
G01 X-13.2045 Y11.8420 F300.00
G01 X-13.1783 Y11.8386 F300.00
G01 X-13.1680 Y11.8381 F300.00
G01 X-9.1094 Y11.8381 F300.00
G01 X-9.1012 Y11.8384 F300.00
G01 X-9.0803 Y11.8406 F300.00
G01 X-9.0692 Y11.8427 F300.00
G01 X-9.0599 Y11.8455 F300.00
G01 X-9.0305 Y11.8571 F300.00
G01 X-9.0186 Y11.8634 F300.00
G01 X-9.0126 Y11.8672 F300.00
G01 X-9.0069 Y11.8715 F300.00
G01 X-8.9862 Y11.8890 F300.00
G01 X-8.9808 Y11.8941 F300.00
G01 X-8.9750 Y11.9004 F300.00
G01 X-8.9693 Y11.9078 F300.00
G01 X-8.9529 Y11.9344 F300.00
G01 X-8.9476 Y11.9447 F300.00
G01 X-8.9369 Y11.9705 F300.00
G01 X-8.6685 Y12.2389 F300.00
G01 X-8.3178 Y12.3842 F300.00
G01 X-7.9383 Y12.3842 F300.00
G01 X-7.9104 Y12.3727 F300.00
G01 X-7.8829 Y12.3647 F300.00
G01 X-7.8740 Y12.3631 F300.00
G01 X-7.8662 Y12.3623 F300.00
G01 X-7.8343 Y12.3617 F300.00
G01 X-7.8230 Y12.3626 F300.00
G01 X-7.8111 Y12.3648 F300.00
G01 X-7.7815 Y12.3741 F300.00
G01 X-7.7736 Y12.3771 F300.00
G01 X-7.7669 Y12.3802 F300.00
G01 X-7.7583 Y12.3851 F300.00
G01 X-7.7312 Y12.4048 F300.00
G01 X-7.7226 Y12.4125 F300.00
G01 X-5.5397 Y14.5955 F300.00
G01 X-5.5322 Y14.6036 F300.00
G01 X-5.5243 Y14.6131 F300.00
G01 X-5.5172 Y14.6231 F300.00
G01 X-5.5123 Y14.6311 F300.00
G01 X-5.4996 Y14.6574 F300.00
G01 X-5.4964 Y14.6664 F300.00
G01 X-5.4936 Y14.6763 F300.00
G01 X-5.4912 Y14.6883 F300.00
G01 X-5.4886 Y14.7097 F300.00
G01 X-5.4881 Y14.7200 F300.00
G01 X-5.4881 Y36.5880 F300.00
G01 X-5.4895 Y36.6098 F300.00
G01 X-5.4927 Y36.6284 F300.00
G01 X-5.4954 Y36.6374 F300.00
G01 X-5.4990 Y36.6466 F300.00
G01 X-5.5021 Y36.6564 F300.00
G01 X-5.5061 Y36.6657 F300.00
G01 X-5.5129 Y36.6782 F300.00
G01 X-5.5185 Y36.6866 F300.00
G01 X-5.5265 Y36.6965 F300.00
G01 X-5.5327 Y36.7047 F300.00
G01 X-5.5397 Y36.7125 F300.00
G01 X-7.7375 Y38.9103 F300.00
G01 X-7.7531 Y38.9241 F300.00
G01 X-7.7670 Y38.9341 F300.00
G01 X-7.7752 Y38.9388 F300.00
G01 X-7.7862 Y38.9439 F300.00
G01 X-7.7951 Y38.9485 F300.00
G01 X-7.8061 Y38.9529 F300.00
G01 X-7.8231 Y38.9575 F300.00
G01 X-7.8303 Y38.9588 F300.00
G01 X-7.8517 Y38.9614 F300.00
G01 X-7.8620 Y38.9619 F300.00
G01 X-8.4798 Y38.9619 F300.00
G01 X-8.4878 Y38.9616 F300.00
G01 X-8.5096 Y38.9592 F300.00
G01 X-8.5190 Y38.9575 F300.00
G01 X-8.5276 Y38.9553 F300.00
G01 X-8.5372 Y38.9520 F300.00
G01 X-8.5616 Y38.9415 F300.00
G01 X-8.5683 Y38.9381 F300.00
G01 X-8.5784 Y38.9318 F300.00
G01 X-8.5882 Y38.9243 F300.00
G01 X-8.5971 Y38.9159 F300.00
G01 X-8.6063 Y38.9080 F300.00
G01 X-8.6129 Y38.9011 F300.00
G01 X-8.6206 Y38.8915 F300.00
G01 X-8.6260 Y38.8834 F300.00
G01 X-8.6400 Y38.8586 F300.00
G01 X-8.6457 Y38.8450 F300.00
G01 X-8.6487 Y38.8354 F300.00
G01 X-8.6540 Y38.8084 F300.00
G01 X-8.6554 Y38.7987 F300.00
G01 X-8.6559 Y38.7858 F300.00
G01 X-8.6559 Y38.7562 F300.00
G01 X-8.7462 Y38.6659 F300.00
G01 X-9.8738 Y38.6659 F300.00
G01 X-9.9641 Y38.7562 F300.00
G01 X-9.9641 Y39.7940 F300.00
G01 X-9.9652 Y39.8134 F300.00
G01 X-9.9677 Y39.8297 F300.00
G01 X-9.9707 Y39.8412 F300.00
G01 X-9.9800 Y39.8671 F300.00
G01 X-9.9844 Y39.8762 F300.00
G01 X-9.9930 Y39.8905 F300.00
G01 X-10.0121 Y39.9148 F300.00
G01 X-10.0553 Y39.9581 F300.00
G01 X-10.0645 Y39.9667 F300.00
G01 X-10.0704 Y39.9716 F300.00
G01 X-10.0832 Y39.9808 F300.00
G01 X-10.0935 Y39.9869 F300.00
G01 X-10.1083 Y39.9944 F300.00
G01 X-10.1170 Y39.9982 F300.00
G01 X-10.1354 Y40.0041 F300.00
G01 X-10.1474 Y40.0066 F300.00
G01 X-10.1678 Y40.0093 F300.00
G01 X-10.1755 Y40.0096 F300.00
G01 X-10.1886 Y40.0095 F300.00
G01 X-10.2012 Y40.0084 F300.00
G01 X-10.2214 Y40.0047 F300.00
G01 X-10.2311 Y40.0021 F300.00
G01 X-10.2494 Y39.9955 F300.00
G01 X-10.2583 Y39.9911 F300.00
G01 X-10.2776 Y39.9801 F300.00
G01 X-10.2927 Y39.9687 F300.00
G01 X-10.3003 Y39.9621 F300.00
G01 X-10.3155 Y39.9456 F300.00
G01 X-10.3231 Y39.9358 F300.00
G01 X-10.3338 Y39.9190 F300.00
G01 X-10.3432 Y39.8989 F300.00
G01 X-10.3475 Y39.8875 F300.00
G01 X-10.3520 Y39.8704 F300.00
G01 X-10.3541 Y39.8581 F300.00
G01 X-10.3556 Y39.8413 F300.00
G01 X-10.3559 Y39.8336 F300.00
G01 X-10.3559 Y38.7562 F300.00
G01 X-10.4462 Y38.6659 F300.00
G01 X-11.0662 Y38.6659 F300.00
G01 X-11.0882 Y38.6642 F300.00
G01 X-11.0997 Y38.6623 F300.00
G01 X-11.1066 Y38.6607 F300.00
G01 X-11.1347 Y38.6510 F300.00
G01 X-11.1417 Y38.6479 F300.00
G01 X-11.1482 Y38.6444 F300.00
G01 X-12.2044 Y38.6444 F300.00
G01 X-12.2264 Y38.6427 F300.00
G01 X-12.2379 Y38.6408 F300.00
G01 X-12.2471 Y38.6385 F300.00
G01 X-12.2753 Y38.6285 F300.00
G01 X-12.2822 Y38.6253 F300.00
G01 X-12.2934 Y38.6190 F300.00
G01 X-13.7679 Y38.6190 F300.00
G01 X-13.7770 Y38.6220 F300.00
G01 X-13.7851 Y38.6252 F300.00
G01 X-13.7921 Y38.6273 F300.00
G01 X-13.8124 Y38.6312 F300.00
G01 X-13.8248 Y38.6323 F300.00
G01 X-13.8332 Y38.6321 F300.00
G01 X-13.8443 Y38.6325 F300.00
G01 X-13.8519 Y38.6320 F300.00
G01 X-13.8678 Y38.6298 F300.00
G01 X-13.8749 Y38.6283 F300.00
G01 X-13.8989 Y38.6209 F300.00
G01 X-13.9056 Y38.6183 F300.00
G01 X-13.9122 Y38.6152 F300.00
G01 X-13.9224 Y38.6099 F300.00
G01 X-13.9306 Y38.6049 F300.00
G01 X-13.9465 Y38.5933 F300.00
G01 X-13.9521 Y38.5889 F300.00
G01 X-13.9664 Y38.5747 F300.00
G01 X-13.9743 Y38.5650 F300.00
G01 X-13.9858 Y38.5485 F300.00
G01 X-13.9907 Y38.5403 F300.00
G01 X-13.9993 Y38.5220 F300.00
G01 X-14.0017 Y38.5150 F300.00
G01 X-14.0040 Y38.5065 F300.00
G01 X-14.0067 Y38.4980 F300.00
G01 X-14.0094 Y38.4856 F300.00
G01 X-14.0115 Y38.4676 F300.00
G01 X-14.0116 Y38.4580 F300.00
G01 X-14.0104 Y38.4341 F300.00
G01 X-14.0071 Y38.4163 F300.00
G01 X-14.0028 Y38.3997 F300.00
G01 X-14.0028 Y38.3396 F300.00
G01 X-14.0569 Y38.3396 F300.00
G01 X-14.0569 Y38.3819 F300.00
G01 X-14.0574 Y38.3892 F300.00
G01 X-14.0584 Y38.3965 F300.00
G01 X-14.0605 Y38.4061 F300.00
G01 X-14.0636 Y38.4154 F300.00
G01 X-14.0676 Y38.4244 F300.00
G01 X-14.0724 Y38.4329 F300.00
G01 X-14.0796 Y38.4428 F300.00
G01 X-14.0879 Y38.4518 F300.00
G01 X-14.0954 Y38.4582 F300.00
G01 X-14.1055 Y38.4652 F300.00
G01 X-14.1141 Y38.4698 F300.00
G01 X-14.1255 Y38.4744 F300.00
G01 X-14.1374 Y38.4775 F300.00
G01 X-14.1471 Y38.4789 F300.00
G01 X-14.1569 Y38.4794 F300.00
G01 X-15.4777 Y38.4794 F300.00
G01 X-15.4899 Y38.4786 F300.00
G01 X-15.5020 Y38.4764 F300.00
G01 X-15.5137 Y38.4727 F300.00
G01 X-15.5227 Y38.4687 F300.00
G01 X-15.5333 Y38.4625 F300.00
G01 X-15.5430 Y38.4551 F300.00
G01 X-15.5518 Y38.4466 F300.00
G01 X-15.5595 Y38.4370 F300.00
G01 X-15.5647 Y38.4287 F300.00
G01 X-15.5691 Y38.4199 F300.00
G01 X-15.5734 Y38.4084 F300.00
G01 X-15.5758 Y38.3989 F300.00
G01 X-15.5769 Y38.3916 F300.00
G01 X-15.5777 Y38.3819 F300.00
G01 X-15.5777 Y38.3396 F300.00
G01 X-15.6317 Y38.3396 F300.00
G01 X-15.6317 Y38.3996 F300.00
G01 X-15.6255 Y38.4227 F300.00
G01 X-15.6237 Y38.4308 F300.00
G01 X-15.6201 Y38.4553 F300.00
G01 X-15.6196 Y38.4628 F300.00
G01 X-15.6197 Y38.4703 F300.00
G01 X-15.6233 Y38.5020 F300.00
G01 X-15.6244 Y38.5087 F300.00
G01 X-15.6262 Y38.5163 F300.00
G01 X-15.6285 Y38.5234 F300.00
G01 X-15.6313 Y38.5304 F300.00
G01 X-15.6440 Y38.5573 F300.00
G01 X-15.6475 Y38.5634 F300.00
G01 X-15.6518 Y38.5699 F300.00
G01 X-15.6565 Y38.5760 F300.00
G01 X-15.6616 Y38.5817 F300.00
G01 X-15.6789 Y38.5996 F300.00
G01 X-15.6839 Y38.6042 F300.00
G01 X-15.6919 Y38.6106 F300.00
G01 X-15.6998 Y38.6157 F300.00
G01 X-15.7268 Y38.6300 F300.00
G01 X-15.7334 Y38.6330 F300.00
G01 X-15.7402 Y38.6355 F300.00
G01 X-15.7471 Y38.6375 F300.00
G01 X-15.7548 Y38.6392 F300.00
G01 X-15.7819 Y38.6434 F300.00
G01 X-15.7888 Y38.6442 F300.00
G01 X-18.9016 Y38.6444 F300.00
G01 X-20.7281 Y40.4709 F300.00
G01 X-20.7281 Y45.8891 F300.00
G01 X-18.5761 Y48.0410 F300.00
G01 X-18.5699 Y48.0477 F300.00
G01 X-18.5553 Y48.0660 F300.00
G01 X-18.5494 Y48.0752 F300.00
G01 X-18.5451 Y48.0838 F300.00
G01 X-18.5338 Y48.1099 F300.00
G01 X-18.5300 Y48.1219 F300.00
G01 X-18.5275 Y48.1349 F300.00
G01 X-18.5249 Y48.1639 F300.00
G01 X-18.5248 Y48.1740 F300.00
G01 X-18.5260 Y48.1873 F300.00
G01 X-18.5273 Y48.1942 F300.00
G01 X-18.5340 Y48.2216 F300.00
G01 X-18.5379 Y48.2330 F300.00
G01 X-18.6881 Y48.5954 F300.00
G01 X-18.6881 Y50.4646 F300.00
G01 X-18.5498 Y50.7984 F300.00
G01 X-18.2944 Y51.0538 F300.00
G01 X-17.9606 Y51.1921 F300.00
G01 X-17.5994 Y51.1921 F300.00
G01 X-17.2656 Y51.0538 F300.00
G01 X-17.0102 Y50.7984 F300.00
G01 X-16.8719 Y50.4646 F300.00
G01 X-16.8719 Y48.5954 F300.00
G01 X-17.0102 Y48.2616 F300.00
G01 X-17.2656 Y48.0062 F300.00
G01 X-17.5615 Y47.8836 F300.00
G01 X-17.5752 Y47.8769 F300.00
G01 X-17.5924 Y47.8665 F300.00
G01 X-17.6003 Y47.8605 F300.00
G01 X-17.6150 Y47.8479 F300.00
G01 X-19.8603 Y45.6025 F300.00
G01 X-19.8757 Y45.5849 F300.00
G01 X-19.8866 Y45.5690 F300.00
G01 X-19.8899 Y45.5628 F300.00
G01 X-19.9004 Y45.5406 F300.00
G01 X-19.9036 Y45.5316 F300.00
G01 X-19.9064 Y45.5217 F300.00
G01 X-19.9088 Y45.5097 F300.00
G01 X-19.9114 Y45.4883 F300.00
G01 X-19.9119 Y45.4780 F300.00
G01 X-19.9119 Y40.8820 F300.00
G01 X-19.9105 Y40.8602 F300.00
G01 X-19.9073 Y40.8416 F300.00
G01 X-19.9046 Y40.8326 F300.00
G01 X-19.9010 Y40.8234 F300.00
G01 X-19.8979 Y40.8136 F300.00
G01 X-19.8939 Y40.8043 F300.00
G01 X-19.8871 Y40.7918 F300.00
G01 X-19.8815 Y40.7834 F300.00
G01 X-19.8735 Y40.7735 F300.00
G01 X-19.8673 Y40.7653 F300.00
G01 X-19.8603 Y40.7575 F300.00
G01 X-18.6150 Y39.5122 F300.00
G01 X-18.5974 Y39.4968 F300.00
G01 X-18.5855 Y39.4884 F300.00
G01 X-18.5773 Y39.4837 F300.00
G01 X-18.5663 Y39.4786 F300.00
G01 X-18.5574 Y39.4740 F300.00
G01 X-18.5486 Y39.4704 F300.00
G01 X-18.5342 Y39.4661 F300.00
G01 X-18.5246 Y39.4641 F300.00
G01 X-18.5008 Y39.4611 F300.00
G01 X-18.4905 Y39.4606 F300.00
G01 X-13.8474 Y39.4606 F300.00
G01 X-13.8256 Y39.4620 F300.00
G01 X-13.8117 Y39.4642 F300.00
G01 X-13.8048 Y39.4658 F300.00
G01 X-13.7980 Y39.4679 F300.00
G01 X-13.7743 Y39.4765 F300.00
G01 X-13.7674 Y39.4797 F300.00
G01 X-13.7562 Y39.4860 F300.00
G01 X-12.2933 Y39.4860 F300.00
G01 X-12.2870 Y39.4826 F300.00
G01 X-12.2778 Y39.4785 F300.00
G01 X-12.2670 Y39.4731 F300.00
G01 X-12.2603 Y39.4704 F300.00
G01 X-12.2536 Y39.4682 F300.00
G01 X-12.2435 Y39.4655 F300.00
G01 X-12.2363 Y39.4641 F300.00
G01 X-12.2125 Y39.4611 F300.00
G01 X-12.2048 Y39.4606 F300.00
G01 X-11.8375 Y39.4606 F300.00
G01 X-11.8295 Y39.4612 F300.00
G01 X-11.8080 Y39.4636 F300.00
G01 X-11.8010 Y39.4650 F300.00
G01 X-11.7924 Y39.4672 F300.00
G01 X-11.7828 Y39.4705 F300.00
G01 X-11.7607 Y39.4799 F300.00
G01 X-11.7539 Y39.4832 F300.00
G01 X-11.7474 Y39.4870 F300.00
G01 X-11.7396 Y39.4921 F300.00
G01 X-11.7337 Y39.4966 F300.00
G01 X-11.7103 Y39.5179 F300.00
G01 X-11.7040 Y39.5251 F300.00
G01 X-11.6966 Y39.5350 F300.00
G01 X-11.6811 Y39.5618 F300.00
G01 X-11.6779 Y39.5683 F300.00
G01 X-11.6743 Y39.5775 F300.00
G01 X-11.6719 Y39.5847 F300.00
G01 X-11.6701 Y39.5920 F300.00
G01 X-11.6652 Y39.6189 F300.00
G01 X-11.6644 Y39.6262 F300.00
G01 X-11.6641 Y39.6342 F300.00
G01 X-11.6642 Y40.0612 F300.00
G01 X-11.6668 Y40.0856 F300.00
G01 X-11.6690 Y40.0973 F300.00
G01 X-11.6731 Y40.1109 F300.00
G01 X-11.6834 Y40.1353 F300.00
G01 X-11.6892 Y40.1465 F300.00
G01 X-11.6971 Y40.1584 F300.00
G01 X-11.7017 Y40.1642 F300.00
G01 X-11.7101 Y40.1731 F300.00
G01 X-11.7180 Y40.1823 F300.00
G01 X-11.7267 Y40.1905 F300.00
G01 X-11.7385 Y40.1994 F300.00
G01 X-11.7447 Y40.2033 F300.00
G01 X-11.7696 Y40.2171 F300.00
G01 X-11.7810 Y40.2217 F300.00
G01 X-11.7906 Y40.2247 F300.00
G01 X-11.7979 Y40.2264 F300.00
G01 X-11.8248 Y40.2311 F300.00
G01 X-11.8402 Y40.2319 F300.00
G01 X-17.9491 Y40.2319 F300.00
G01 X-19.4581 Y41.7409 F300.00
G01 X-19.4581 Y44.6191 F300.00
G01 X-16.0361 Y48.0410 F300.00
G01 X-16.0299 Y48.0477 F300.00
G01 X-16.0182 Y48.0621 F300.00
G01 X-16.0140 Y48.0680 F300.00
G01 X-16.0094 Y48.0752 F300.00
G01 X-16.0051 Y48.0838 F300.00
G01 X-15.9929 Y48.1123 F300.00
G01 X-15.9891 Y48.1255 F300.00
G01 X-15.9872 Y48.1373 F300.00
G01 X-15.9848 Y48.1664 F300.00
G01 X-15.9850 Y48.1790 F300.00
G01 X-15.9868 Y48.1919 F300.00
G01 X-15.9940 Y48.2216 F300.00
G01 X-15.9979 Y48.2330 F300.00
G01 X-16.1481 Y48.5954 F300.00
G01 X-16.1481 Y50.4646 F300.00
G01 X-16.0098 Y50.7984 F300.00
G01 X-15.7544 Y51.0538 F300.00
G01 X-15.4206 Y51.1921 F300.00
G01 X-15.0594 Y51.1921 F300.00
G01 X-14.7256 Y51.0538 F300.00
G01 X-14.4702 Y50.7984 F300.00
G01 X-14.3319 Y50.4646 F300.00
G01 X-14.3319 Y48.5954 F300.00
G01 X-14.4702 Y48.2616 F300.00
G01 X-14.7256 Y48.0062 F300.00
G01 X-15.0215 Y47.8836 F300.00
G01 X-15.0352 Y47.8769 F300.00
G01 X-15.0524 Y47.8665 F300.00
G01 X-15.0603 Y47.8605 F300.00
G01 X-15.0750 Y47.8479 F300.00
G01 X-18.5903 Y44.3325 F300.00
G01 X-18.6025 Y44.3189 F300.00
G01 X-18.6087 Y44.3108 F300.00
G01 X-18.6166 Y44.2990 F300.00
G01 X-18.6285 Y44.2749 F300.00
G01 X-18.6313 Y44.2684 F300.00
G01 X-18.6343 Y44.2594 F300.00
G01 X-18.6380 Y44.2445 F300.00
G01 X-18.6416 Y44.2157 F300.00
G01 X-18.6419 Y44.2080 F300.00
G01 X-18.6419 Y43.8861 F300.00
G01 X-18.6415 Y43.8735 F300.00
G01 X-18.6408 Y43.8664 F300.00
G01 X-18.6384 Y43.8509 F300.00
G01 X-18.6367 Y43.8437 F300.00
G01 X-18.6303 Y43.8237 F300.00
G01 X-18.6277 Y43.8170 F300.00
G01 X-18.6197 Y43.8006 F300.00
G01 X-18.6159 Y43.7939 F300.00
G01 X-18.6116 Y43.7876 F300.00
G01 X-18.6065 Y43.7811 F300.00
G01 X-18.6018 Y43.7744 F300.00
G01 X-18.5969 Y43.7685 F300.00
G01 X-18.5916 Y43.7630 F300.00
G01 X-18.5818 Y43.7535 F300.00
G01 X-18.5742 Y43.7474 F300.00
G01 X-18.5578 Y43.7360 F300.00
G01 X-18.5515 Y43.7322 F300.00
G01 X-18.5350 Y43.7242 F300.00
G01 X-18.5280 Y43.7213 F300.00
G01 X-18.5061 Y43.7148 F300.00
G01 X-18.4988 Y43.7131 F300.00
G01 X-18.4784 Y43.7104 F300.00
G01 X-18.4660 Y43.7101 F300.00
G01 X-18.4439 Y43.7113 F300.00
G01 X-18.4367 Y43.7124 F300.00
G01 X-18.4242 Y43.7151 F300.00
G01 X-18.4125 Y43.7183 F300.00
G01 X-18.3911 Y43.7266 F300.00
G01 X-18.3822 Y43.7311 F300.00
G01 X-18.3674 Y43.7400 F300.00
G01 X-18.3613 Y43.7444 F300.00
G01 X-18.3448 Y43.7581 F300.00
G01 X-18.2378 Y43.8650 F300.00
G01 X-17.9407 Y43.9881 F300.00
G01 X-17.6220 Y43.9881 F300.00
G01 X-17.6002 Y43.9895 F300.00
G01 X-17.5863 Y43.9917 F300.00
G01 X-17.5771 Y43.9940 F300.00
G01 X-17.5536 Y44.0021 F300.00
G01 X-17.5443 Y44.0061 F300.00
G01 X-17.5318 Y44.0129 F300.00
G01 X-17.5254 Y44.0170 F300.00
G01 X-17.5013 Y44.0361 F300.00
G01 X-12.3860 Y49.1514 F300.00
G01 X-12.3743 Y49.1651 F300.00
G01 X-12.3646 Y49.1790 F300.00
G01 X-12.3601 Y49.1872 F300.00
G01 X-12.3496 Y49.2094 F300.00
G01 X-12.3457 Y49.2206 F300.00
G01 X-12.3420 Y49.2355 F300.00
G01 X-12.3386 Y49.2617 F300.00
G01 X-12.3381 Y49.2694 F300.00
G01 X-12.3381 Y50.4646 F300.00
G01 X-12.1998 Y50.7984 F300.00
G01 X-11.9444 Y51.0538 F300.00
G01 X-11.6106 Y51.1921 F300.00
G01 X-11.2494 Y51.1921 F300.00
G01 X-10.9156 Y51.0538 F300.00
G01 X-10.6602 Y50.7984 F300.00
G01 X-10.5219 Y50.4646 F300.00
G01 X-10.5219 Y48.9004 F300.00
G01 X-10.5215 Y48.8885 F300.00
G01 X-10.5206 Y48.8790 F300.00
G01 X-10.5179 Y48.8628 F300.00
G01 X-10.5154 Y48.8533 F300.00
G01 X-10.5077 Y48.8313 F300.00
G01 X-10.4997 Y48.8149 F300.00
G01 X-10.4931 Y48.8040 F300.00
G01 X-10.4804 Y48.7869 F300.00
G01 X-10.4739 Y48.7796 F300.00
G01 X-10.4623 Y48.7684 F300.00
G01 X-10.4545 Y48.7619 F300.00
G01 X-10.4359 Y48.7491 F300.00
G01 X-10.4275 Y48.7444 F300.00
G01 X-10.4093 Y48.7361 F300.00
G01 X-10.3877 Y48.7295 F300.00
G01 X-10.3785 Y48.7273 F300.00
G01 X-10.3590 Y48.7248 F300.00
G01 X-10.3494 Y48.7244 F300.00
G01 X-10.3293 Y48.7252 F300.00
G01 X-10.3167 Y48.7268 F300.00
G01 X-10.2971 Y48.7312 F300.00
G01 X-10.2757 Y48.7390 F300.00
G01 X-10.2644 Y48.7442 F300.00
G01 X-10.2474 Y48.7543 F300.00
G01 X-10.2413 Y48.7587 F300.00
G01 X-10.2248 Y48.7724 F300.00
G01 X-9.8478 Y49.1494 F300.00
G01 X-9.8343 Y49.1651 F300.00
G01 X-9.8246 Y49.1790 F300.00
G01 X-9.8201 Y49.1872 F300.00
G01 X-9.8161 Y49.1962 F300.00
G01 X-9.8115 Y49.2051 F300.00
G01 X-9.8071 Y49.2161 F300.00
G01 X-9.8036 Y49.2283 F300.00
G01 X-9.8016 Y49.2379 F300.00
G01 X-9.7986 Y49.2617 F300.00
G01 X-9.7981 Y49.2720 F300.00
G01 X-9.7981 Y50.4646 F300.00
G01 X-9.6598 Y50.7984 F300.00
G01 X-9.4044 Y51.0538 F300.00
G01 X-9.0706 Y51.1921 F300.00
G01 X-8.7094 Y51.1921 F300.00
G01 X-8.3756 Y51.0538 F300.00
G01 X-8.1202 Y50.7984 F300.00
G01 X-7.9819 Y50.4646 F300.00
G01 X-7.9819 Y48.9004 F300.00
G01 X-7.9812 Y48.8837 F300.00
G01 X-7.9788 Y48.8676 F300.00
G01 X-7.9767 Y48.8580 F300.00
G01 X-7.9695 Y48.8357 F300.00
G01 X-7.9647 Y48.8247 F300.00
G01 X-7.9559 Y48.8082 F300.00
G01 X-7.9516 Y48.8019 F300.00
G01 X-7.9465 Y48.7954 F300.00
G01 X-7.9419 Y48.7889 F300.00
G01 X-7.9339 Y48.7796 F300.00
G01 X-7.9223 Y48.7684 F300.00
G01 X-7.9145 Y48.7619 F300.00
G01 X-7.8959 Y48.7491 F300.00
G01 X-7.8875 Y48.7444 F300.00
G01 X-7.8693 Y48.7361 F300.00
G01 X-7.8477 Y48.7295 F300.00
G01 X-7.8385 Y48.7273 F300.00
G01 X-7.8190 Y48.7248 F300.00
G01 X-7.8070 Y48.7244 F300.00
G01 X-7.7867 Y48.7254 F300.00
G01 X-7.7767 Y48.7268 F300.00
G01 X-7.7571 Y48.7312 F300.00
G01 X-7.7357 Y48.7390 F300.00
G01 X-7.7244 Y48.7442 F300.00
G01 X-7.7074 Y48.7543 F300.00
G01 X-7.7013 Y48.7587 F300.00
G01 X-7.6848 Y48.7724 F300.00
G01 X-7.3078 Y49.1494 F300.00
G01 X-7.2943 Y49.1651 F300.00
G01 X-7.2846 Y49.1790 F300.00
G01 X-7.2801 Y49.1872 F300.00
G01 X-7.2761 Y49.1962 F300.00
G01 X-7.2715 Y49.2051 F300.00
G01 X-7.2671 Y49.2161 F300.00
G01 X-7.2636 Y49.2283 F300.00
G01 X-7.2616 Y49.2379 F300.00
G01 X-7.2586 Y49.2617 F300.00
G01 X-7.2581 Y49.2720 F300.00
G01 X-7.2581 Y50.4646 F300.00
G01 X-7.1198 Y50.7984 F300.00
G01 X-6.8644 Y51.0538 F300.00
G01 X-6.5306 Y51.1921 F300.00
G01 X-6.1694 Y51.1921 F300.00
G01 X-5.8356 Y51.0538 F300.00
G01 X-5.5802 Y50.7984 F300.00
G01 X-5.4419 Y50.4646 F300.00
G01 X-5.4419 Y48.9004 F300.00
G01 X-5.4412 Y48.8837 F300.00
G01 X-5.4388 Y48.8676 F300.00
G01 X-5.4367 Y48.8580 F300.00
G01 X-5.4295 Y48.8357 F300.00
G01 X-5.4247 Y48.8247 F300.00
G01 X-5.4159 Y48.8082 F300.00
G01 X-5.4116 Y48.8019 F300.00
G01 X-5.4065 Y48.7954 F300.00
G01 X-5.4019 Y48.7889 F300.00
G01 X-5.3939 Y48.7796 F300.00
G01 X-5.3823 Y48.7684 F300.00
G01 X-5.3745 Y48.7619 F300.00
G01 X-5.3559 Y48.7491 F300.00
G01 X-5.3475 Y48.7444 F300.00
G01 X-5.3293 Y48.7361 F300.00
G01 X-5.3077 Y48.7295 F300.00
G01 X-5.2985 Y48.7273 F300.00
G01 X-5.2790 Y48.7248 F300.00
G01 X-5.2694 Y48.7244 F300.00
G01 X-5.2493 Y48.7252 F300.00
G01 X-5.2367 Y48.7268 F300.00
G01 X-5.2171 Y48.7312 F300.00
G01 X-5.1957 Y48.7390 F300.00
G01 X-5.1844 Y48.7442 F300.00
G01 X-5.1674 Y48.7543 F300.00
G01 X-5.1613 Y48.7587 F300.00
G01 X-5.1448 Y48.7724 F300.00
G01 X-4.7678 Y49.1494 F300.00
G01 X-4.7543 Y49.1651 F300.00
G01 X-4.7446 Y49.1790 F300.00
G01 X-4.7401 Y49.1872 F300.00
G01 X-4.7361 Y49.1962 F300.00
G01 X-4.7315 Y49.2051 F300.00
G01 X-4.7271 Y49.2161 F300.00
G01 X-4.7236 Y49.2283 F300.00
G01 X-4.7216 Y49.2379 F300.00
G01 X-4.7186 Y49.2617 F300.00
G01 X-4.7181 Y49.2720 F300.00
G01 X-4.7181 Y50.4646 F300.00
G01 X-4.5798 Y50.7984 F300.00
G01 X-4.3244 Y51.0538 F300.00
G01 X-3.9906 Y51.1921 F300.00
G01 X-3.6294 Y51.1921 F300.00
G01 X-3.2956 Y51.0538 F300.00
G01 X-3.0402 Y50.7984 F300.00
G01 X-2.9019 Y50.4646 F300.00
G01 X-2.9019 Y48.5954 F300.00
G01 X-3.0402 Y48.2616 F300.00
G01 X-3.2956 Y48.0062 F300.00
G01 X-3.6294 Y47.8679 F300.00
G01 X-3.9906 Y47.8679 F300.00
G01 X-4.3244 Y48.0062 F300.00
G01 X-4.4160 Y48.0978 F300.00
G01 X-4.4242 Y48.1051 F300.00
G01 X-4.4414 Y48.1187 F300.00
G01 X-4.4533 Y48.1263 F300.00
G01 X-4.4642 Y48.1317 F300.00
G01 X-4.4882 Y48.1412 F300.00
G01 X-4.4976 Y48.1440 F300.00
G01 X-4.5059 Y48.1459 F300.00
G01 X-4.5134 Y48.1472 F300.00
G01 X-4.5209 Y48.1479 F300.00
G01 X-4.5488 Y48.1491 F300.00
G01 X-4.5610 Y48.1482 F300.00
G01 X-4.5710 Y48.1467 F300.00
G01 X-4.6023 Y48.1380 F300.00
G01 X-4.6095 Y48.1353 F300.00
G01 X-4.6180 Y48.1314 F300.00
G01 X-4.6244 Y48.1280 F300.00
G01 X-4.6305 Y48.1242 F300.00
G01 X-4.6496 Y48.1112 F300.00
G01 X-4.6570 Y48.1054 F300.00
G01 X-4.6651 Y48.0978 F300.00
G01 X-9.3040 Y43.4586 F300.00
G01 X-9.3157 Y43.4449 F300.00
G01 X-9.3241 Y43.4330 F300.00
G01 X-9.3288 Y43.4248 F300.00
G01 X-9.3394 Y43.4028 F300.00
G01 X-9.3436 Y43.3916 F300.00
G01 X-9.3475 Y43.3769 F300.00
G01 X-9.3488 Y43.3697 F300.00
G01 X-9.3514 Y43.3483 F300.00
G01 X-9.3519 Y43.3380 F300.00
G01 X-9.3519 Y43.0193 F300.00
G01 X-9.4750 Y42.7222 F300.00
G01 X-9.7022 Y42.4950 F300.00
G01 X-9.9993 Y42.3719 F300.00
G01 X-10.3207 Y42.3719 F300.00
G01 X-10.6178 Y42.4950 F300.00
G01 X-10.8450 Y42.7222 F300.00
G01 X-10.9681 Y43.0193 F300.00
G01 X-10.9681 Y43.3407 F300.00
G01 X-10.8450 Y43.6378 F300.00
G01 X-10.6178 Y43.8650 F300.00
G01 X-10.3207 Y43.9881 F300.00
G01 X-10.0020 Y43.9881 F300.00
G01 X-9.9802 Y43.9895 F300.00
G01 X-9.9663 Y43.9917 F300.00
G01 X-9.9571 Y43.9940 F300.00
G01 X-9.9336 Y44.0021 F300.00
G01 X-9.9243 Y44.0061 F300.00
G01 X-9.9118 Y44.0129 F300.00
G01 X-9.9054 Y44.0170 F300.00
G01 X-9.8853 Y44.0327 F300.00
G01 X-9.8794 Y44.0379 F300.00
G01 X-6.3464 Y47.5708 F300.00
G01 X-6.3364 Y47.5824 F300.00
G01 X-6.3246 Y47.5992 F300.00
G01 X-6.3136 Y47.6203 F300.00
G01 X-6.3107 Y47.6268 F300.00
G01 X-6.3083 Y47.6335 F300.00
G01 X-6.3046 Y47.6451 F300.00
G01 X-6.3027 Y47.6522 F300.00
G01 X-6.2990 Y47.6773 F300.00
G01 X-6.2984 Y47.6849 F300.00
G01 X-6.2985 Y47.7006 F300.00
G01 X-6.2996 Y47.7132 F300.00
G01 X-6.3039 Y47.7358 F300.00
G01 X-6.3059 Y47.7431 F300.00
G01 X-6.3107 Y47.7568 F300.00
G01 X-6.3157 Y47.7681 F300.00
G01 X-6.3279 Y47.7896 F300.00
G01 X-6.3405 Y47.8063 F300.00
G01 X-6.3487 Y47.8151 F300.00
G01 X-6.3668 Y47.8312 F300.00
G01 X-6.3847 Y47.8433 F300.00
G01 X-6.3956 Y47.8491 F300.00
G01 X-6.4159 Y47.8580 F300.00
G01 X-6.4251 Y47.8608 F300.00
G01 X-6.4424 Y47.8650 F300.00
G01 X-6.4499 Y47.8661 F300.00
G01 X-6.4718 Y47.8679 F300.00
G01 X-6.5306 Y47.8679 F300.00
G01 X-6.8644 Y48.0062 F300.00
G01 X-6.9560 Y48.0978 F300.00
G01 X-6.9642 Y48.1051 F300.00
G01 X-6.9814 Y48.1187 F300.00
G01 X-6.9955 Y48.1275 F300.00
G01 X-7.0042 Y48.1317 F300.00
G01 X-7.0306 Y48.1420 F300.00
G01 X-7.0376 Y48.1440 F300.00
G01 X-7.0484 Y48.1464 F300.00
G01 X-7.0609 Y48.1479 F300.00
G01 X-7.0888 Y48.1491 F300.00
G01 X-7.1010 Y48.1482 F300.00
G01 X-7.1110 Y48.1467 F300.00
G01 X-7.1399 Y48.1388 F300.00
G01 X-7.1471 Y48.1363 F300.00
G01 X-7.1541 Y48.1332 F300.00
G01 X-7.1623 Y48.1292 F300.00
G01 X-7.1685 Y48.1255 F300.00
G01 X-7.1934 Y48.1084 F300.00
G01 X-7.2051 Y48.0978 F300.00
G01 X-11.8440 Y43.4586 F300.00
G01 X-11.8557 Y43.4449 F300.00
G01 X-11.8641 Y43.4330 F300.00
G01 X-11.8688 Y43.4248 F300.00
G01 X-11.8794 Y43.4028 F300.00
G01 X-11.8836 Y43.3916 F300.00
G01 X-11.8875 Y43.3769 F300.00
G01 X-11.8888 Y43.3697 F300.00
G01 X-11.8914 Y43.3483 F300.00
G01 X-11.8919 Y43.3380 F300.00
G01 X-11.8919 Y43.0193 F300.00
G01 X-12.0150 Y42.7222 F300.00
G01 X-12.2422 Y42.4950 F300.00
G01 X-12.5393 Y42.3719 F300.00
G01 X-12.8607 Y42.3719 F300.00
G01 X-13.1578 Y42.4950 F300.00
G01 X-13.3850 Y42.7222 F300.00
G01 X-13.5081 Y43.0193 F300.00
G01 X-13.5081 Y43.3407 F300.00
G01 X-13.3850 Y43.6378 F300.00
G01 X-13.1578 Y43.8650 F300.00
G01 X-12.8607 Y43.9881 F300.00
G01 X-12.5420 Y43.9881 F300.00
G01 X-12.5202 Y43.9895 F300.00
G01 X-12.5063 Y43.9917 F300.00
G01 X-12.4971 Y43.9940 F300.00
G01 X-12.4736 Y44.0021 F300.00
G01 X-12.4666 Y44.0050 F300.00
G01 X-12.4598 Y44.0084 F300.00
G01 X-12.4475 Y44.0156 F300.00
G01 X-12.4413 Y44.0200 F300.00
G01 X-12.4335 Y44.0265 F300.00
G01 X-12.4233 Y44.0343 F300.00
G01 X-12.4175 Y44.0397 F300.00
G01 X-8.8898 Y47.5673 F300.00
G01 X-8.8780 Y47.5804 F300.00
G01 X-8.8686 Y47.5932 F300.00
G01 X-8.8646 Y47.5992 F300.00
G01 X-8.8546 Y47.6182 F300.00
G01 X-8.8507 Y47.6268 F300.00
G01 X-8.8439 Y47.6474 F300.00
G01 X-8.8414 Y47.6594 F300.00
G01 X-8.8387 Y47.6798 F300.00
G01 X-8.8384 Y47.6875 F300.00
G01 X-8.8385 Y47.7006 F300.00
G01 X-8.8396 Y47.7132 F300.00
G01 X-8.8439 Y47.7358 F300.00
G01 X-8.8467 Y47.7454 F300.00
G01 X-8.8507 Y47.7568 F300.00
G01 X-8.8535 Y47.7636 F300.00
G01 X-8.8640 Y47.7832 F300.00
G01 X-8.8708 Y47.7938 F300.00
G01 X-8.8821 Y47.8081 F300.00
G01 X-8.8905 Y47.8168 F300.00
G01 X-8.9068 Y47.8312 F300.00
G01 X-8.9247 Y47.8433 F300.00
G01 X-8.9356 Y47.8491 F300.00
G01 X-8.9559 Y47.8580 F300.00
G01 X-8.9651 Y47.8608 F300.00
G01 X-8.9824 Y47.8650 F300.00
G01 X-8.9899 Y47.8661 F300.00
G01 X-9.0118 Y47.8679 F300.00
G01 X-9.0706 Y47.8679 F300.00
G01 X-9.4044 Y48.0062 F300.00
G01 X-9.4960 Y48.0978 F300.00
G01 X-9.5042 Y48.1051 F300.00
G01 X-9.5214 Y48.1187 F300.00
G01 X-9.5333 Y48.1263 F300.00
G01 X-9.5442 Y48.1317 F300.00
G01 X-9.5682 Y48.1412 F300.00
G01 X-9.5800 Y48.1446 F300.00
G01 X-9.5884 Y48.1464 F300.00
G01 X-9.5959 Y48.1475 F300.00
G01 X-9.6240 Y48.1491 F300.00
G01 X-9.6360 Y48.1487 F300.00
G01 X-9.6460 Y48.1475 F300.00
G01 X-9.6535 Y48.1461 F300.00
G01 X-9.6799 Y48.1388 F300.00
G01 X-9.6918 Y48.1343 F300.00
G01 X-9.7044 Y48.1280 F300.00
G01 X-9.7315 Y48.1098 F300.00
G01 X-9.7370 Y48.1054 F300.00
G01 X-9.7451 Y48.0978 F300.00
G01 X-14.3840 Y43.4586 F300.00
G01 X-14.3957 Y43.4449 F300.00
G01 X-14.4041 Y43.4330 F300.00
G01 X-14.4088 Y43.4248 F300.00
G01 X-14.4194 Y43.4028 F300.00
G01 X-14.4236 Y43.3916 F300.00
G01 X-14.4275 Y43.3769 F300.00
G01 X-14.4288 Y43.3697 F300.00
G01 X-14.4314 Y43.3483 F300.00
G01 X-14.4319 Y43.3380 F300.00
G01 X-14.4319 Y43.0193 F300.00
G01 X-14.5550 Y42.7222 F300.00
G01 X-14.7822 Y42.4950 F300.00
G01 X-15.0793 Y42.3719 F300.00
G01 X-15.4007 Y42.3719 F300.00
G01 X-15.6978 Y42.4950 F300.00
G01 X-15.9250 Y42.7222 F300.00
G01 X-16.0481 Y43.0193 F300.00
G01 X-16.0481 Y43.3407 F300.00
G01 X-15.9250 Y43.6378 F300.00
G01 X-15.6978 Y43.8650 F300.00
G01 X-15.4007 Y43.9881 F300.00
G01 X-15.0820 Y43.9881 F300.00
G01 X-15.0602 Y43.9895 F300.00
G01 X-15.0463 Y43.9917 F300.00
G01 X-15.0371 Y43.9940 F300.00
G01 X-15.0136 Y44.0021 F300.00
G01 X-15.0066 Y44.0050 F300.00
G01 X-14.9998 Y44.0084 F300.00
G01 X-14.9875 Y44.0156 F300.00
G01 X-14.9813 Y44.0200 F300.00
G01 X-14.9735 Y44.0265 F300.00
G01 X-14.9633 Y44.0343 F300.00
G01 X-14.9575 Y44.0397 F300.00
G01 X-11.4298 Y47.5673 F300.00
G01 X-11.4180 Y47.5804 F300.00
G01 X-11.4086 Y47.5932 F300.00
G01 X-11.4046 Y47.5992 F300.00
G01 X-11.3946 Y47.6182 F300.00
G01 X-11.3907 Y47.6268 F300.00
G01 X-11.3839 Y47.6474 F300.00
G01 X-11.3814 Y47.6594 F300.00
G01 X-11.3787 Y47.6798 F300.00
G01 X-11.3784 Y47.6875 F300.00
G01 X-11.3785 Y47.7006 F300.00
G01 X-11.3796 Y47.7132 F300.00
G01 X-11.3839 Y47.7358 F300.00
G01 X-11.3867 Y47.7454 F300.00
G01 X-11.3907 Y47.7568 F300.00
G01 X-11.3935 Y47.7636 F300.00
G01 X-11.4040 Y47.7832 F300.00
G01 X-11.4108 Y47.7938 F300.00
G01 X-11.4221 Y47.8081 F300.00
G01 X-11.4305 Y47.8168 F300.00
G01 X-11.4468 Y47.8312 F300.00
G01 X-11.4626 Y47.8420 F300.00
G01 X-11.4734 Y47.8481 F300.00
G01 X-11.4936 Y47.8571 F300.00
G01 X-11.5028 Y47.8602 F300.00
G01 X-11.5224 Y47.8650 F300.00
G01 X-11.5299 Y47.8661 F300.00
G01 X-11.5518 Y47.8679 F300.00
G01 X-11.6106 Y47.8679 F300.00
G01 X-11.9444 Y48.0062 F300.00
G01 X-12.0360 Y48.0978 F300.00
G01 X-12.0420 Y48.1034 F300.00
G01 X-12.0614 Y48.1187 F300.00
G01 X-12.0733 Y48.1263 F300.00
G01 X-12.0842 Y48.1317 F300.00
G01 X-12.1060 Y48.1403 F300.00
G01 X-12.1176 Y48.1440 F300.00
G01 X-12.1334 Y48.1472 F300.00
G01 X-12.1616 Y48.1490 F300.00
G01 X-12.1712 Y48.1490 F300.00
G01 X-12.1835 Y48.1479 F300.00
G01 X-12.1935 Y48.1461 F300.00
G01 X-12.2199 Y48.1388 F300.00
G01 X-12.2318 Y48.1343 F300.00
G01 X-12.2401 Y48.1303 F300.00
G01 X-12.2465 Y48.1268 F300.00
G01 X-12.2676 Y48.1126 F300.00
G01 X-12.2752 Y48.1069 F300.00
G01 X-12.2851 Y48.0978 F300.00
G01 X-16.9240 Y43.4586 F300.00
G01 X-16.9357 Y43.4449 F300.00
G01 X-16.9441 Y43.4330 F300.00
G01 X-16.9488 Y43.4248 F300.00
G01 X-16.9594 Y43.4028 F300.00
G01 X-16.9636 Y43.3916 F300.00
G01 X-16.9675 Y43.3769 F300.00
G01 X-16.9688 Y43.3697 F300.00
G01 X-16.9714 Y43.3483 F300.00
G01 X-16.9719 Y43.3380 F300.00
G01 X-16.9719 Y43.0193 F300.00
G01 X-17.0950 Y42.7222 F300.00
G01 X-17.3222 Y42.4950 F300.00
G01 X-17.6193 Y42.3719 F300.00
G01 X-17.9407 Y42.3719 F300.00
G01 X-18.2378 Y42.4950 F300.00
G01 X-18.3430 Y42.6002 F300.00
G01 X-18.3544 Y42.6103 F300.00
G01 X-18.3694 Y42.6213 F300.00
G01 X-18.3781 Y42.6265 F300.00
G01 X-18.3957 Y42.6354 F300.00
G01 X-18.4048 Y42.6391 F300.00
G01 X-18.4191 Y42.6437 F300.00
G01 X-18.4286 Y42.6461 F300.00
G01 X-18.4470 Y42.6489 F300.00
G01 X-18.4543 Y42.6497 F300.00
G01 X-18.4639 Y42.6500 F300.00
G01 X-18.4822 Y42.6493 F300.00
G01 X-18.5045 Y42.6455 F300.00
G01 X-18.5160 Y42.6427 F300.00
G01 X-18.5328 Y42.6368 F300.00
G01 X-18.5441 Y42.6315 F300.00
G01 X-18.5636 Y42.6204 F300.00
G01 X-18.5803 Y42.6078 F300.00
G01 X-18.5874 Y42.6013 F300.00
G01 X-18.6022 Y42.5851 F300.00
G01 X-18.6094 Y42.5757 F300.00
G01 X-18.6198 Y42.5593 F300.00
G01 X-18.6292 Y42.5392 F300.00
G01 X-18.6335 Y42.5278 F300.00
G01 X-18.6386 Y42.5083 F300.00
G01 X-18.6401 Y42.4984 F300.00
G01 X-18.6419 Y42.4765 F300.00
G01 X-18.6419 Y42.1520 F300.00
G01 X-18.6410 Y42.1350 F300.00
G01 X-18.6399 Y42.1254 F300.00
G01 X-18.6373 Y42.1116 F300.00
G01 X-18.6346 Y42.1026 F300.00
G01 X-18.6310 Y42.0934 F300.00
G01 X-18.6279 Y42.0836 F300.00
G01 X-18.6250 Y42.0766 F300.00
G01 X-18.6216 Y42.0698 F300.00
G01 X-18.6158 Y42.0596 F300.00
G01 X-18.6115 Y42.0534 F300.00
G01 X-18.6035 Y42.0435 F300.00
G01 X-18.5973 Y42.0353 F300.00
G01 X-18.5903 Y42.0275 F300.00
G01 X-17.6606 Y41.0978 F300.00
G01 X-17.6489 Y41.0875 F300.00
