(G-CODE GENERATED BY FLATCAM v8.994 - www.flatcam.org - Version Date: 2020/11/7)

(Name: drills.xln_mill_drills_cnc)
(Type: G-code from Geometry)
(Units: MM)

(Created on Saturday, 14 November 2020 at 13:47)

(This preprocessor is used with a motion controller loaded with GRBL firmware.)
(It is configured to be compatible with almost any version of GRBL firmware.)

(TOOL DIAMETER: 0.8 mm)
(Feedrate_XY: 300.0 mm/min)
(Feedrate_Z: 60.0 mm/min)
(Feedrate rapids 1500.0 mm/min)

(Z_Cut: -2.0 mm)
(DepthPerCut: 1.0 mm <=>2 passes)
(Z_Move: 0.5 mm)
(Z Start: None mm)
(Z End: 15.0 mm)
(X,Y End: 0.0000, 0.0000 mm)
(Steps per circle: 64)
(Steps per circle: 64)
(Preprocessor Geometry: GRBL_11_no_M6)

(X range:  -51.9000 ...   -2.7100  mm)
(Y range:    2.7100 ...   53.1700  mm)

(Spindle Speed: None RPM)
G21
G90
G17
G94


G01 F300.00
G00 Z0.5000

M03
G00 X-2.7100 Y3.8100
G01 F60.00
G01 Z-1.0000
G01 F300.00
G01 X-2.7153 Y3.7022 F300.00
G01 X-2.7311 Y3.5954 F300.00
G01 X-2.7574 Y3.4907 F300.00
G01 X-2.7937 Y3.3890 F300.00
G01 X-2.8399 Y3.2915 F300.00
G01 X-2.8954 Y3.1989 F300.00
G01 X-2.9597 Y3.1122 F300.00
G01 X-3.0322 Y3.0322 F300.00
G01 X-3.1122 Y2.9597 F300.00
G01 X-3.1989 Y2.8954 F300.00
G01 X-3.2915 Y2.8399 F300.00
G01 X-3.3890 Y2.7937 F300.00
G01 X-3.4907 Y2.7574 F300.00
G01 X-3.5954 Y2.7311 F300.00
G01 X-3.7022 Y2.7153 F300.00
G01 X-3.8100 Y2.7100 F300.00
G01 X-3.9178 Y2.7153 F300.00
G01 X-4.0246 Y2.7311 F300.00
G01 X-4.1293 Y2.7574 F300.00
G01 X-4.2310 Y2.7937 F300.00
G01 X-4.3285 Y2.8399 F300.00
G01 X-4.4211 Y2.8954 F300.00
G01 X-4.5078 Y2.9597 F300.00
G01 X-4.5878 Y3.0322 F300.00
G01 X-4.6603 Y3.1122 F300.00
G01 X-4.7246 Y3.1989 F300.00
G01 X-4.7801 Y3.2915 F300.00
G01 X-4.8263 Y3.3890 F300.00
G01 X-4.8626 Y3.4907 F300.00
G01 X-4.8889 Y3.5954 F300.00
G01 X-4.9047 Y3.7022 F300.00
G01 X-4.9100 Y3.8100 F300.00
G01 X-4.9047 Y3.9178 F300.00
G01 X-4.8889 Y4.0246 F300.00
G01 X-4.8626 Y4.1293 F300.00
G01 X-4.8263 Y4.2310 F300.00
G01 X-4.7801 Y4.3285 F300.00
G01 X-4.7246 Y4.4211 F300.00
G01 X-4.6603 Y4.5078 F300.00
G01 X-4.5878 Y4.5878 F300.00
G01 X-4.5078 Y4.6603 F300.00
G01 X-4.4211 Y4.7246 F300.00
G01 X-4.3285 Y4.7801 F300.00
G01 X-4.2310 Y4.8263 F300.00
G01 X-4.1293 Y4.8626 F300.00
G01 X-4.0246 Y4.8889 F300.00
G01 X-3.9178 Y4.9047 F300.00
G01 X-3.8100 Y4.9100 F300.00
G01 X-3.7022 Y4.9047 F300.00
G01 X-3.5954 Y4.8889 F300.00
G01 X-3.4907 Y4.8626 F300.00
G01 X-3.3890 Y4.8263 F300.00
G01 X-3.2915 Y4.7801 F300.00
G01 X-3.1989 Y4.7246 F300.00
G01 X-3.1122 Y4.6603 F300.00
G01 X-3.0322 Y4.5878 F300.00
G01 X-2.9597 Y4.5078 F300.00
G01 X-2.8954 Y4.4211 F300.00
G01 X-2.8399 Y4.3285 F300.00
G01 X-2.7937 Y4.2310 F300.00
G01 X-2.7574 Y4.1293 F300.00
G01 X-2.7311 Y4.0246 F300.00
G01 X-2.7153 Y3.9178 F300.00
G01 X-2.7100 Y3.8100 F300.00
G00 X-2.7100 Y3.8100
G01 F60.00
G01 Z-2.0000
G01 F300.00
G01 X-2.7153 Y3.7022 F300.00
G01 X-2.7311 Y3.5954 F300.00
G01 X-2.7574 Y3.4907 F300.00
G01 X-2.7937 Y3.3890 F300.00
G01 X-2.8399 Y3.2915 F300.00
G01 X-2.8954 Y3.1989 F300.00
G01 X-2.9597 Y3.1122 F300.00
G01 X-3.0322 Y3.0322 F300.00
G01 X-3.1122 Y2.9597 F300.00
G01 X-3.1989 Y2.8954 F300.00
G01 X-3.2915 Y2.8399 F300.00
G01 X-3.3890 Y2.7937 F300.00
G01 X-3.4907 Y2.7574 F300.00
G01 X-3.5954 Y2.7311 F300.00
G01 X-3.7022 Y2.7153 F300.00
G01 X-3.8100 Y2.7100 F300.00
G01 X-3.9178 Y2.7153 F300.00
G01 X-4.0246 Y2.7311 F300.00
G01 X-4.1293 Y2.7574 F300.00
G01 X-4.2310 Y2.7937 F300.00
G01 X-4.3285 Y2.8399 F300.00
G01 X-4.4211 Y2.8954 F300.00
G01 X-4.5078 Y2.9597 F300.00
G01 X-4.5878 Y3.0322 F300.00
G01 X-4.6603 Y3.1122 F300.00
G01 X-4.7246 Y3.1989 F300.00
G01 X-4.7801 Y3.2915 F300.00
G01 X-4.8263 Y3.3890 F300.00
G01 X-4.8626 Y3.4907 F300.00
G01 X-4.8889 Y3.5954 F300.00
G01 X-4.9047 Y3.7022 F300.00
G01 X-4.9100 Y3.8100 F300.00
G01 X-4.9047 Y3.9178 F300.00
G01 X-4.8889 Y4.0246 F300.00
G01 X-4.8626 Y4.1293 F300.00
G01 X-4.8263 Y4.2310 F300.00
G01 X-4.7801 Y4.3285 F300.00
G01 X-4.7246 Y4.4211 F300.00
G01 X-4.6603 Y4.5078 F300.00
G01 X-4.5878 Y4.5878 F300.00
G01 X-4.5078 Y4.6603 F300.00
G01 X-4.4211 Y4.7246 F300.00
G01 X-4.3285 Y4.7801 F300.00
G01 X-4.2310 Y4.8263 F300.00
G01 X-4.1293 Y4.8626 F300.00
G01 X-4.0246 Y4.8889 F300.00
G01 X-3.9178 Y4.9047 F300.00
G01 X-3.8100 Y4.9100 F300.00
G01 X-3.7022 Y4.9047 F300.00
G01 X-3.5954 Y4.8889 F300.00
G01 X-3.4907 Y4.8626 F300.00
G01 X-3.3890 Y4.8263 F300.00
G01 X-3.2915 Y4.7801 F300.00
G01 X-3.1989 Y4.7246 F300.00
G01 X-3.1122 Y4.6603 F300.00
G01 X-3.0322 Y4.5878 F300.00
G01 X-2.9597 Y4.5078 F300.00
G01 X-2.8954 Y4.4211 F300.00
G01 X-2.8399 Y4.3285 F300.00
G01 X-2.7937 Y4.2310 F300.00
G01 X-2.7574 Y4.1293 F300.00
G01 X-2.7311 Y4.0246 F300.00
G01 X-2.7153 Y3.9178 F300.00
G01 X-2.7100 Y3.8100 F300.00
G00 Z0.5000
G00 X-4.5655 Y11.4300
G01 F60.00
G01 Z-1.0000
G01 F300.00
G01 X-4.5660 Y11.4275 F300.00
G01 X-4.5674 Y11.4254 F300.00
G01 X-4.5695 Y11.4240 F300.00
G01 X-4.5720 Y11.4235 F300.00
G01 X-4.5745 Y11.4240 F300.00
G01 X-4.5766 Y11.4254 F300.00
G01 X-4.5780 Y11.4275 F300.00
G01 X-4.5785 Y11.4300 F300.00
G01 X-4.5780 Y11.4325 F300.00
G01 X-4.5766 Y11.4346 F300.00
G01 X-4.5745 Y11.4360 F300.00
G01 X-4.5720 Y11.4365 F300.00
G01 X-4.5695 Y11.4360 F300.00
G01 X-4.5674 Y11.4346 F300.00
G01 X-4.5660 Y11.4325 F300.00
G01 X-4.5655 Y11.4300 F300.00
G00 X-4.5655 Y11.4300
G01 F60.00
G01 Z-2.0000
G01 F300.00
G01 X-4.5660 Y11.4275 F300.00
G01 X-4.5674 Y11.4254 F300.00
G01 X-4.5695 Y11.4240 F300.00
G01 X-4.5720 Y11.4235 F300.00
G01 X-4.5745 Y11.4240 F300.00
G01 X-4.5766 Y11.4254 F300.00
G01 X-4.5780 Y11.4275 F300.00
G01 X-4.5785 Y11.4300 F300.00
G01 X-4.5780 Y11.4325 F300.00
G01 X-4.5766 Y11.4346 F300.00
G01 X-4.5745 Y11.4360 F300.00
G01 X-4.5720 Y11.4365 F300.00
G01 X-4.5695 Y11.4360 F300.00
G01 X-4.5674 Y11.4346 F300.00
G01 X-4.5660 Y11.4325 F300.00
G01 X-4.5655 Y11.4300 F300.00
G00 Z0.5000
G00 X-8.1215 Y11.4300
G01 F60.00
G01 Z-1.0000
G01 F300.00
G01 X-8.1220 Y11.4275 F300.00
G01 X-8.1234 Y11.4254 F300.00
G01 X-8.1255 Y11.4240 F300.00
G01 X-8.1280 Y11.4235 F300.00
G01 X-8.1305 Y11.4240 F300.00
G01 X-8.1326 Y11.4254 F300.00
G01 X-8.1340 Y11.4275 F300.00
G01 X-8.1345 Y11.4300 F300.00
G01 X-8.1340 Y11.4325 F300.00
G01 X-8.1326 Y11.4346 F300.00
G01 X-8.1305 Y11.4360 F300.00
G01 X-8.1280 Y11.4365 F300.00
G01 X-8.1255 Y11.4360 F300.00
G01 X-8.1234 Y11.4346 F300.00
G01 X-8.1220 Y11.4325 F300.00
G01 X-8.1215 Y11.4300 F300.00
G00 X-8.1215 Y11.4300
G01 F60.00
G01 Z-2.0000
G01 F300.00
G01 X-8.1220 Y11.4275 F300.00
G01 X-8.1234 Y11.4254 F300.00
G01 X-8.1255 Y11.4240 F300.00
G01 X-8.1280 Y11.4235 F300.00
G01 X-8.1305 Y11.4240 F300.00
G01 X-8.1326 Y11.4254 F300.00
G01 X-8.1340 Y11.4275 F300.00
G01 X-8.1345 Y11.4300 F300.00
G01 X-8.1340 Y11.4325 F300.00
G01 X-8.1326 Y11.4346 F300.00
G01 X-8.1305 Y11.4360 F300.00
G01 X-8.1280 Y11.4365 F300.00
G01 X-8.1255 Y11.4360 F300.00
G01 X-8.1234 Y11.4346 F300.00
G01 X-8.1220 Y11.4325 F300.00
G01 X-8.1215 Y11.4300 F300.00
G00 Z0.5000
G00 X-7.6200 Y17.7800
G01 F60.00
G01 Z-1.0000
G01 F300.00
G01 X-7.6200 Y17.7800 F300.00
G01 X-7.6200 Y17.7800 F300.00
G01 X-7.6200 Y17.7800 F300.00
G01 X-7.6200 Y17.7800 F300.00
G00 X-7.6200 Y17.7800
G01 F60.00
G01 Z-2.0000
G01 F300.00
G01 X-7.6200 Y17.7800 F300.00
G01 X-7.6200 Y17.7800 F300.00
G01 X-7.6200 Y17.7800 F300.00
G01 X-7.6200 Y17.7800 F300.00
G00 Z0.5000
G00 X-10.1600 Y17.7800
G01 F60.00
G01 Z-1.0000
G01 F300.00
G01 X-10.1600 Y17.7800 F300.00
G01 X-10.1600 Y17.7800 F300.00
G01 X-10.1600 Y17.7800 F300.00
G01 X-10.1600 Y17.7800 F300.00
G00 X-10.1600 Y17.7800
G01 F60.00
G01 Z-2.0000
G01 F300.00
G01 X-10.1600 Y17.7800 F300.00
G01 X-10.1600 Y17.7800 F300.00
G01 X-10.1600 Y17.7800 F300.00
G01 X-10.1600 Y17.7800 F300.00
G00 Z0.5000
G00 X-12.7000 Y17.7800
G01 F60.00
G01 Z-1.0000
G01 F300.00
G01 X-12.7000 Y17.7800 F300.00
G01 X-12.7000 Y17.7800 F300.00
G01 X-12.7000 Y17.7800 F300.00
G01 X-12.7000 Y17.7800 F300.00
G00 X-12.7000 Y17.7800
G01 F60.00
G01 Z-2.0000
G01 F300.00
G01 X-12.7000 Y17.7800 F300.00
G01 X-12.7000 Y17.7800 F300.00
G01 X-12.7000 Y17.7800 F300.00
G01 X-12.7000 Y17.7800 F300.00
G00 Z0.5000
G00 X-15.2400 Y17.7800
G01 F60.00
G01 Z-1.0000
G01 F300.00
G01 X-15.2400 Y17.7800 F300.00
G01 X-15.2400 Y17.7800 F300.00
G01 X-15.2400 Y17.7800 F300.00
G01 X-15.2400 Y17.7800 F300.00
G00 X-15.2400 Y17.7800
G01 F60.00
G01 Z-2.0000
G01 F300.00
G01 X-15.2400 Y17.7800 F300.00
G01 X-15.2400 Y17.7800 F300.00
G01 X-15.2400 Y17.7800 F300.00
G01 X-15.2400 Y17.7800 F300.00
G00 Z0.5000
G00 X-16.4100 Y14.5300
G01 F60.00
G01 Z-1.0000
G01 F300.00
G01 X-16.4105 Y14.5202 F300.00
G01 X-16.4119 Y14.5105 F300.00
G01 X-16.4143 Y14.5010 F300.00
G01 X-16.4176 Y14.4917 F300.00
G01 X-16.4218 Y14.4829 F300.00
G01 X-16.4269 Y14.4744 F300.00
G01 X-16.4327 Y14.4666 F300.00
G01 X-16.4393 Y14.4593 F300.00
G01 X-16.4466 Y14.4527 F300.00
G01 X-16.4544 Y14.4469 F300.00
G01 X-16.4629 Y14.4418 F300.00
G01 X-16.4717 Y14.4376 F300.00
G01 X-16.4810 Y14.4343 F300.00
G01 X-16.4905 Y14.4319 F300.00
G01 X-16.5002 Y14.4305 F300.00
G01 X-16.5100 Y14.4300 F300.00
G01 X-16.5198 Y14.4305 F300.00
G01 X-16.5295 Y14.4319 F300.00
G01 X-16.5390 Y14.4343 F300.00
G01 X-16.5483 Y14.4376 F300.00
G01 X-16.5571 Y14.4418 F300.00
G01 X-16.5656 Y14.4469 F300.00
G01 X-16.5734 Y14.4527 F300.00
G01 X-16.5807 Y14.4593 F300.00
G01 X-16.5873 Y14.4666 F300.00
G01 X-16.5931 Y14.4744 F300.00
G01 X-16.5982 Y14.4829 F300.00
G01 X-16.6024 Y14.4917 F300.00
G01 X-16.6057 Y14.5010 F300.00
G01 X-16.6081 Y14.5105 F300.00
G01 X-16.6095 Y14.5202 F300.00
G01 X-16.6100 Y14.5300 F300.00
G01 X-16.6095 Y14.5398 F300.00
G01 X-16.6081 Y14.5495 F300.00
G01 X-16.6057 Y14.5590 F300.00
G01 X-16.6024 Y14.5683 F300.00
G01 X-16.5982 Y14.5771 F300.00
G01 X-16.5931 Y14.5856 F300.00
G01 X-16.5873 Y14.5934 F300.00
G01 X-16.5807 Y14.6007 F300.00
G01 X-16.5734 Y14.6073 F300.00
G01 X-16.5656 Y14.6131 F300.00
G01 X-16.5571 Y14.6182 F300.00
G01 X-16.5483 Y14.6224 F300.00
G01 X-16.5390 Y14.6257 F300.00
G01 X-16.5295 Y14.6281 F300.00
G01 X-16.5198 Y14.6295 F300.00
G01 X-16.5100 Y14.6300 F300.00
G01 X-16.5002 Y14.6295 F300.00
G01 X-16.4905 Y14.6281 F300.00
G01 X-16.4810 Y14.6257 F300.00
G01 X-16.4717 Y14.6224 F300.00
G01 X-16.4629 Y14.6182 F300.00
G01 X-16.4544 Y14.6131 F300.00
G01 X-16.4466 Y14.6073 F300.00
G01 X-16.4393 Y14.6007 F300.00
G01 X-16.4327 Y14.5934 F300.00
G01 X-16.4269 Y14.5856 F300.00
G01 X-16.4218 Y14.5771 F300.00
G01 X-16.4176 Y14.5683 F300.00
G01 X-16.4143 Y14.5590 F300.00
G01 X-16.4119 Y14.5495 F300.00
G01 X-16.4105 Y14.5398 F300.00
G01 X-16.4100 Y14.5300 F300.00
G00 X-16.4100 Y14.5300
G01 F60.00
G01 Z-2.0000
G01 F300.00
G01 X-16.4105 Y14.5202 F300.00
G01 X-16.4119 Y14.5105 F300.00
G01 X-16.4143 Y14.5010 F300.00
G01 X-16.4176 Y14.4917 F300.00
G01 X-16.4218 Y14.4829 F300.00
G01 X-16.4269 Y14.4744 F300.00
G01 X-16.4327 Y14.4666 F300.00
G01 X-16.4393 Y14.4593 F300.00
G01 X-16.4466 Y14.4527 F300.00
G01 X-16.4544 Y14.4469 F300.00
G01 X-16.4629 Y14.4418 F300.00
G01 X-16.4717 Y14.4376 F300.00
G01 X-16.4810 Y14.4343 F300.00
G01 X-16.4905 Y14.4319 F300.00
G01 X-16.5002 Y14.4305 F300.00
G01 X-16.5100 Y14.4300 F300.00
G01 X-16.5198 Y14.4305 F300.00
G01 X-16.5295 Y14.4319 F300.00
G01 X-16.5390 Y14.4343 F300.00
G01 X-16.5483 Y14.4376 F300.00
G01 X-16.5571 Y14.4418 F300.00
G01 X-16.5656 Y14.4469 F300.00
G01 X-16.5734 Y14.4527 F300.00
G01 X-16.5807 Y14.4593 F300.00
G01 X-16.5873 Y14.4666 F300.00
G01 X-16.5931 Y14.4744 F300.00
G01 X-16.5982 Y14.4829 F300.00
G01 X-16.6024 Y14.4917 F300.00
G01 X-16.6057 Y14.5010 F300.00
G01 X-16.6081 Y14.5105 F300.00
G01 X-16.6095 Y14.5202 F300.00
G01 X-16.6100 Y14.5300 F300.00
G01 X-16.6095 Y14.5398 F300.00
G01 X-16.6081 Y14.5495 F300.00
G01 X-16.6057 Y14.5590 F300.00
G01 X-16.6024 Y14.5683 F300.00
G01 X-16.5982 Y14.5771 F300.00
G01 X-16.5931 Y14.5856 F300.00
G01 X-16.5873 Y14.5934 F300.00
G01 X-16.5807 Y14.6007 F300.00
G01 X-16.5734 Y14.6073 F300.00
G01 X-16.5656 Y14.6131 F300.00
G01 X-16.5571 Y14.6182 F300.00
G01 X-16.5483 Y14.6224 F300.00
G01 X-16.5390 Y14.6257 F300.00
G01 X-16.5295 Y14.6281 F300.00
G01 X-16.5198 Y14.6295 F300.00
G01 X-16.5100 Y14.6300 F300.00
G01 X-16.5002 Y14.6295 F300.00
G01 X-16.4905 Y14.6281 F300.00
G01 X-16.4810 Y14.6257 F300.00
G01 X-16.4717 Y14.6224 F300.00
G01 X-16.4629 Y14.6182 F300.00
G01 X-16.4544 Y14.6131 F300.00
G01 X-16.4466 Y14.6073 F300.00
G01 X-16.4393 Y14.6007 F300.00
G01 X-16.4327 Y14.5934 F300.00
G01 X-16.4269 Y14.5856 F300.00
G01 X-16.4218 Y14.5771 F300.00
G01 X-16.4176 Y14.5683 F300.00
G01 X-16.4143 Y14.5590 F300.00
G01 X-16.4119 Y14.5495 F300.00
G01 X-16.4105 Y14.5398 F300.00
G01 X-16.4100 Y14.5300 F300.00
G00 Z0.5000
G00 X-21.2100 Y11.4300
G01 F60.00
G01 Z-1.0000
G01 F300.00
G01 X-21.2105 Y11.4202 F300.00
G01 X-21.2119 Y11.4105 F300.00
G01 X-21.2143 Y11.4010 F300.00
G01 X-21.2176 Y11.3917 F300.00
G01 X-21.2218 Y11.3829 F300.00
G01 X-21.2269 Y11.3744 F300.00
G01 X-21.2327 Y11.3666 F300.00
G01 X-21.2393 Y11.3593 F300.00
G01 X-21.2466 Y11.3527 F300.00
G01 X-21.2544 Y11.3469 F300.00
G01 X-21.2629 Y11.3418 F300.00
G01 X-21.2717 Y11.3376 F300.00
G01 X-21.2810 Y11.3343 F300.00
G01 X-21.2905 Y11.3319 F300.00
G01 X-21.3002 Y11.3305 F300.00
G01 X-21.3100 Y11.3300 F300.00
G01 X-21.3198 Y11.3305 F300.00
G01 X-21.3295 Y11.3319 F300.00
G01 X-21.3390 Y11.3343 F300.00
G01 X-21.3483 Y11.3376 F300.00
G01 X-21.3571 Y11.3418 F300.00
G01 X-21.3656 Y11.3469 F300.00
G01 X-21.3734 Y11.3527 F300.00
G01 X-21.3807 Y11.3593 F300.00
G01 X-21.3873 Y11.3666 F300.00
G01 X-21.3931 Y11.3744 F300.00
G01 X-21.3982 Y11.3829 F300.00
G01 X-21.4024 Y11.3917 F300.00
G01 X-21.4057 Y11.4010 F300.00
G01 X-21.4081 Y11.4105 F300.00
G01 X-21.4095 Y11.4202 F300.00
G01 X-21.4100 Y11.4300 F300.00
G01 X-21.4095 Y11.4398 F300.00
G01 X-21.4081 Y11.4495 F300.00
G01 X-21.4057 Y11.4590 F300.00
G01 X-21.4024 Y11.4683 F300.00
G01 X-21.3982 Y11.4771 F300.00
G01 X-21.3931 Y11.4856 F300.00
G01 X-21.3873 Y11.4934 F300.00
G01 X-21.3807 Y11.5007 F300.00
G01 X-21.3734 Y11.5073 F300.00
G01 X-21.3656 Y11.5131 F300.00
G01 X-21.3571 Y11.5182 F300.00
G01 X-21.3483 Y11.5224 F300.00
G01 X-21.3390 Y11.5257 F300.00
G01 X-21.3295 Y11.5281 F300.00
G01 X-21.3198 Y11.5295 F300.00
G01 X-21.3100 Y11.5300 F300.00
G01 X-21.3002 Y11.5295 F300.00
G01 X-21.2905 Y11.5281 F300.00
G01 X-21.2810 Y11.5257 F300.00
G01 X-21.2717 Y11.5224 F300.00
G01 X-21.2629 Y11.5182 F300.00
G01 X-21.2544 Y11.5131 F300.00
G01 X-21.2466 Y11.5073 F300.00
G01 X-21.2393 Y11.5007 F300.00
G01 X-21.2327 Y11.4934 F300.00
G01 X-21.2269 Y11.4856 F300.00
G01 X-21.2218 Y11.4771 F300.00
G01 X-21.2176 Y11.4683 F300.00
G01 X-21.2143 Y11.4590 F300.00
G01 X-21.2119 Y11.4495 F300.00
G01 X-21.2105 Y11.4398 F300.00
G01 X-21.2100 Y11.4300 F300.00
G00 X-21.2100 Y11.4300
G01 F60.00
G01 Z-2.0000
G01 F300.00
G01 X-21.2105 Y11.4202 F300.00
G01 X-21.2119 Y11.4105 F300.00
G01 X-21.2143 Y11.4010 F300.00
G01 X-21.2176 Y11.3917 F300.00
G01 X-21.2218 Y11.3829 F300.00
G01 X-21.2269 Y11.3744 F300.00
G01 X-21.2327 Y11.3666 F300.00
G01 X-21.2393 Y11.3593 F300.00
G01 X-21.2466 Y11.3527 F300.00
G01 X-21.2544 Y11.3469 F300.00
G01 X-21.2629 Y11.3418 F300.00
G01 X-21.2717 Y11.3376 F300.00
G01 X-21.2810 Y11.3343 F300.00
G01 X-21.2905 Y11.3319 F300.00
G01 X-21.3002 Y11.3305 F300.00
G01 X-21.3100 Y11.3300 F300.00
G01 X-21.3198 Y11.3305 F300.00
G01 X-21.3295 Y11.3319 F300.00
G01 X-21.3390 Y11.3343 F300.00
G01 X-21.3483 Y11.3376 F300.00
G01 X-21.3571 Y11.3418 F300.00
G01 X-21.3656 Y11.3469 F300.00
G01 X-21.3734 Y11.3527 F300.00
G01 X-21.3807 Y11.3593 F300.00
G01 X-21.3873 Y11.3666 F300.00
G01 X-21.3931 Y11.3744 F300.00
G01 X-21.3982 Y11.3829 F300.00
G01 X-21.4024 Y11.3917 F300.00
G01 X-21.4057 Y11.4010 F300.00
G01 X-21.4081 Y11.4105 F300.00
G01 X-21.4095 Y11.4202 F300.00
G01 X-21.4100 Y11.4300 F300.00
G01 X-21.4095 Y11.4398 F300.00
G01 X-21.4081 Y11.4495 F300.00
G01 X-21.4057 Y11.4590 F300.00
G01 X-21.4024 Y11.4683 F300.00
G01 X-21.3982 Y11.4771 F300.00
G01 X-21.3931 Y11.4856 F300.00
G01 X-21.3873 Y11.4934 F300.00
G01 X-21.3807 Y11.5007 F300.00
G01 X-21.3734 Y11.5073 F300.00
G01 X-21.3656 Y11.5131 F300.00
G01 X-21.3571 Y11.5182 F300.00
G01 X-21.3483 Y11.5224 F300.00
G01 X-21.3390 Y11.5257 F300.00
G01 X-21.3295 Y11.5281 F300.00
G01 X-21.3198 Y11.5295 F300.00
G01 X-21.3100 Y11.5300 F300.00
G01 X-21.3002 Y11.5295 F300.00
G01 X-21.2905 Y11.5281 F300.00
G01 X-21.2810 Y11.5257 F300.00
G01 X-21.2717 Y11.5224 F300.00
G01 X-21.2629 Y11.5182 F300.00
G01 X-21.2544 Y11.5131 F300.00
G01 X-21.2466 Y11.5073 F300.00
G01 X-21.2393 Y11.5007 F300.00
G01 X-21.2327 Y11.4934 F300.00
G01 X-21.2269 Y11.4856 F300.00
G01 X-21.2218 Y11.4771 F300.00
G01 X-21.2176 Y11.4683 F300.00
G01 X-21.2143 Y11.4590 F300.00
G01 X-21.2119 Y11.4495 F300.00
G01 X-21.2105 Y11.4398 F300.00
G01 X-21.2100 Y11.4300 F300.00
G00 Z0.5000
G00 X-25.3000 Y11.4300
G01 F60.00
G01 Z-1.0000
G01 F300.00
G01 X-25.3005 Y11.4202 F300.00
G01 X-25.3019 Y11.4105 F300.00
G01 X-25.3043 Y11.4010 F300.00
G01 X-25.3076 Y11.3917 F300.00
G01 X-25.3118 Y11.3829 F300.00
G01 X-25.3169 Y11.3744 F300.00
G01 X-25.3227 Y11.3666 F300.00
G01 X-25.3293 Y11.3593 F300.00
G01 X-25.3366 Y11.3527 F300.00
G01 X-25.3444 Y11.3469 F300.00
G01 X-25.3529 Y11.3418 F300.00
G01 X-25.3617 Y11.3376 F300.00
G01 X-25.3710 Y11.3343 F300.00
G01 X-25.3805 Y11.3319 F300.00
G01 X-25.3902 Y11.3305 F300.00
G01 X-25.4000 Y11.3300 F300.00
G01 X-25.4098 Y11.3305 F300.00
G01 X-25.4195 Y11.3319 F300.00
G01 X-25.4290 Y11.3343 F300.00
G01 X-25.4383 Y11.3376 F300.00
G01 X-25.4471 Y11.3418 F300.00
G01 X-25.4556 Y11.3469 F300.00
G01 X-25.4634 Y11.3527 F300.00
G01 X-25.4707 Y11.3593 F300.00
G01 X-25.4773 Y11.3666 F300.00
G01 X-25.4831 Y11.3744 F300.00
G01 X-25.4882 Y11.3829 F300.00
G01 X-25.4924 Y11.3917 F300.00
G01 X-25.4957 Y11.4010 F300.00
G01 X-25.4981 Y11.4105 F300.00
G01 X-25.4995 Y11.4202 F300.00
G01 X-25.5000 Y11.4300 F300.00
G01 X-25.4995 Y11.4398 F300.00
G01 X-25.4981 Y11.4495 F300.00
G01 X-25.4957 Y11.4590 F300.00
G01 X-25.4924 Y11.4683 F300.00
G01 X-25.4882 Y11.4771 F300.00
G01 X-25.4831 Y11.4856 F300.00
G01 X-25.4773 Y11.4934 F300.00
G01 X-25.4707 Y11.5007 F300.00
G01 X-25.4634 Y11.5073 F300.00
G01 X-25.4556 Y11.5131 F300.00
G01 X-25.4471 Y11.5182 F300.00
G01 X-25.4383 Y11.5224 F300.00
G01 X-25.4290 Y11.5257 F300.00
G01 X-25.4195 Y11.5281 F300.00
G01 X-25.4098 Y11.5295 F300.00
G01 X-25.4000 Y11.5300 F300.00
G01 X-25.3902 Y11.5295 F300.00
G01 X-25.3805 Y11.5281 F300.00
G01 X-25.3710 Y11.5257 F300.00
G01 X-25.3617 Y11.5224 F300.00
G01 X-25.3529 Y11.5182 F300.00
G01 X-25.3444 Y11.5131 F300.00
G01 X-25.3366 Y11.5073 F300.00
G01 X-25.3293 Y11.5007 F300.00
G01 X-25.3227 Y11.4934 F300.00
G01 X-25.3169 Y11.4856 F300.00
G01 X-25.3118 Y11.4771 F300.00
G01 X-25.3076 Y11.4683 F300.00
G01 X-25.3043 Y11.4590 F300.00
G01 X-25.3019 Y11.4495 F300.00
G01 X-25.3005 Y11.4398 F300.00
G01 X-25.3000 Y11.4300 F300.00
G00 X-25.3000 Y11.4300
G01 F60.00
G01 Z-2.0000
G01 F300.00
G01 X-25.3005 Y11.4202 F300.00
G01 X-25.3019 Y11.4105 F300.00
G01 X-25.3043 Y11.4010 F300.00
G01 X-25.3076 Y11.3917 F300.00
G01 X-25.3118 Y11.3829 F300.00
G01 X-25.3169 Y11.3744 F300.00
G01 X-25.3227 Y11.3666 F300.00
G01 X-25.3293 Y11.3593 F300.00
G01 X-25.3366 Y11.3527 F300.00
G01 X-25.3444 Y11.3469 F300.00
G01 X-25.3529 Y11.3418 F300.00
G01 X-25.3617 Y11.3376 F300.00
G01 X-25.3710 Y11.3343 F300.00
G01 X-25.3805 Y11.3319 F300.00
G01 X-25.3902 Y11.3305 F300.00
G01 X-25.4000 Y11.3300 F300.00
G01 X-25.4098 Y11.3305 F300.00
G01 X-25.4195 Y11.3319 F300.00
G01 X-25.4290 Y11.3343 F300.00
G01 X-25.4383 Y11.3376 F300.00
G01 X-25.4471 Y11.3418 F300.00
G01 X-25.4556 Y11.3469 F300.00
G01 X-25.4634 Y11.3527 F300.00
G01 X-25.4707 Y11.3593 F300.00
G01 X-25.4773 Y11.3666 F300.00
G01 X-25.4831 Y11.3744 F300.00
G01 X-25.4882 Y11.3829 F300.00
G01 X-25.4924 Y11.3917 F300.00
G01 X-25.4957 Y11.4010 F300.00
G01 X-25.4981 Y11.4105 F300.00
G01 X-25.4995 Y11.4202 F300.00
G01 X-25.5000 Y11.4300 F300.00
G01 X-25.4995 Y11.4398 F300.00
G01 X-25.4981 Y11.4495 F300.00
G01 X-25.4957 Y11.4590 F300.00
G01 X-25.4924 Y11.4683 F300.00
G01 X-25.4882 Y11.4771 F300.00
G01 X-25.4831 Y11.4856 F300.00
G01 X-25.4773 Y11.4934 F300.00
G01 X-25.4707 Y11.5007 F300.00
G01 X-25.4634 Y11.5073 F300.00
G01 X-25.4556 Y11.5131 F300.00
G01 X-25.4471 Y11.5182 F300.00
G01 X-25.4383 Y11.5224 F300.00
G01 X-25.4290 Y11.5257 F300.00
G01 X-25.4195 Y11.5281 F300.00
G01 X-25.4098 Y11.5295 F300.00
G01 X-25.4000 Y11.5300 F300.00
G01 X-25.3902 Y11.5295 F300.00
G01 X-25.3805 Y11.5281 F300.00
G01 X-25.3710 Y11.5257 F300.00
G01 X-25.3617 Y11.5224 F300.00
G01 X-25.3529 Y11.5182 F300.00
G01 X-25.3444 Y11.5131 F300.00
G01 X-25.3366 Y11.5073 F300.00
G01 X-25.3293 Y11.5007 F300.00
G01 X-25.3227 Y11.4934 F300.00
G01 X-25.3169 Y11.4856 F300.00
G01 X-25.3118 Y11.4771 F300.00
G01 X-25.3076 Y11.4683 F300.00
G01 X-25.3043 Y11.4590 F300.00
G01 X-25.3019 Y11.4495 F300.00
G01 X-25.3005 Y11.4398 F300.00
G01 X-25.3000 Y11.4300 F300.00
G00 Z0.5000
G00 X-25.3000 Y13.9700
G01 F60.00
G01 Z-1.0000
G01 F300.00
G01 X-25.3005 Y13.9602 F300.00
G01 X-25.3019 Y13.9505 F300.00
G01 X-25.3043 Y13.9410 F300.00
G01 X-25.3076 Y13.9317 F300.00
G01 X-25.3118 Y13.9229 F300.00
G01 X-25.3169 Y13.9144 F300.00
G01 X-25.3227 Y13.9066 F300.00
G01 X-25.3293 Y13.8993 F300.00
G01 X-25.3366 Y13.8927 F300.00
G01 X-25.3444 Y13.8869 F300.00
G01 X-25.3529 Y13.8818 F300.00
G01 X-25.3617 Y13.8776 F300.00
G01 X-25.3710 Y13.8743 F300.00
G01 X-25.3805 Y13.8719 F300.00
G01 X-25.3902 Y13.8705 F300.00
G01 X-25.4000 Y13.8700 F300.00
G01 X-25.4098 Y13.8705 F300.00
G01 X-25.4195 Y13.8719 F300.00
G01 X-25.4290 Y13.8743 F300.00
G01 X-25.4383 Y13.8776 F300.00
G01 X-25.4471 Y13.8818 F300.00
G01 X-25.4556 Y13.8869 F300.00
G01 X-25.4634 Y13.8927 F300.00
G01 X-25.4707 Y13.8993 F300.00
G01 X-25.4773 Y13.9066 F300.00
G01 X-25.4831 Y13.9144 F300.00
G01 X-25.4882 Y13.9229 F300.00
G01 X-25.4924 Y13.9317 F300.00
G01 X-25.4957 Y13.9410 F300.00
G01 X-25.4981 Y13.9505 F300.00
G01 X-25.4995 Y13.9602 F300.00
G01 X-25.5000 Y13.9700 F300.00
G01 X-25.4995 Y13.9798 F300.00
G01 X-25.4981 Y13.9895 F300.00
G01 X-25.4957 Y13.9990 F300.00
G01 X-25.4924 Y14.0083 F300.00
G01 X-25.4882 Y14.0171 F300.00
G01 X-25.4831 Y14.0256 F300.00
G01 X-25.4773 Y14.0334 F300.00
G01 X-25.4707 Y14.0407 F300.00
G01 X-25.4634 Y14.0473 F300.00
G01 X-25.4556 Y14.0531 F300.00
G01 X-25.4471 Y14.0582 F300.00
G01 X-25.4383 Y14.0624 F300.00
G01 X-25.4290 Y14.0657 F300.00
G01 X-25.4195 Y14.0681 F300.00
G01 X-25.4098 Y14.0695 F300.00
G01 X-25.4000 Y14.0700 F300.00
G01 X-25.3902 Y14.0695 F300.00
G01 X-25.3805 Y14.0681 F300.00
G01 X-25.3710 Y14.0657 F300.00
G01 X-25.3617 Y14.0624 F300.00
G01 X-25.3529 Y14.0582 F300.00
G01 X-25.3444 Y14.0531 F300.00
G01 X-25.3366 Y14.0473 F300.00
G01 X-25.3293 Y14.0407 F300.00
G01 X-25.3227 Y14.0334 F300.00
G01 X-25.3169 Y14.0256 F300.00
G01 X-25.3118 Y14.0171 F300.00
G01 X-25.3076 Y14.0083 F300.00
G01 X-25.3043 Y13.9990 F300.00
G01 X-25.3019 Y13.9895 F300.00
G01 X-25.3005 Y13.9798 F300.00
G01 X-25.3000 Y13.9700 F300.00
G00 X-25.3000 Y13.9700
G01 F60.00
G01 Z-2.0000
G01 F300.00
G01 X-25.3005 Y13.9602 F300.00
G01 X-25.3019 Y13.9505 F300.00
G01 X-25.3043 Y13.9410 F300.00
G01 X-25.3076 Y13.9317 F300.00
G01 X-25.3118 Y13.9229 F300.00
G01 X-25.3169 Y13.9144 F300.00
G01 X-25.3227 Y13.9066 F300.00
G01 X-25.3293 Y13.8993 F300.00
G01 X-25.3366 Y13.8927 F300.00
G01 X-25.3444 Y13.8869 F300.00
G01 X-25.3529 Y13.8818 F300.00
G01 X-25.3617 Y13.8776 F300.00
G01 X-25.3710 Y13.8743 F300.00
G01 X-25.3805 Y13.8719 F300.00
G01 X-25.3902 Y13.8705 F300.00
G01 X-25.4000 Y13.8700 F300.00
G01 X-25.4098 Y13.8705 F300.00
G01 X-25.4195 Y13.8719 F300.00
G01 X-25.4290 Y13.8743 F300.00
G01 X-25.4383 Y13.8776 F300.00
G01 X-25.4471 Y13.8818 F300.00
G01 X-25.4556 Y13.8869 F300.00
G01 X-25.4634 Y13.8927 F300.00
G01 X-25.4707 Y13.8993 F300.00
G01 X-25.4773 Y13.9066 F300.00
G01 X-25.4831 Y13.9144 F300.00
G01 X-25.4882 Y13.9229 F300.00
G01 X-25.4924 Y13.9317 F300.00
G01 X-25.4957 Y13.9410 F300.00
G01 X-25.4981 Y13.9505 F300.00
G01 X-25.4995 Y13.9602 F300.00
G01 X-25.5000 Y13.9700 F300.00
G01 X-25.4995 Y13.9798 F300.00
G01 X-25.4981 Y13.9895 F300.00
G01 X-25.4957 Y13.9990 F300.00
G01 X-25.4924 Y14.0083 F300.00
G01 X-25.4882 Y14.0171 F300.00
G01 X-25.4831 Y14.0256 F300.00
G01 X-25.4773 Y14.0334 F300.00
G01 X-25.4707 Y14.0407 F300.00
G01 X-25.4634 Y14.0473 F300.00
G01 X-25.4556 Y14.0531 F300.00
G01 X-25.4471 Y14.0582 F300.00
G01 X-25.4383 Y14.0624 F300.00
G01 X-25.4290 Y14.0657 F300.00
G01 X-25.4195 Y14.0681 F300.00
G01 X-25.4098 Y14.0695 F300.00
G01 X-25.4000 Y14.0700 F300.00
G01 X-25.3902 Y14.0695 F300.00
G01 X-25.3805 Y14.0681 F300.00
G01 X-25.3710 Y14.0657 F300.00
G01 X-25.3617 Y14.0624 F300.00
G01 X-25.3529 Y14.0582 F300.00
G01 X-25.3444 Y14.0531 F300.00
G01 X-25.3366 Y14.0473 F300.00
G01 X-25.3293 Y14.0407 F300.00
G01 X-25.3227 Y14.0334 F300.00
G01 X-25.3169 Y14.0256 F300.00
G01 X-25.3118 Y14.0171 F300.00
G01 X-25.3076 Y14.0083 F300.00
G01 X-25.3043 Y13.9990 F300.00
G01 X-25.3019 Y13.9895 F300.00
G01 X-25.3005 Y13.9798 F300.00
G01 X-25.3000 Y13.9700 F300.00
G00 Z0.5000
G00 X-25.3000 Y16.5100
G01 F60.00
G01 Z-1.0000
G01 F300.00
G01 X-25.3005 Y16.5002 F300.00
G01 X-25.3019 Y16.4905 F300.00
G01 X-25.3043 Y16.4810 F300.00
G01 X-25.3076 Y16.4717 F300.00
G01 X-25.3118 Y16.4629 F300.00
G01 X-25.3169 Y16.4544 F300.00
G01 X-25.3227 Y16.4466 F300.00
G01 X-25.3293 Y16.4393 F300.00
G01 X-25.3366 Y16.4327 F300.00
G01 X-25.3444 Y16.4269 F300.00
G01 X-25.3529 Y16.4218 F300.00
G01 X-25.3617 Y16.4176 F300.00
G01 X-25.3710 Y16.4143 F300.00
G01 X-25.3805 Y16.4119 F300.00
G01 X-25.3902 Y16.4105 F300.00
G01 X-25.4000 Y16.4100 F300.00
G01 X-25.4098 Y16.4105 F300.00
G01 X-25.4195 Y16.4119 F300.00
G01 X-25.4290 Y16.4143 F300.00
G01 X-25.4383 Y16.4176 F300.00
G01 X-25.4471 Y16.4218 F300.00
G01 X-25.4556 Y16.4269 F300.00
G01 X-25.4634 Y16.4327 F300.00
G01 X-25.4707 Y16.4393 F300.00
G01 X-25.4773 Y16.4466 F300.00
G01 X-25.4831 Y16.4544 F300.00
G01 X-25.4882 Y16.4629 F300.00
G01 X-25.4924 Y16.4717 F300.00
G01 X-25.4957 Y16.4810 F300.00
G01 X-25.4981 Y16.4905 F300.00
G01 X-25.4995 Y16.5002 F300.00
G01 X-25.5000 Y16.5100 F300.00
G01 X-25.4995 Y16.5198 F300.00
G01 X-25.4981 Y16.5295 F300.00
G01 X-25.4957 Y16.5390 F300.00
G01 X-25.4924 Y16.5483 F300.00
G01 X-25.4882 Y16.5571 F300.00
G01 X-25.4831 Y16.5656 F300.00
G01 X-25.4773 Y16.5734 F300.00
G01 X-25.4707 Y16.5807 F300.00
G01 X-25.4634 Y16.5873 F300.00
G01 X-25.4556 Y16.5931 F300.00
G01 X-25.4471 Y16.5982 F300.00
G01 X-25.4383 Y16.6024 F300.00
G01 X-25.4290 Y16.6057 F300.00
G01 X-25.4195 Y16.6081 F300.00
G01 X-25.4098 Y16.6095 F300.00
G01 X-25.4000 Y16.6100 F300.00
G01 X-25.3902 Y16.6095 F300.00
G01 X-25.3805 Y16.6081 F300.00
G01 X-25.3710 Y16.6057 F300.00
G01 X-25.3617 Y16.6024 F300.00
G01 X-25.3529 Y16.5982 F300.00
G01 X-25.3444 Y16.5931 F300.00
G01 X-25.3366 Y16.5873 F300.00
G01 X-25.3293 Y16.5807 F300.00
G01 X-25.3227 Y16.5734 F300.00
G01 X-25.3169 Y16.5656 F300.00
G01 X-25.3118 Y16.5571 F300.00
G01 X-25.3076 Y16.5483 F300.00
G01 X-25.3043 Y16.5390 F300.00
G01 X-25.3019 Y16.5295 F300.00
G01 X-25.3005 Y16.5198 F300.00
G01 X-25.3000 Y16.5100 F300.00
G00 X-25.3000 Y16.5100
G01 F60.00
G01 Z-2.0000
G01 F300.00
G01 X-25.3005 Y16.5002 F300.00
G01 X-25.3019 Y16.4905 F300.00
G01 X-25.3043 Y16.4810 F300.00
G01 X-25.3076 Y16.4717 F300.00
G01 X-25.3118 Y16.4629 F300.00
G01 X-25.3169 Y16.4544 F300.00
G01 X-25.3227 Y16.4466 F300.00
G01 X-25.3293 Y16.4393 F300.00
G01 X-25.3366 Y16.4327 F300.00
G01 X-25.3444 Y16.4269 F300.00
G01 X-25.3529 Y16.4218 F300.00
G01 X-25.3617 Y16.4176 F300.00
G01 X-25.3710 Y16.4143 F300.00
G01 X-25.3805 Y16.4119 F300.00
G01 X-25.3902 Y16.4105 F300.00
G01 X-25.4000 Y16.4100 F300.00
G01 X-25.4098 Y16.4105 F300.00
G01 X-25.4195 Y16.4119 F300.00
G01 X-25.4290 Y16.4143 F300.00
G01 X-25.4383 Y16.4176 F300.00
G01 X-25.4471 Y16.4218 F300.00
G01 X-25.4556 Y16.4269 F300.00
G01 X-25.4634 Y16.4327 F300.00
G01 X-25.4707 Y16.4393 F300.00
G01 X-25.4773 Y16.4466 F300.00
G01 X-25.4831 Y16.4544 F300.00
G01 X-25.4882 Y16.4629 F300.00
G01 X-25.4924 Y16.4717 F300.00
G01 X-25.4957 Y16.4810 F300.00
G01 X-25.4981 Y16.4905 F300.00
G01 X-25.4995 Y16.5002 F300.00
G01 X-25.5000 Y16.5100 F300.00
G01 X-25.4995 Y16.5198 F300.00
G01 X-25.4981 Y16.5295 F300.00
G01 X-25.4957 Y16.5390 F300.00
G01 X-25.4924 Y16.5483 F300.00
G01 X-25.4882 Y16.5571 F300.00
G01 X-25.4831 Y16.5656 F300.00
G01 X-25.4773 Y16.5734 F300.00
G01 X-25.4707 Y16.5807 F300.00
G01 X-25.4634 Y16.5873 F300.00
G01 X-25.4556 Y16.5931 F300.00
G01 X-25.4471 Y16.5982 F300.00
G01 X-25.4383 Y16.6024 F300.00
G01 X-25.4290 Y16.6057 F300.00
G01 X-25.4195 Y16.6081 F300.00
G01 X-25.4098 Y16.6095 F300.00
G01 X-25.4000 Y16.6100 F300.00
G01 X-25.3902 Y16.6095 F300.00
G01 X-25.3805 Y16.6081 F300.00
G01 X-25.3710 Y16.6057 F300.00
G01 X-25.3617 Y16.6024 F300.00
G01 X-25.3529 Y16.5982 F300.00
G01 X-25.3444 Y16.5931 F300.00
G01 X-25.3366 Y16.5873 F300.00
G01 X-25.3293 Y16.5807 F300.00
G01 X-25.3227 Y16.5734 F300.00
G01 X-25.3169 Y16.5656 F300.00
G01 X-25.3118 Y16.5571 F300.00
G01 X-25.3076 Y16.5483 F300.00
G01 X-25.3043 Y16.5390 F300.00
G01 X-25.3019 Y16.5295 F300.00
G01 X-25.3005 Y16.5198 F300.00
G01 X-25.3000 Y16.5100 F300.00
G00 Z0.5000
G00 X-25.3000 Y19.0500
G01 F60.00
G01 Z-1.0000
G01 F300.00
G01 X-25.3005 Y19.0402 F300.00
G01 X-25.3019 Y19.0305 F300.00
G01 X-25.3043 Y19.0210 F300.00
G01 X-25.3076 Y19.0117 F300.00
G01 X-25.3118 Y19.0029 F300.00
G01 X-25.3169 Y18.9944 F300.00
G01 X-25.3227 Y18.9866 F300.00
G01 X-25.3293 Y18.9793 F300.00
G01 X-25.3366 Y18.9727 F300.00
G01 X-25.3444 Y18.9669 F300.00
G01 X-25.3529 Y18.9618 F300.00
G01 X-25.3617 Y18.9576 F300.00
G01 X-25.3710 Y18.9543 F300.00
G01 X-25.3805 Y18.9519 F300.00
G01 X-25.3902 Y18.9505 F300.00
G01 X-25.4000 Y18.9500 F300.00
G01 X-25.4098 Y18.9505 F300.00
G01 X-25.4195 Y18.9519 F300.00
G01 X-25.4290 Y18.9543 F300.00
G01 X-25.4383 Y18.9576 F300.00
G01 X-25.4471 Y18.9618 F300.00
G01 X-25.4556 Y18.9669 F300.00
G01 X-25.4634 Y18.9727 F300.00
G01 X-25.4707 Y18.9793 F300.00
G01 X-25.4773 Y18.9866 F300.00
G01 X-25.4831 Y18.9944 F300.00
G01 X-25.4882 Y19.0029 F300.00
G01 X-25.4924 Y19.0117 F300.00
G01 X-25.4957 Y19.0210 F300.00
G01 X-25.4981 Y19.0305 F300.00
G01 X-25.4995 Y19.0402 F300.00
G01 X-25.5000 Y19.0500 F300.00
G01 X-25.4995 Y19.0598 F300.00
G01 X-25.4981 Y19.0695 F300.00
G01 X-25.4957 Y19.0790 F300.00
G01 X-25.4924 Y19.0883 F300.00
G01 X-25.4882 Y19.0971 F300.00
G01 X-25.4831 Y19.1056 F300.00
G01 X-25.4773 Y19.1134 F300.00
G01 X-25.4707 Y19.1207 F300.00
G01 X-25.4634 Y19.1273 F300.00
G01 X-25.4556 Y19.1331 F300.00
G01 X-25.4471 Y19.1382 F300.00
G01 X-25.4383 Y19.1424 F300.00
G01 X-25.4290 Y19.1457 F300.00
G01 X-25.4195 Y19.1481 F300.00
G01 X-25.4098 Y19.1495 F300.00
G01 X-25.4000 Y19.1500 F300.00
G01 X-25.3902 Y19.1495 F300.00
G01 X-25.3805 Y19.1481 F300.00
G01 X-25.3710 Y19.1457 F300.00
G01 X-25.3617 Y19.1424 F300.00
G01 X-25.3529 Y19.1382 F300.00
G01 X-25.3444 Y19.1331 F300.00
G01 X-25.3366 Y19.1273 F300.00
G01 X-25.3293 Y19.1207 F300.00
G01 X-25.3227 Y19.1134 F300.00
G01 X-25.3169 Y19.1056 F300.00
G01 X-25.3118 Y19.0971 F300.00
G01 X-25.3076 Y19.0883 F300.00
G01 X-25.3043 Y19.0790 F300.00
G01 X-25.3019 Y19.0695 F300.00
G01 X-25.3005 Y19.0598 F300.00
G01 X-25.3000 Y19.0500 F300.00
G00 X-25.3000 Y19.0500
G01 F60.00
G01 Z-2.0000
G01 F300.00
G01 X-25.3005 Y19.0402 F300.00
G01 X-25.3019 Y19.0305 F300.00
G01 X-25.3043 Y19.0210 F300.00
G01 X-25.3076 Y19.0117 F300.00
G01 X-25.3118 Y19.0029 F300.00
G01 X-25.3169 Y18.9944 F300.00
G01 X-25.3227 Y18.9866 F300.00
G01 X-25.3293 Y18.9793 F300.00
G01 X-25.3366 Y18.9727 F300.00
G01 X-25.3444 Y18.9669 F300.00
G01 X-25.3529 Y18.9618 F300.00
G01 X-25.3617 Y18.9576 F300.00
G01 X-25.3710 Y18.9543 F300.00
G01 X-25.3805 Y18.9519 F300.00
G01 X-25.3902 Y18.9505 F300.00
G01 X-25.4000 Y18.9500 F300.00
G01 X-25.4098 Y18.9505 F300.00
G01 X-25.4195 Y18.9519 F300.00
G01 X-25.4290 Y18.9543 F300.00
G01 X-25.4383 Y18.9576 F300.00
G01 X-25.4471 Y18.9618 F300.00
G01 X-25.4556 Y18.9669 F300.00
G01 X-25.4634 Y18.9727 F300.00
G01 X-25.4707 Y18.9793 F300.00
G01 X-25.4773 Y18.9866 F300.00
G01 X-25.4831 Y18.9944 F300.00
G01 X-25.4882 Y19.0029 F300.00
G01 X-25.4924 Y19.0117 F300.00
G01 X-25.4957 Y19.0210 F300.00
G01 X-25.4981 Y19.0305 F300.00
G01 X-25.4995 Y19.0402 F300.00
G01 X-25.5000 Y19.0500 F300.00
G01 X-25.4995 Y19.0598 F300.00
G01 X-25.4981 Y19.0695 F300.00
G01 X-25.4957 Y19.0790 F300.00
G01 X-25.4924 Y19.0883 F300.00
G01 X-25.4882 Y19.0971 F300.00
G01 X-25.4831 Y19.1056 F300.00
G01 X-25.4773 Y19.1134 F300.00
G01 X-25.4707 Y19.1207 F300.00
G01 X-25.4634 Y19.1273 F300.00
G01 X-25.4556 Y19.1331 F300.00
G01 X-25.4471 Y19.1382 F300.00
G01 X-25.4383 Y19.1424 F300.00
G01 X-25.4290 Y19.1457 F300.00
G01 X-25.4195 Y19.1481 F300.00
G01 X-25.4098 Y19.1495 F300.00
G01 X-25.4000 Y19.1500 F300.00
G01 X-25.3902 Y19.1495 F300.00
G01 X-25.3805 Y19.1481 F300.00
G01 X-25.3710 Y19.1457 F300.00
G01 X-25.3617 Y19.1424 F300.00
G01 X-25.3529 Y19.1382 F300.00
G01 X-25.3444 Y19.1331 F300.00
G01 X-25.3366 Y19.1273 F300.00
G01 X-25.3293 Y19.1207 F300.00
G01 X-25.3227 Y19.1134 F300.00
G01 X-25.3169 Y19.1056 F300.00
G01 X-25.3118 Y19.0971 F300.00
G01 X-25.3076 Y19.0883 F300.00
G01 X-25.3043 Y19.0790 F300.00
G01 X-25.3019 Y19.0695 F300.00
G01 X-25.3005 Y19.0598 F300.00
G01 X-25.3000 Y19.0500 F300.00
G00 Z0.5000
G00 X-25.3000 Y21.5900
G01 F60.00
G01 Z-1.0000
G01 F300.00
G01 X-25.3005 Y21.5802 F300.00
G01 X-25.3019 Y21.5705 F300.00
G01 X-25.3043 Y21.5610 F300.00
G01 X-25.3076 Y21.5517 F300.00
G01 X-25.3118 Y21.5429 F300.00
G01 X-25.3169 Y21.5344 F300.00
G01 X-25.3227 Y21.5266 F300.00
G01 X-25.3293 Y21.5193 F300.00
G01 X-25.3366 Y21.5127 F300.00
G01 X-25.3444 Y21.5069 F300.00
G01 X-25.3529 Y21.5018 F300.00
G01 X-25.3617 Y21.4976 F300.00
G01 X-25.3710 Y21.4943 F300.00
G01 X-25.3805 Y21.4919 F300.00
G01 X-25.3902 Y21.4905 F300.00
G01 X-25.4000 Y21.4900 F300.00
G01 X-25.4098 Y21.4905 F300.00
G01 X-25.4195 Y21.4919 F300.00
G01 X-25.4290 Y21.4943 F300.00
G01 X-25.4383 Y21.4976 F300.00
G01 X-25.4471 Y21.5018 F300.00
G01 X-25.4556 Y21.5069 F300.00
G01 X-25.4634 Y21.5127 F300.00
G01 X-25.4707 Y21.5193 F300.00
G01 X-25.4773 Y21.5266 F300.00
G01 X-25.4831 Y21.5344 F300.00
G01 X-25.4882 Y21.5429 F300.00
G01 X-25.4924 Y21.5517 F300.00
G01 X-25.4957 Y21.5610 F300.00
G01 X-25.4981 Y21.5705 F300.00
G01 X-25.4995 Y21.5802 F300.00
G01 X-25.5000 Y21.5900 F300.00
G01 X-25.4995 Y21.5998 F300.00
G01 X-25.4981 Y21.6095 F300.00
G01 X-25.4957 Y21.6190 F300.00
G01 X-25.4924 Y21.6283 F300.00
G01 X-25.4882 Y21.6371 F300.00
G01 X-25.4831 Y21.6456 F300.00
G01 X-25.4773 Y21.6534 F300.00
G01 X-25.4707 Y21.6607 F300.00
G01 X-25.4634 Y21.6673 F300.00
G01 X-25.4556 Y21.6731 F300.00
G01 X-25.4471 Y21.6782 F300.00
G01 X-25.4383 Y21.6824 F300.00
G01 X-25.4290 Y21.6857 F300.00
G01 X-25.4195 Y21.6881 F300.00
G01 X-25.4098 Y21.6895 F300.00
G01 X-25.4000 Y21.6900 F300.00
G01 X-25.3902 Y21.6895 F300.00
G01 X-25.3805 Y21.6881 F300.00
G01 X-25.3710 Y21.6857 F300.00
G01 X-25.3617 Y21.6824 F300.00
G01 X-25.3529 Y21.6782 F300.00
G01 X-25.3444 Y21.6731 F300.00
G01 X-25.3366 Y21.6673 F300.00
G01 X-25.3293 Y21.6607 F300.00
G01 X-25.3227 Y21.6534 F300.00
G01 X-25.3169 Y21.6456 F300.00
G01 X-25.3118 Y21.6371 F300.00
G01 X-25.3076 Y21.6283 F300.00
G01 X-25.3043 Y21.6190 F300.00
G01 X-25.3019 Y21.6095 F300.00
G01 X-25.3005 Y21.5998 F300.00
G01 X-25.3000 Y21.5900 F300.00
G00 X-25.3000 Y21.5900
G01 F60.00
G01 Z-2.0000
G01 F300.00
G01 X-25.3005 Y21.5802 F300.00
G01 X-25.3019 Y21.5705 F300.00
G01 X-25.3043 Y21.5610 F300.00
G01 X-25.3076 Y21.5517 F300.00
G01 X-25.3118 Y21.5429 F300.00
G01 X-25.3169 Y21.5344 F300.00
G01 X-25.3227 Y21.5266 F300.00
G01 X-25.3293 Y21.5193 F300.00
G01 X-25.3366 Y21.5127 F300.00
G01 X-25.3444 Y21.5069 F300.00
G01 X-25.3529 Y21.5018 F300.00
G01 X-25.3617 Y21.4976 F300.00
G01 X-25.3710 Y21.4943 F300.00
G01 X-25.3805 Y21.4919 F300.00
G01 X-25.3902 Y21.4905 F300.00
G01 X-25.4000 Y21.4900 F300.00
G01 X-25.4098 Y21.4905 F300.00
G01 X-25.4195 Y21.4919 F300.00
G01 X-25.4290 Y21.4943 F300.00
G01 X-25.4383 Y21.4976 F300.00
G01 X-25.4471 Y21.5018 F300.00
G01 X-25.4556 Y21.5069 F300.00
G01 X-25.4634 Y21.5127 F300.00
G01 X-25.4707 Y21.5193 F300.00
G01 X-25.4773 Y21.5266 F300.00
G01 X-25.4831 Y21.5344 F300.00
G01 X-25.4882 Y21.5429 F300.00
G01 X-25.4924 Y21.5517 F300.00
G01 X-25.4957 Y21.5610 F300.00
G01 X-25.4981 Y21.5705 F300.00
G01 X-25.4995 Y21.5802 F300.00
G01 X-25.5000 Y21.5900 F300.00
G01 X-25.4995 Y21.5998 F300.00
G01 X-25.4981 Y21.6095 F300.00
G01 X-25.4957 Y21.6190 F300.00
G01 X-25.4924 Y21.6283 F300.00
G01 X-25.4882 Y21.6371 F300.00
G01 X-25.4831 Y21.6456 F300.00
G01 X-25.4773 Y21.6534 F300.00
G01 X-25.4707 Y21.6607 F300.00
G01 X-25.4634 Y21.6673 F300.00
G01 X-25.4556 Y21.6731 F300.00
G01 X-25.4471 Y21.6782 F300.00
G01 X-25.4383 Y21.6824 F300.00
G01 X-25.4290 Y21.6857 F300.00
G01 X-25.4195 Y21.6881 F300.00
G01 X-25.4098 Y21.6895 F300.00
G01 X-25.4000 Y21.6900 F300.00
G01 X-25.3902 Y21.6895 F300.00
G01 X-25.3805 Y21.6881 F300.00
G01 X-25.3710 Y21.6857 F300.00
G01 X-25.3617 Y21.6824 F300.00
G01 X-25.3529 Y21.6782 F300.00
G01 X-25.3444 Y21.6731 F300.00
G01 X-25.3366 Y21.6673 F300.00
G01 X-25.3293 Y21.6607 F300.00
G01 X-25.3227 Y21.6534 F300.00
G01 X-25.3169 Y21.6456 F300.00
G01 X-25.3118 Y21.6371 F300.00
G01 X-25.3076 Y21.6283 F300.00
G01 X-25.3043 Y21.6190 F300.00
G01 X-25.3019 Y21.6095 F300.00
G01 X-25.3005 Y21.5998 F300.00
G01 X-25.3000 Y21.5900 F300.00
G00 Z0.5000
G00 X-25.3000 Y24.1300
G01 F60.00
G01 Z-1.0000
G01 F300.00
G01 X-25.3005 Y24.1202 F300.00
G01 X-25.3019 Y24.1105 F300.00
G01 X-25.3043 Y24.1010 F300.00
G01 X-25.3076 Y24.0917 F300.00
G01 X-25.3118 Y24.0829 F300.00
G01 X-25.3169 Y24.0744 F300.00
G01 X-25.3227 Y24.0666 F300.00
G01 X-25.3293 Y24.0593 F300.00
G01 X-25.3366 Y24.0527 F300.00
G01 X-25.3444 Y24.0469 F300.00
G01 X-25.3529 Y24.0418 F300.00
G01 X-25.3617 Y24.0376 F300.00
G01 X-25.3710 Y24.0343 F300.00
G01 X-25.3805 Y24.0319 F300.00
G01 X-25.3902 Y24.0305 F300.00
G01 X-25.4000 Y24.0300 F300.00
G01 X-25.4098 Y24.0305 F300.00
G01 X-25.4195 Y24.0319 F300.00
G01 X-25.4290 Y24.0343 F300.00
G01 X-25.4383 Y24.0376 F300.00
G01 X-25.4471 Y24.0418 F300.00
G01 X-25.4556 Y24.0469 F300.00
G01 X-25.4634 Y24.0527 F300.00
G01 X-25.4707 Y24.0593 F300.00
G01 X-25.4773 Y24.0666 F300.00
G01 X-25.4831 Y24.0744 F300.00
G01 X-25.4882 Y24.0829 F300.00
G01 X-25.4924 Y24.0917 F300.00
G01 X-25.4957 Y24.1010 F300.00
G01 X-25.4981 Y24.1105 F300.00
G01 X-25.4995 Y24.1202 F300.00
G01 X-25.5000 Y24.1300 F300.00
G01 X-25.4995 Y24.1398 F300.00
G01 X-25.4981 Y24.1495 F300.00
G01 X-25.4957 Y24.1590 F300.00
G01 X-25.4924 Y24.1683 F300.00
G01 X-25.4882 Y24.1771 F300.00
G01 X-25.4831 Y24.1856 F300.00
G01 X-25.4773 Y24.1934 F300.00
G01 X-25.4707 Y24.2007 F300.00
G01 X-25.4634 Y24.2073 F300.00
G01 X-25.4556 Y24.2131 F300.00
G01 X-25.4471 Y24.2182 F300.00
G01 X-25.4383 Y24.2224 F300.00
G01 X-25.4290 Y24.2257 F300.00
G01 X-25.4195 Y24.2281 F300.00
G01 X-25.4098 Y24.2295 F300.00
G01 X-25.4000 Y24.2300 F300.00
G01 X-25.3902 Y24.2295 F300.00
G01 X-25.3805 Y24.2281 F300.00
G01 X-25.3710 Y24.2257 F300.00
G01 X-25.3617 Y24.2224 F300.00
G01 X-25.3529 Y24.2182 F300.00
G01 X-25.3444 Y24.2131 F300.00
G01 X-25.3366 Y24.2073 F300.00
G01 X-25.3293 Y24.2007 F300.00
G01 X-25.3227 Y24.1934 F300.00
G01 X-25.3169 Y24.1856 F300.00
G01 X-25.3118 Y24.1771 F300.00
G01 X-25.3076 Y24.1683 F300.00
G01 X-25.3043 Y24.1590 F300.00
G01 X-25.3019 Y24.1495 F300.00
G01 X-25.3005 Y24.1398 F300.00
G01 X-25.3000 Y24.1300 F300.00
G00 X-25.3000 Y24.1300
G01 F60.00
G01 Z-2.0000
G01 F300.00
G01 X-25.3005 Y24.1202 F300.00
G01 X-25.3019 Y24.1105 F300.00
G01 X-25.3043 Y24.1010 F300.00
G01 X-25.3076 Y24.0917 F300.00
G01 X-25.3118 Y24.0829 F300.00
G01 X-25.3169 Y24.0744 F300.00
G01 X-25.3227 Y24.0666 F300.00
G01 X-25.3293 Y24.0593 F300.00
G01 X-25.3366 Y24.0527 F300.00
G01 X-25.3444 Y24.0469 F300.00
G01 X-25.3529 Y24.0418 F300.00
G01 X-25.3617 Y24.0376 F300.00
G01 X-25.3710 Y24.0343 F300.00
G01 X-25.3805 Y24.0319 F300.00
G01 X-25.3902 Y24.0305 F300.00
G01 X-25.4000 Y24.0300 F300.00
G01 X-25.4098 Y24.0305 F300.00
G01 X-25.4195 Y24.0319 F300.00
G01 X-25.4290 Y24.0343 F300.00
G01 X-25.4383 Y24.0376 F300.00
G01 X-25.4471 Y24.0418 F300.00
G01 X-25.4556 Y24.0469 F300.00
G01 X-25.4634 Y24.0527 F300.00
G01 X-25.4707 Y24.0593 F300.00
G01 X-25.4773 Y24.0666 F300.00
G01 X-25.4831 Y24.0744 F300.00
G01 X-25.4882 Y24.0829 F300.00
G01 X-25.4924 Y24.0917 F300.00
G01 X-25.4957 Y24.1010 F300.00
G01 X-25.4981 Y24.1105 F300.00
G01 X-25.4995 Y24.1202 F300.00
G01 X-25.5000 Y24.1300 F300.00
G01 X-25.4995 Y24.1398 F300.00
G01 X-25.4981 Y24.1495 F300.00
G01 X-25.4957 Y24.1590 F300.00
G01 X-25.4924 Y24.1683 F300.00
G01 X-25.4882 Y24.1771 F300.00
G01 X-25.4831 Y24.1856 F300.00
G01 X-25.4773 Y24.1934 F300.00
G01 X-25.4707 Y24.2007 F300.00
G01 X-25.4634 Y24.2073 F300.00
G01 X-25.4556 Y24.2131 F300.00
G01 X-25.4471 Y24.2182 F300.00
G01 X-25.4383 Y24.2224 F300.00
G01 X-25.4290 Y24.2257 F300.00
G01 X-25.4195 Y24.2281 F300.00
G01 X-25.4098 Y24.2295 F300.00
G01 X-25.4000 Y24.2300 F300.00
G01 X-25.3902 Y24.2295 F300.00
G01 X-25.3805 Y24.2281 F300.00
G01 X-25.3710 Y24.2257 F300.00
G01 X-25.3617 Y24.2224 F300.00
G01 X-25.3529 Y24.2182 F300.00
G01 X-25.3444 Y24.2131 F300.00
G01 X-25.3366 Y24.2073 F300.00
G01 X-25.3293 Y24.2007 F300.00
G01 X-25.3227 Y24.1934 F300.00
G01 X-25.3169 Y24.1856 F300.00
G01 X-25.3118 Y24.1771 F300.00
G01 X-25.3076 Y24.1683 F300.00
G01 X-25.3043 Y24.1590 F300.00
G01 X-25.3019 Y24.1495 F300.00
G01 X-25.3005 Y24.1398 F300.00
G01 X-25.3000 Y24.1300 F300.00
G00 Z0.5000
G00 X-25.3000 Y26.6700
G01 F60.00
G01 Z-1.0000
G01 F300.00
G01 X-25.3005 Y26.6602 F300.00
G01 X-25.3019 Y26.6505 F300.00
G01 X-25.3043 Y26.6410 F300.00
G01 X-25.3076 Y26.6317 F300.00
G01 X-25.3118 Y26.6229 F300.00
G01 X-25.3169 Y26.6144 F300.00
G01 X-25.3227 Y26.6066 F300.00
G01 X-25.3293 Y26.5993 F300.00
G01 X-25.3366 Y26.5927 F300.00
G01 X-25.3444 Y26.5869 F300.00
G01 X-25.3529 Y26.5818 F300.00
G01 X-25.3617 Y26.5776 F300.00
G01 X-25.3710 Y26.5743 F300.00
G01 X-25.3805 Y26.5719 F300.00
G01 X-25.3902 Y26.5705 F300.00
G01 X-25.4000 Y26.5700 F300.00
G01 X-25.4098 Y26.5705 F300.00
G01 X-25.4195 Y26.5719 F300.00
G01 X-25.4290 Y26.5743 F300.00
G01 X-25.4383 Y26.5776 F300.00
G01 X-25.4471 Y26.5818 F300.00
G01 X-25.4556 Y26.5869 F300.00
G01 X-25.4634 Y26.5927 F300.00
G01 X-25.4707 Y26.5993 F300.00
G01 X-25.4773 Y26.6066 F300.00
G01 X-25.4831 Y26.6144 F300.00
G01 X-25.4882 Y26.6229 F300.00
G01 X-25.4924 Y26.6317 F300.00
G01 X-25.4957 Y26.6410 F300.00
G01 X-25.4981 Y26.6505 F300.00
G01 X-25.4995 Y26.6602 F300.00
G01 X-25.5000 Y26.6700 F300.00
G01 X-25.4995 Y26.6798 F300.00
G01 X-25.4981 Y26.6895 F300.00
G01 X-25.4957 Y26.6990 F300.00
G01 X-25.4924 Y26.7083 F300.00
G01 X-25.4882 Y26.7171 F300.00
G01 X-25.4831 Y26.7256 F300.00
G01 X-25.4773 Y26.7334 F300.00
G01 X-25.4707 Y26.7407 F300.00
G01 X-25.4634 Y26.7473 F300.00
G01 X-25.4556 Y26.7531 F300.00
G01 X-25.4471 Y26.7582 F300.00
G01 X-25.4383 Y26.7624 F300.00
G01 X-25.4290 Y26.7657 F300.00
G01 X-25.4195 Y26.7681 F300.00
G01 X-25.4098 Y26.7695 F300.00
G01 X-25.4000 Y26.7700 F300.00
G01 X-25.3902 Y26.7695 F300.00
G01 X-25.3805 Y26.7681 F300.00
G01 X-25.3710 Y26.7657 F300.00
G01 X-25.3617 Y26.7624 F300.00
G01 X-25.3529 Y26.7582 F300.00
G01 X-25.3444 Y26.7531 F300.00
G01 X-25.3366 Y26.7473 F300.00
G01 X-25.3293 Y26.7407 F300.00
G01 X-25.3227 Y26.7334 F300.00
G01 X-25.3169 Y26.7256 F300.00
G01 X-25.3118 Y26.7171 F300.00
G01 X-25.3076 Y26.7083 F300.00
G01 X-25.3043 Y26.6990 F300.00
G01 X-25.3019 Y26.6895 F300.00
G01 X-25.3005 Y26.6798 F300.00
G01 X-25.3000 Y26.6700 F300.00
G00 X-25.3000 Y26.6700
G01 F60.00
G01 Z-2.0000
G01 F300.00
G01 X-25.3005 Y26.6602 F300.00
G01 X-25.3019 Y26.6505 F300.00
G01 X-25.3043 Y26.6410 F300.00
G01 X-25.3076 Y26.6317 F300.00
G01 X-25.3118 Y26.6229 F300.00
G01 X-25.3169 Y26.6144 F300.00
G01 X-25.3227 Y26.6066 F300.00
G01 X-25.3293 Y26.5993 F300.00
G01 X-25.3366 Y26.5927 F300.00
G01 X-25.3444 Y26.5869 F300.00
G01 X-25.3529 Y26.5818 F300.00
G01 X-25.3617 Y26.5776 F300.00
G01 X-25.3710 Y26.5743 F300.00
G01 X-25.3805 Y26.5719 F300.00
G01 X-25.3902 Y26.5705 F300.00
G01 X-25.4000 Y26.5700 F300.00
G01 X-25.4098 Y26.5705 F300.00
G01 X-25.4195 Y26.5719 F300.00
G01 X-25.4290 Y26.5743 F300.00
G01 X-25.4383 Y26.5776 F300.00
G01 X-25.4471 Y26.5818 F300.00
G01 X-25.4556 Y26.5869 F300.00
G01 X-25.4634 Y26.5927 F300.00
G01 X-25.4707 Y26.5993 F300.00
G01 X-25.4773 Y26.6066 F300.00
G01 X-25.4831 Y26.6144 F300.00
G01 X-25.4882 Y26.6229 F300.00
G01 X-25.4924 Y26.6317 F300.00
G01 X-25.4957 Y26.6410 F300.00
G01 X-25.4981 Y26.6505 F300.00
G01 X-25.4995 Y26.6602 F300.00
G01 X-25.5000 Y26.6700 F300.00
G01 X-25.4995 Y26.6798 F300.00
G01 X-25.4981 Y26.6895 F300.00
G01 X-25.4957 Y26.6990 F300.00
G01 X-25.4924 Y26.7083 F300.00
G01 X-25.4882 Y26.7171 F300.00
G01 X-25.4831 Y26.7256 F300.00
G01 X-25.4773 Y26.7334 F300.00
G01 X-25.4707 Y26.7407 F300.00
G01 X-25.4634 Y26.7473 F300.00
G01 X-25.4556 Y26.7531 F300.00
G01 X-25.4471 Y26.7582 F300.00
G01 X-25.4383 Y26.7624 F300.00
G01 X-25.4290 Y26.7657 F300.00
G01 X-25.4195 Y26.7681 F300.00
G01 X-25.4098 Y26.7695 F300.00
G01 X-25.4000 Y26.7700 F300.00
G01 X-25.3902 Y26.7695 F300.00
G01 X-25.3805 Y26.7681 F300.00
G01 X-25.3710 Y26.7657 F300.00
G01 X-25.3617 Y26.7624 F300.00
G01 X-25.3529 Y26.7582 F300.00
G01 X-25.3444 Y26.7531 F300.00
G01 X-25.3366 Y26.7473 F300.00
G01 X-25.3293 Y26.7407 F300.00
G01 X-25.3227 Y26.7334 F300.00
G01 X-25.3169 Y26.7256 F300.00
G01 X-25.3118 Y26.7171 F300.00
G01 X-25.3076 Y26.7083 F300.00
G01 X-25.3043 Y26.6990 F300.00
G01 X-25.3019 Y26.6895 F300.00
G01 X-25.3005 Y26.6798 F300.00
G01 X-25.3000 Y26.6700 F300.00
G00 Z0.5000
G00 X-25.3000 Y29.2100
G01 F60.00
G01 Z-1.0000
G01 F300.00
G01 X-25.3005 Y29.2002 F300.00
G01 X-25.3019 Y29.1905 F300.00
G01 X-25.3043 Y29.1810 F300.00
G01 X-25.3076 Y29.1717 F300.00
G01 X-25.3118 Y29.1629 F300.00
G01 X-25.3169 Y29.1544 F300.00
G01 X-25.3227 Y29.1466 F300.00
G01 X-25.3293 Y29.1393 F300.00
G01 X-25.3366 Y29.1327 F300.00
G01 X-25.3444 Y29.1269 F300.00
G01 X-25.3529 Y29.1218 F300.00
G01 X-25.3617 Y29.1176 F300.00
G01 X-25.3710 Y29.1143 F300.00
G01 X-25.3805 Y29.1119 F300.00
G01 X-25.3902 Y29.1105 F300.00
G01 X-25.4000 Y29.1100 F300.00
G01 X-25.4098 Y29.1105 F300.00
G01 X-25.4195 Y29.1119 F300.00
G01 X-25.4290 Y29.1143 F300.00
G01 X-25.4383 Y29.1176 F300.00
G01 X-25.4471 Y29.1218 F300.00
G01 X-25.4556 Y29.1269 F300.00
G01 X-25.4634 Y29.1327 F300.00
G01 X-25.4707 Y29.1393 F300.00
G01 X-25.4773 Y29.1466 F300.00
G01 X-25.4831 Y29.1544 F300.00
G01 X-25.4882 Y29.1629 F300.00
G01 X-25.4924 Y29.1717 F300.00
G01 X-25.4957 Y29.1810 F300.00
G01 X-25.4981 Y29.1905 F300.00
G01 X-25.4995 Y29.2002 F300.00
G01 X-25.5000 Y29.2100 F300.00
G01 X-25.4995 Y29.2198 F300.00
G01 X-25.4981 Y29.2295 F300.00
G01 X-25.4957 Y29.2390 F300.00
G01 X-25.4924 Y29.2483 F300.00
G01 X-25.4882 Y29.2571 F300.00
G01 X-25.4831 Y29.2656 F300.00
G01 X-25.4773 Y29.2734 F300.00
G01 X-25.4707 Y29.2807 F300.00
G01 X-25.4634 Y29.2873 F300.00
G01 X-25.4556 Y29.2931 F300.00
G01 X-25.4471 Y29.2982 F300.00
G01 X-25.4383 Y29.3024 F300.00
G01 X-25.4290 Y29.3057 F300.00
G01 X-25.4195 Y29.3081 F300.00
G01 X-25.4098 Y29.3095 F300.00
G01 X-25.4000 Y29.3100 F300.00
G01 X-25.3902 Y29.3095 F300.00
G01 X-25.3805 Y29.3081 F300.00
G01 X-25.3710 Y29.3057 F300.00
G01 X-25.3617 Y29.3024 F300.00
G01 X-25.3529 Y29.2982 F300.00
G01 X-25.3444 Y29.2931 F300.00
G01 X-25.3366 Y29.2873 F300.00
G01 X-25.3293 Y29.2807 F300.00
G01 X-25.3227 Y29.2734 F300.00
G01 X-25.3169 Y29.2656 F300.00
G01 X-25.3118 Y29.2571 F300.00
G01 X-25.3076 Y29.2483 F300.00
G01 X-25.3043 Y29.2390 F300.00
G01 X-25.3019 Y29.2295 F300.00
G01 X-25.3005 Y29.2198 F300.00
G01 X-25.3000 Y29.2100 F300.00
G00 X-25.3000 Y29.2100
G01 F60.00
G01 Z-2.0000
G01 F300.00
G01 X-25.3005 Y29.2002 F300.00
G01 X-25.3019 Y29.1905 F300.00
G01 X-25.3043 Y29.1810 F300.00
G01 X-25.3076 Y29.1717 F300.00
G01 X-25.3118 Y29.1629 F300.00
G01 X-25.3169 Y29.1544 F300.00
G01 X-25.3227 Y29.1466 F300.00
G01 X-25.3293 Y29.1393 F300.00
G01 X-25.3366 Y29.1327 F300.00
G01 X-25.3444 Y29.1269 F300.00
G01 X-25.3529 Y29.1218 F300.00
G01 X-25.3617 Y29.1176 F300.00
G01 X-25.3710 Y29.1143 F300.00
G01 X-25.3805 Y29.1119 F300.00
G01 X-25.3902 Y29.1105 F300.00
G01 X-25.4000 Y29.1100 F300.00
G01 X-25.4098 Y29.1105 F300.00
G01 X-25.4195 Y29.1119 F300.00
G01 X-25.4290 Y29.1143 F300.00
G01 X-25.4383 Y29.1176 F300.00
G01 X-25.4471 Y29.1218 F300.00
G01 X-25.4556 Y29.1269 F300.00
G01 X-25.4634 Y29.1327 F300.00
G01 X-25.4707 Y29.1393 F300.00
G01 X-25.4773 Y29.1466 F300.00
G01 X-25.4831 Y29.1544 F300.00
G01 X-25.4882 Y29.1629 F300.00
G01 X-25.4924 Y29.1717 F300.00
G01 X-25.4957 Y29.1810 F300.00
G01 X-25.4981 Y29.1905 F300.00
G01 X-25.4995 Y29.2002 F300.00
G01 X-25.5000 Y29.2100 F300.00
G01 X-25.4995 Y29.2198 F300.00
G01 X-25.4981 Y29.2295 F300.00
G01 X-25.4957 Y29.2390 F300.00
G01 X-25.4924 Y29.2483 F300.00
G01 X-25.4882 Y29.2571 F300.00
G01 X-25.4831 Y29.2656 F300.00
G01 X-25.4773 Y29.2734 F300.00
G01 X-25.4707 Y29.2807 F300.00
G01 X-25.4634 Y29.2873 F300.00
G01 X-25.4556 Y29.2931 F300.00
G01 X-25.4471 Y29.2982 F300.00
G01 X-25.4383 Y29.3024 F300.00
G01 X-25.4290 Y29.3057 F300.00
G01 X-25.4195 Y29.3081 F300.00
G01 X-25.4098 Y29.3095 F300.00
G01 X-25.4000 Y29.3100 F300.00
G01 X-25.3902 Y29.3095 F300.00
G01 X-25.3805 Y29.3081 F300.00
G01 X-25.3710 Y29.3057 F300.00
G01 X-25.3617 Y29.3024 F300.00
G01 X-25.3529 Y29.2982 F300.00
G01 X-25.3444 Y29.2931 F300.00
G01 X-25.3366 Y29.2873 F300.00
G01 X-25.3293 Y29.2807 F300.00
G01 X-25.3227 Y29.2734 F300.00
G01 X-25.3169 Y29.2656 F300.00
G01 X-25.3118 Y29.2571 F300.00
G01 X-25.3076 Y29.2483 F300.00
G01 X-25.3043 Y29.2390 F300.00
G01 X-25.3019 Y29.2295 F300.00
G01 X-25.3005 Y29.2198 F300.00
G01 X-25.3000 Y29.2100 F300.00
G00 Z0.5000
G00 X-25.3000 Y31.7500
G01 F60.00
G01 Z-1.0000
G01 F300.00
G01 X-25.3005 Y31.7402 F300.00
G01 X-25.3019 Y31.7305 F300.00
G01 X-25.3043 Y31.7210 F300.00
G01 X-25.3076 Y31.7117 F300.00
G01 X-25.3118 Y31.7029 F300.00
G01 X-25.3169 Y31.6944 F300.00
G01 X-25.3227 Y31.6866 F300.00
G01 X-25.3293 Y31.6793 F300.00
G01 X-25.3366 Y31.6727 F300.00
G01 X-25.3444 Y31.6669 F300.00
G01 X-25.3529 Y31.6618 F300.00
G01 X-25.3617 Y31.6576 F300.00
G01 X-25.3710 Y31.6543 F300.00
G01 X-25.3805 Y31.6519 F300.00
G01 X-25.3902 Y31.6505 F300.00
G01 X-25.4000 Y31.6500 F300.00
G01 X-25.4098 Y31.6505 F300.00
G01 X-25.4195 Y31.6519 F300.00
G01 X-25.4290 Y31.6543 F300.00
G01 X-25.4383 Y31.6576 F300.00
G01 X-25.4471 Y31.6618 F300.00
G01 X-25.4556 Y31.6669 F300.00
G01 X-25.4634 Y31.6727 F300.00
G01 X-25.4707 Y31.6793 F300.00
G01 X-25.4773 Y31.6866 F300.00
G01 X-25.4831 Y31.6944 F300.00
G01 X-25.4882 Y31.7029 F300.00
G01 X-25.4924 Y31.7117 F300.00
G01 X-25.4957 Y31.7210 F300.00
G01 X-25.4981 Y31.7305 F300.00
G01 X-25.4995 Y31.7402 F300.00
G01 X-25.5000 Y31.7500 F300.00
G01 X-25.4995 Y31.7598 F300.00
G01 X-25.4981 Y31.7695 F300.00
G01 X-25.4957 Y31.7790 F300.00
G01 X-25.4924 Y31.7883 F300.00
G01 X-25.4882 Y31.7971 F300.00
G01 X-25.4831 Y31.8056 F300.00
G01 X-25.4773 Y31.8134 F300.00
G01 X-25.4707 Y31.8207 F300.00
G01 X-25.4634 Y31.8273 F300.00
G01 X-25.4556 Y31.8331 F300.00
G01 X-25.4471 Y31.8382 F300.00
G01 X-25.4383 Y31.8424 F300.00
G01 X-25.4290 Y31.8457 F300.00
G01 X-25.4195 Y31.8481 F300.00
G01 X-25.4098 Y31.8495 F300.00
G01 X-25.4000 Y31.8500 F300.00
G01 X-25.3902 Y31.8495 F300.00
G01 X-25.3805 Y31.8481 F300.00
G01 X-25.3710 Y31.8457 F300.00
G01 X-25.3617 Y31.8424 F300.00
G01 X-25.3529 Y31.8382 F300.00
G01 X-25.3444 Y31.8331 F300.00
G01 X-25.3366 Y31.8273 F300.00
G01 X-25.3293 Y31.8207 F300.00
G01 X-25.3227 Y31.8134 F300.00
G01 X-25.3169 Y31.8056 F300.00
G01 X-25.3118 Y31.7971 F300.00
G01 X-25.3076 Y31.7883 F300.00
G01 X-25.3043 Y31.7790 F300.00
G01 X-25.3019 Y31.7695 F300.00
G01 X-25.3005 Y31.7598 F300.00
G01 X-25.3000 Y31.7500 F300.00
G00 X-25.3000 Y31.7500
G01 F60.00
G01 Z-2.0000
G01 F300.00
G01 X-25.3005 Y31.7402 F300.00
G01 X-25.3019 Y31.7305 F300.00
G01 X-25.3043 Y31.7210 F300.00
G01 X-25.3076 Y31.7117 F300.00
G01 X-25.3118 Y31.7029 F300.00
G01 X-25.3169 Y31.6944 F300.00
G01 X-25.3227 Y31.6866 F300.00
G01 X-25.3293 Y31.6793 F300.00
G01 X-25.3366 Y31.6727 F300.00
G01 X-25.3444 Y31.6669 F300.00
G01 X-25.3529 Y31.6618 F300.00
G01 X-25.3617 Y31.6576 F300.00
G01 X-25.3710 Y31.6543 F300.00
G01 X-25.3805 Y31.6519 F300.00
G01 X-25.3902 Y31.6505 F300.00
G01 X-25.4000 Y31.6500 F300.00
G01 X-25.4098 Y31.6505 F300.00
G01 X-25.4195 Y31.6519 F300.00
G01 X-25.4290 Y31.6543 F300.00
G01 X-25.4383 Y31.6576 F300.00
G01 X-25.4471 Y31.6618 F300.00
G01 X-25.4556 Y31.6669 F300.00
G01 X-25.4634 Y31.6727 F300.00
G01 X-25.4707 Y31.6793 F300.00
G01 X-25.4773 Y31.6866 F300.00
G01 X-25.4831 Y31.6944 F300.00
G01 X-25.4882 Y31.7029 F300.00
G01 X-25.4924 Y31.7117 F300.00
G01 X-25.4957 Y31.7210 F300.00
G01 X-25.4981 Y31.7305 F300.00
G01 X-25.4995 Y31.7402 F300.00
G01 X-25.5000 Y31.7500 F300.00
G01 X-25.4995 Y31.7598 F300.00
G01 X-25.4981 Y31.7695 F300.00
G01 X-25.4957 Y31.7790 F300.00
G01 X-25.4924 Y31.7883 F300.00
G01 X-25.4882 Y31.7971 F300.00
G01 X-25.4831 Y31.8056 F300.00
G01 X-25.4773 Y31.8134 F300.00
G01 X-25.4707 Y31.8207 F300.00
G01 X-25.4634 Y31.8273 F300.00
G01 X-25.4556 Y31.8331 F300.00
G01 X-25.4471 Y31.8382 F300.00
G01 X-25.4383 Y31.8424 F300.00
G01 X-25.4290 Y31.8457 F300.00
G01 X-25.4195 Y31.8481 F300.00
G01 X-25.4098 Y31.8495 F300.00
G01 X-25.4000 Y31.8500 F300.00
G01 X-25.3902 Y31.8495 F300.00
G01 X-25.3805 Y31.8481 F300.00
G01 X-25.3710 Y31.8457 F300.00
G01 X-25.3617 Y31.8424 F300.00
G01 X-25.3529 Y31.8382 F300.00
G01 X-25.3444 Y31.8331 F300.00
G01 X-25.3366 Y31.8273 F300.00
G01 X-25.3293 Y31.8207 F300.00
G01 X-25.3227 Y31.8134 F300.00
G01 X-25.3169 Y31.8056 F300.00
G01 X-25.3118 Y31.7971 F300.00
G01 X-25.3076 Y31.7883 F300.00
G01 X-25.3043 Y31.7790 F300.00
G01 X-25.3019 Y31.7695 F300.00
G01 X-25.3005 Y31.7598 F300.00
G01 X-25.3000 Y31.7500 F300.00
G00 Z0.5000
G00 X-25.3000 Y34.2900
G01 F60.00
G01 Z-1.0000
G01 F300.00
G01 X-25.3005 Y34.2802 F300.00
G01 X-25.3019 Y34.2705 F300.00
G01 X-25.3043 Y34.2610 F300.00
G01 X-25.3076 Y34.2517 F300.00
G01 X-25.3118 Y34.2429 F300.00
G01 X-25.3169 Y34.2344 F300.00
G01 X-25.3227 Y34.2266 F300.00
G01 X-25.3293 Y34.2193 F300.00
G01 X-25.3366 Y34.2127 F300.00
G01 X-25.3444 Y34.2069 F300.00
G01 X-25.3529 Y34.2018 F300.00
G01 X-25.3617 Y34.1976 F300.00
G01 X-25.3710 Y34.1943 F300.00
G01 X-25.3805 Y34.1919 F300.00
G01 X-25.3902 Y34.1905 F300.00
G01 X-25.4000 Y34.1900 F300.00
G01 X-25.4098 Y34.1905 F300.00
G01 X-25.4195 Y34.1919 F300.00
G01 X-25.4290 Y34.1943 F300.00
G01 X-25.4383 Y34.1976 F300.00
G01 X-25.4471 Y34.2018 F300.00
G01 X-25.4556 Y34.2069 F300.00
G01 X-25.4634 Y34.2127 F300.00
G01 X-25.4707 Y34.2193 F300.00
G01 X-25.4773 Y34.2266 F300.00
G01 X-25.4831 Y34.2344 F300.00
G01 X-25.4882 Y34.2429 F300.00
G01 X-25.4924 Y34.2517 F300.00
G01 X-25.4957 Y34.2610 F300.00
G01 X-25.4981 Y34.2705 F300.00
G01 X-25.4995 Y34.2802 F300.00
G01 X-25.5000 Y34.2900 F300.00
G01 X-25.4995 Y34.2998 F300.00
G01 X-25.4981 Y34.3095 F300.00
G01 X-25.4957 Y34.3190 F300.00
G01 X-25.4924 Y34.3283 F300.00
G01 X-25.4882 Y34.3371 F300.00
G01 X-25.4831 Y34.3456 F300.00
G01 X-25.4773 Y34.3534 F300.00
G01 X-25.4707 Y34.3607 F300.00
G01 X-25.4634 Y34.3673 F300.00
G01 X-25.4556 Y34.3731 F300.00
G01 X-25.4471 Y34.3782 F300.00
G01 X-25.4383 Y34.3824 F300.00
G01 X-25.4290 Y34.3857 F300.00
G01 X-25.4195 Y34.3881 F300.00
G01 X-25.4098 Y34.3895 F300.00
G01 X-25.4000 Y34.3900 F300.00
G01 X-25.3902 Y34.3895 F300.00
G01 X-25.3805 Y34.3881 F300.00
G01 X-25.3710 Y34.3857 F300.00
G01 X-25.3617 Y34.3824 F300.00
G01 X-25.3529 Y34.3782 F300.00
G01 X-25.3444 Y34.3731 F300.00
G01 X-25.3366 Y34.3673 F300.00
G01 X-25.3293 Y34.3607 F300.00
G01 X-25.3227 Y34.3534 F300.00
G01 X-25.3169 Y34.3456 F300.00
G01 X-25.3118 Y34.3371 F300.00
G01 X-25.3076 Y34.3283 F300.00
G01 X-25.3043 Y34.3190 F300.00
G01 X-25.3019 Y34.3095 F300.00
G01 X-25.3005 Y34.2998 F300.00
G01 X-25.3000 Y34.2900 F300.00
G00 X-25.3000 Y34.2900
G01 F60.00
G01 Z-2.0000
G01 F300.00
G01 X-25.3005 Y34.2802 F300.00
G01 X-25.3019 Y34.2705 F300.00
G01 X-25.3043 Y34.2610 F300.00
G01 X-25.3076 Y34.2517 F300.00
G01 X-25.3118 Y34.2429 F300.00
G01 X-25.3169 Y34.2344 F300.00
G01 X-25.3227 Y34.2266 F300.00
G01 X-25.3293 Y34.2193 F300.00
G01 X-25.3366 Y34.2127 F300.00
G01 X-25.3444 Y34.2069 F300.00
G01 X-25.3529 Y34.2018 F300.00
G01 X-25.3617 Y34.1976 F300.00
G01 X-25.3710 Y34.1943 F300.00
G01 X-25.3805 Y34.1919 F300.00
G01 X-25.3902 Y34.1905 F300.00
G01 X-25.4000 Y34.1900 F300.00
G01 X-25.4098 Y34.1905 F300.00
G01 X-25.4195 Y34.1919 F300.00
G01 X-25.4290 Y34.1943 F300.00
G01 X-25.4383 Y34.1976 F300.00
G01 X-25.4471 Y34.2018 F300.00
G01 X-25.4556 Y34.2069 F300.00
G01 X-25.4634 Y34.2127 F300.00
G01 X-25.4707 Y34.2193 F300.00
G01 X-25.4773 Y34.2266 F300.00
G01 X-25.4831 Y34.2344 F300.00
G01 X-25.4882 Y34.2429 F300.00
G01 X-25.4924 Y34.2517 F300.00
G01 X-25.4957 Y34.2610 F300.00
G01 X-25.4981 Y34.2705 F300.00
G01 X-25.4995 Y34.2802 F300.00
G01 X-25.5000 Y34.2900 F300.00
G01 X-25.4995 Y34.2998 F300.00
G01 X-25.4981 Y34.3095 F300.00
G01 X-25.4957 Y34.3190 F300.00
G01 X-25.4924 Y34.3283 F300.00
G01 X-25.4882 Y34.3371 F300.00
G01 X-25.4831 Y34.3456 F300.00
G01 X-25.4773 Y34.3534 F300.00
G01 X-25.4707 Y34.3607 F300.00
G01 X-25.4634 Y34.3673 F300.00
G01 X-25.4556 Y34.3731 F300.00
G01 X-25.4471 Y34.3782 F300.00
G01 X-25.4383 Y34.3824 F300.00
G01 X-25.4290 Y34.3857 F300.00
G01 X-25.4195 Y34.3881 F300.00
G01 X-25.4098 Y34.3895 F300.00
G01 X-25.4000 Y34.3900 F300.00
G01 X-25.3902 Y34.3895 F300.00
G01 X-25.3805 Y34.3881 F300.00
G01 X-25.3710 Y34.3857 F300.00
G01 X-25.3617 Y34.3824 F300.00
G01 X-25.3529 Y34.3782 F300.00
G01 X-25.3444 Y34.3731 F300.00
G01 X-25.3366 Y34.3673 F300.00
G01 X-25.3293 Y34.3607 F300.00
G01 X-25.3227 Y34.3534 F300.00
G01 X-25.3169 Y34.3456 F300.00
G01 X-25.3118 Y34.3371 F300.00
G01 X-25.3076 Y34.3283 F300.00
G01 X-25.3043 Y34.3190 F300.00
G01 X-25.3019 Y34.3095 F300.00
G01 X-25.3005 Y34.2998 F300.00
G01 X-25.3000 Y34.2900 F300.00
G00 Z0.5000
G00 X-25.3000 Y36.8300
G01 F60.00
G01 Z-1.0000
G01 F300.00
G01 X-25.3005 Y36.8202 F300.00
G01 X-25.3019 Y36.8105 F300.00
G01 X-25.3043 Y36.8010 F300.00
G01 X-25.3076 Y36.7917 F300.00
G01 X-25.3118 Y36.7829 F300.00
G01 X-25.3169 Y36.7744 F300.00
G01 X-25.3227 Y36.7666 F300.00
G01 X-25.3293 Y36.7593 F300.00
G01 X-25.3366 Y36.7527 F300.00
G01 X-25.3444 Y36.7469 F300.00
G01 X-25.3529 Y36.7418 F300.00
G01 X-25.3617 Y36.7376 F300.00
G01 X-25.3710 Y36.7343 F300.00
G01 X-25.3805 Y36.7319 F300.00
G01 X-25.3902 Y36.7305 F300.00
G01 X-25.4000 Y36.7300 F300.00
G01 X-25.4098 Y36.7305 F300.00
G01 X-25.4195 Y36.7319 F300.00
G01 X-25.4290 Y36.7343 F300.00
G01 X-25.4383 Y36.7376 F300.00
G01 X-25.4471 Y36.7418 F300.00
G01 X-25.4556 Y36.7469 F300.00
G01 X-25.4634 Y36.7527 F300.00
G01 X-25.4707 Y36.7593 F300.00
G01 X-25.4773 Y36.7666 F300.00
G01 X-25.4831 Y36.7744 F300.00
G01 X-25.4882 Y36.7829 F300.00
G01 X-25.4924 Y36.7917 F300.00
G01 X-25.4957 Y36.8010 F300.00
G01 X-25.4981 Y36.8105 F300.00
G01 X-25.4995 Y36.8202 F300.00
G01 X-25.5000 Y36.8300 F300.00
G01 X-25.4995 Y36.8398 F300.00
G01 X-25.4981 Y36.8495 F300.00
G01 X-25.4957 Y36.8590 F300.00
G01 X-25.4924 Y36.8683 F300.00
G01 X-25.4882 Y36.8771 F300.00
G01 X-25.4831 Y36.8856 F300.00
G01 X-25.4773 Y36.8934 F300.00
G01 X-25.4707 Y36.9007 F300.00
G01 X-25.4634 Y36.9073 F300.00
G01 X-25.4556 Y36.9131 F300.00
G01 X-25.4471 Y36.9182 F300.00
G01 X-25.4383 Y36.9224 F300.00
G01 X-25.4290 Y36.9257 F300.00
G01 X-25.4195 Y36.9281 F300.00
G01 X-25.4098 Y36.9295 F300.00
G01 X-25.4000 Y36.9300 F300.00
G01 X-25.3902 Y36.9295 F300.00
G01 X-25.3805 Y36.9281 F300.00
G01 X-25.3710 Y36.9257 F300.00
G01 X-25.3617 Y36.9224 F300.00
G01 X-25.3529 Y36.9182 F300.00
G01 X-25.3444 Y36.9131 F300.00
G01 X-25.3366 Y36.9073 F300.00
G01 X-25.3293 Y36.9007 F300.00
G01 X-25.3227 Y36.8934 F300.00
G01 X-25.3169 Y36.8856 F300.00
G01 X-25.3118 Y36.8771 F300.00
G01 X-25.3076 Y36.8683 F300.00
G01 X-25.3043 Y36.8590 F300.00
G01 X-25.3019 Y36.8495 F300.00
G01 X-25.3005 Y36.8398 F300.00
G01 X-25.3000 Y36.8300 F300.00
G00 X-25.3000 Y36.8300
G01 F60.00
G01 Z-2.0000
G01 F300.00
G01 X-25.3005 Y36.8202 F300.00
G01 X-25.3019 Y36.8105 F300.00
G01 X-25.3043 Y36.8010 F300.00
G01 X-25.3076 Y36.7917 F300.00
G01 X-25.3118 Y36.7829 F300.00
G01 X-25.3169 Y36.7744 F300.00
G01 X-25.3227 Y36.7666 F300.00
G01 X-25.3293 Y36.7593 F300.00
G01 X-25.3366 Y36.7527 F300.00
G01 X-25.3444 Y36.7469 F300.00
G01 X-25.3529 Y36.7418 F300.00
G01 X-25.3617 Y36.7376 F300.00
G01 X-25.3710 Y36.7343 F300.00
G01 X-25.3805 Y36.7319 F300.00
G01 X-25.3902 Y36.7305 F300.00
G01 X-25.4000 Y36.7300 F300.00
G01 X-25.4098 Y36.7305 F300.00
G01 X-25.4195 Y36.7319 F300.00
G01 X-25.4290 Y36.7343 F300.00
G01 X-25.4383 Y36.7376 F300.00
G01 X-25.4471 Y36.7418 F300.00
G01 X-25.4556 Y36.7469 F300.00
G01 X-25.4634 Y36.7527 F300.00
G01 X-25.4707 Y36.7593 F300.00
G01 X-25.4773 Y36.7666 F300.00
G01 X-25.4831 Y36.7744 F300.00
G01 X-25.4882 Y36.7829 F300.00
G01 X-25.4924 Y36.7917 F300.00
G01 X-25.4957 Y36.8010 F300.00
G01 X-25.4981 Y36.8105 F300.00
G01 X-25.4995 Y36.8202 F300.00
G01 X-25.5000 Y36.8300 F300.00
G01 X-25.4995 Y36.8398 F300.00
G01 X-25.4981 Y36.8495 F300.00
G01 X-25.4957 Y36.8590 F300.00
G01 X-25.4924 Y36.8683 F300.00
G01 X-25.4882 Y36.8771 F300.00
G01 X-25.4831 Y36.8856 F300.00
G01 X-25.4773 Y36.8934 F300.00
G01 X-25.4707 Y36.9007 F300.00
G01 X-25.4634 Y36.9073 F300.00
G01 X-25.4556 Y36.9131 F300.00
G01 X-25.4471 Y36.9182 F300.00
G01 X-25.4383 Y36.9224 F300.00
G01 X-25.4290 Y36.9257 F300.00
G01 X-25.4195 Y36.9281 F300.00
G01 X-25.4098 Y36.9295 F300.00
G01 X-25.4000 Y36.9300 F300.00
G01 X-25.3902 Y36.9295 F300.00
G01 X-25.3805 Y36.9281 F300.00
G01 X-25.3710 Y36.9257 F300.00
G01 X-25.3617 Y36.9224 F300.00
G01 X-25.3529 Y36.9182 F300.00
G01 X-25.3444 Y36.9131 F300.00
G01 X-25.3366 Y36.9073 F300.00
G01 X-25.3293 Y36.9007 F300.00
G01 X-25.3227 Y36.8934 F300.00
G01 X-25.3169 Y36.8856 F300.00
G01 X-25.3118 Y36.8771 F300.00
G01 X-25.3076 Y36.8683 F300.00
G01 X-25.3043 Y36.8590 F300.00
G01 X-25.3019 Y36.8495 F300.00
G01 X-25.3005 Y36.8398 F300.00
G01 X-25.3000 Y36.8300 F300.00
G00 Z0.5000
G00 X-25.3000 Y39.3700
G01 F60.00
G01 Z-1.0000
G01 F300.00
G01 X-25.3005 Y39.3602 F300.00
G01 X-25.3019 Y39.3505 F300.00
G01 X-25.3043 Y39.3410 F300.00
G01 X-25.3076 Y39.3317 F300.00
G01 X-25.3118 Y39.3229 F300.00
G01 X-25.3169 Y39.3144 F300.00
G01 X-25.3227 Y39.3066 F300.00
G01 X-25.3293 Y39.2993 F300.00
G01 X-25.3366 Y39.2927 F300.00
G01 X-25.3444 Y39.2869 F300.00
G01 X-25.3529 Y39.2818 F300.00
G01 X-25.3617 Y39.2776 F300.00
G01 X-25.3710 Y39.2743 F300.00
G01 X-25.3805 Y39.2719 F300.00
G01 X-25.3902 Y39.2705 F300.00
G01 X-25.4000 Y39.2700 F300.00
G01 X-25.4098 Y39.2705 F300.00
G01 X-25.4195 Y39.2719 F300.00
G01 X-25.4290 Y39.2743 F300.00
G01 X-25.4383 Y39.2776 F300.00
G01 X-25.4471 Y39.2818 F300.00
G01 X-25.4556 Y39.2869 F300.00
G01 X-25.4634 Y39.2927 F300.00
G01 X-25.4707 Y39.2993 F300.00
G01 X-25.4773 Y39.3066 F300.00
G01 X-25.4831 Y39.3144 F300.00
G01 X-25.4882 Y39.3229 F300.00
G01 X-25.4924 Y39.3317 F300.00
G01 X-25.4957 Y39.3410 F300.00
G01 X-25.4981 Y39.3505 F300.00
G01 X-25.4995 Y39.3602 F300.00
G01 X-25.5000 Y39.3700 F300.00
G01 X-25.4995 Y39.3798 F300.00
G01 X-25.4981 Y39.3895 F300.00
G01 X-25.4957 Y39.3990 F300.00
G01 X-25.4924 Y39.4083 F300.00
G01 X-25.4882 Y39.4171 F300.00
G01 X-25.4831 Y39.4256 F300.00
G01 X-25.4773 Y39.4334 F300.00
G01 X-25.4707 Y39.4407 F300.00
G01 X-25.4634 Y39.4473 F300.00
G01 X-25.4556 Y39.4531 F300.00
G01 X-25.4471 Y39.4582 F300.00
G01 X-25.4383 Y39.4624 F300.00
G01 X-25.4290 Y39.4657 F300.00
G01 X-25.4195 Y39.4681 F300.00
G01 X-25.4098 Y39.4695 F300.00
G01 X-25.4000 Y39.4700 F300.00
G01 X-25.3902 Y39.4695 F300.00
G01 X-25.3805 Y39.4681 F300.00
G01 X-25.3710 Y39.4657 F300.00
G01 X-25.3617 Y39.4624 F300.00
G01 X-25.3529 Y39.4582 F300.00
G01 X-25.3444 Y39.4531 F300.00
G01 X-25.3366 Y39.4473 F300.00
G01 X-25.3293 Y39.4407 F300.00
G01 X-25.3227 Y39.4334 F300.00
G01 X-25.3169 Y39.4256 F300.00
G01 X-25.3118 Y39.4171 F300.00
G01 X-25.3076 Y39.4083 F300.00
G01 X-25.3043 Y39.3990 F300.00
G01 X-25.3019 Y39.3895 F300.00
G01 X-25.3005 Y39.3798 F300.00
G01 X-25.3000 Y39.3700 F300.00
G00 X-25.3000 Y39.3700
G01 F60.00
G01 Z-2.0000
G01 F300.00
G01 X-25.3005 Y39.3602 F300.00
G01 X-25.3019 Y39.3505 F300.00
G01 X-25.3043 Y39.3410 F300.00
G01 X-25.3076 Y39.3317 F300.00
G01 X-25.3118 Y39.3229 F300.00
G01 X-25.3169 Y39.3144 F300.00
G01 X-25.3227 Y39.3066 F300.00
G01 X-25.3293 Y39.2993 F300.00
G01 X-25.3366 Y39.2927 F300.00
G01 X-25.3444 Y39.2869 F300.00
G01 X-25.3529 Y39.2818 F300.00
G01 X-25.3617 Y39.2776 F300.00
G01 X-25.3710 Y39.2743 F300.00
G01 X-25.3805 Y39.2719 F300.00
G01 X-25.3902 Y39.2705 F300.00
G01 X-25.4000 Y39.2700 F300.00
G01 X-25.4098 Y39.2705 F300.00
G01 X-25.4195 Y39.2719 F300.00
G01 X-25.4290 Y39.2743 F300.00
G01 X-25.4383 Y39.2776 F300.00
G01 X-25.4471 Y39.2818 F300.00
G01 X-25.4556 Y39.2869 F300.00
G01 X-25.4634 Y39.2927 F300.00
G01 X-25.4707 Y39.2993 F300.00
G01 X-25.4773 Y39.3066 F300.00
G01 X-25.4831 Y39.3144 F300.00
G01 X-25.4882 Y39.3229 F300.00
G01 X-25.4924 Y39.3317 F300.00
G01 X-25.4957 Y39.3410 F300.00
G01 X-25.4981 Y39.3505 F300.00
G01 X-25.4995 Y39.3602 F300.00
G01 X-25.5000 Y39.3700 F300.00
G01 X-25.4995 Y39.3798 F300.00
G01 X-25.4981 Y39.3895 F300.00
G01 X-25.4957 Y39.3990 F300.00
G01 X-25.4924 Y39.4083 F300.00
G01 X-25.4882 Y39.4171 F300.00
G01 X-25.4831 Y39.4256 F300.00
G01 X-25.4773 Y39.4334 F300.00
G01 X-25.4707 Y39.4407 F300.00
G01 X-25.4634 Y39.4473 F300.00
G01 X-25.4556 Y39.4531 F300.00
G01 X-25.4471 Y39.4582 F300.00
G01 X-25.4383 Y39.4624 F300.00
G01 X-25.4290 Y39.4657 F300.00
G01 X-25.4195 Y39.4681 F300.00
G01 X-25.4098 Y39.4695 F300.00
G01 X-25.4000 Y39.4700 F300.00
G01 X-25.3902 Y39.4695 F300.00
G01 X-25.3805 Y39.4681 F300.00
G01 X-25.3710 Y39.4657 F300.00
G01 X-25.3617 Y39.4624 F300.00
G01 X-25.3529 Y39.4582 F300.00
G01 X-25.3444 Y39.4531 F300.00
G01 X-25.3366 Y39.4473 F300.00
G01 X-25.3293 Y39.4407 F300.00
G01 X-25.3227 Y39.4334 F300.00
G01 X-25.3169 Y39.4256 F300.00
G01 X-25.3118 Y39.4171 F300.00
G01 X-25.3076 Y39.4083 F300.00
G01 X-25.3043 Y39.3990 F300.00
G01 X-25.3019 Y39.3895 F300.00
G01 X-25.3005 Y39.3798 F300.00
G01 X-25.3000 Y39.3700 F300.00
G00 Z0.5000
G00 X-25.3000 Y41.9100
G01 F60.00
G01 Z-1.0000
G01 F300.00
G01 X-25.3005 Y41.9002 F300.00
G01 X-25.3019 Y41.8905 F300.00
G01 X-25.3043 Y41.8810 F300.00
G01 X-25.3076 Y41.8717 F300.00
G01 X-25.3118 Y41.8629 F300.00
G01 X-25.3169 Y41.8544 F300.00
G01 X-25.3227 Y41.8466 F300.00
G01 X-25.3293 Y41.8393 F300.00
G01 X-25.3366 Y41.8327 F300.00
G01 X-25.3444 Y41.8269 F300.00
G01 X-25.3529 Y41.8218 F300.00
G01 X-25.3617 Y41.8176 F300.00
G01 X-25.3710 Y41.8143 F300.00
G01 X-25.3805 Y41.8119 F300.00
G01 X-25.3902 Y41.8105 F300.00
G01 X-25.4000 Y41.8100 F300.00
G01 X-25.4098 Y41.8105 F300.00
G01 X-25.4195 Y41.8119 F300.00
G01 X-25.4290 Y41.8143 F300.00
G01 X-25.4383 Y41.8176 F300.00
G01 X-25.4471 Y41.8218 F300.00
G01 X-25.4556 Y41.8269 F300.00
G01 X-25.4634 Y41.8327 F300.00
G01 X-25.4707 Y41.8393 F300.00
G01 X-25.4773 Y41.8466 F300.00
G01 X-25.4831 Y41.8544 F300.00
G01 X-25.4882 Y41.8629 F300.00
G01 X-25.4924 Y41.8717 F300.00
G01 X-25.4957 Y41.8810 F300.00
G01 X-25.4981 Y41.8905 F300.00
G01 X-25.4995 Y41.9002 F300.00
G01 X-25.5000 Y41.9100 F300.00
G01 X-25.4995 Y41.9198 F300.00
G01 X-25.4981 Y41.9295 F300.00
G01 X-25.4957 Y41.9390 F300.00
G01 X-25.4924 Y41.9483 F300.00
G01 X-25.4882 Y41.9571 F300.00
G01 X-25.4831 Y41.9656 F300.00
G01 X-25.4773 Y41.9734 F300.00
G01 X-25.4707 Y41.9807 F300.00
G01 X-25.4634 Y41.9873 F300.00
G01 X-25.4556 Y41.9931 F300.00
G01 X-25.4471 Y41.9982 F300.00
G01 X-25.4383 Y42.0024 F300.00
G01 X-25.4290 Y42.0057 F300.00
G01 X-25.4195 Y42.0081 F300.00
G01 X-25.4098 Y42.0095 F300.00
G01 X-25.4000 Y42.0100 F300.00
G01 X-25.3902 Y42.0095 F300.00
G01 X-25.3805 Y42.0081 F300.00
G01 X-25.3710 Y42.0057 F300.00
G01 X-25.3617 Y42.0024 F300.00
G01 X-25.3529 Y41.9982 F300.00
G01 X-25.3444 Y41.9931 F300.00
G01 X-25.3366 Y41.9873 F300.00
G01 X-25.3293 Y41.9807 F300.00
G01 X-25.3227 Y41.9734 F300.00
G01 X-25.3169 Y41.9656 F300.00
G01 X-25.3118 Y41.9571 F300.00
G01 X-25.3076 Y41.9483 F300.00
G01 X-25.3043 Y41.9390 F300.00
G01 X-25.3019 Y41.9295 F300.00
G01 X-25.3005 Y41.9198 F300.00
G01 X-25.3000 Y41.9100 F300.00
G00 X-25.3000 Y41.9100
G01 F60.00
G01 Z-2.0000
G01 F300.00
G01 X-25.3005 Y41.9002 F300.00
G01 X-25.3019 Y41.8905 F300.00
G01 X-25.3043 Y41.8810 F300.00
G01 X-25.3076 Y41.8717 F300.00
G01 X-25.3118 Y41.8629 F300.00
G01 X-25.3169 Y41.8544 F300.00
G01 X-25.3227 Y41.8466 F300.00
G01 X-25.3293 Y41.8393 F300.00
G01 X-25.3366 Y41.8327 F300.00
G01 X-25.3444 Y41.8269 F300.00
G01 X-25.3529 Y41.8218 F300.00
G01 X-25.3617 Y41.8176 F300.00
G01 X-25.3710 Y41.8143 F300.00
G01 X-25.3805 Y41.8119 F300.00
G01 X-25.3902 Y41.8105 F300.00
G01 X-25.4000 Y41.8100 F300.00
G01 X-25.4098 Y41.8105 F300.00
G01 X-25.4195 Y41.8119 F300.00
G01 X-25.4290 Y41.8143 F300.00
G01 X-25.4383 Y41.8176 F300.00
G01 X-25.4471 Y41.8218 F300.00
G01 X-25.4556 Y41.8269 F300.00
G01 X-25.4634 Y41.8327 F300.00
G01 X-25.4707 Y41.8393 F300.00
G01 X-25.4773 Y41.8466 F300.00
G01 X-25.4831 Y41.8544 F300.00
G01 X-25.4882 Y41.8629 F300.00
G01 X-25.4924 Y41.8717 F300.00
G01 X-25.4957 Y41.8810 F300.00
G01 X-25.4981 Y41.8905 F300.00
G01 X-25.4995 Y41.9002 F300.00
G01 X-25.5000 Y41.9100 F300.00
G01 X-25.4995 Y41.9198 F300.00
G01 X-25.4981 Y41.9295 F300.00
G01 X-25.4957 Y41.9390 F300.00
G01 X-25.4924 Y41.9483 F300.00
G01 X-25.4882 Y41.9571 F300.00
G01 X-25.4831 Y41.9656 F300.00
G01 X-25.4773 Y41.9734 F300.00
G01 X-25.4707 Y41.9807 F300.00
G01 X-25.4634 Y41.9873 F300.00
G01 X-25.4556 Y41.9931 F300.00
G01 X-25.4471 Y41.9982 F300.00
G01 X-25.4383 Y42.0024 F300.00
G01 X-25.4290 Y42.0057 F300.00
G01 X-25.4195 Y42.0081 F300.00
G01 X-25.4098 Y42.0095 F300.00
G01 X-25.4000 Y42.0100 F300.00
G01 X-25.3902 Y42.0095 F300.00
G01 X-25.3805 Y42.0081 F300.00
G01 X-25.3710 Y42.0057 F300.00
G01 X-25.3617 Y42.0024 F300.00
G01 X-25.3529 Y41.9982 F300.00
G01 X-25.3444 Y41.9931 F300.00
G01 X-25.3366 Y41.9873 F300.00
G01 X-25.3293 Y41.9807 F300.00
G01 X-25.3227 Y41.9734 F300.00
G01 X-25.3169 Y41.9656 F300.00
G01 X-25.3118 Y41.9571 F300.00
G01 X-25.3076 Y41.9483 F300.00
G01 X-25.3043 Y41.9390 F300.00
G01 X-25.3019 Y41.9295 F300.00
G01 X-25.3005 Y41.9198 F300.00
G01 X-25.3000 Y41.9100 F300.00
G00 Z0.5000
G00 X-25.3000 Y44.4500
G01 F60.00
G01 Z-1.0000
G01 F300.00
G01 X-25.3005 Y44.4402 F300.00
G01 X-25.3019 Y44.4305 F300.00
G01 X-25.3043 Y44.4210 F300.00
G01 X-25.3076 Y44.4117 F300.00
G01 X-25.3118 Y44.4029 F300.00
G01 X-25.3169 Y44.3944 F300.00
G01 X-25.3227 Y44.3866 F300.00
G01 X-25.3293 Y44.3793 F300.00
G01 X-25.3366 Y44.3727 F300.00
G01 X-25.3444 Y44.3669 F300.00
G01 X-25.3529 Y44.3618 F300.00
G01 X-25.3617 Y44.3576 F300.00
G01 X-25.3710 Y44.3543 F300.00
G01 X-25.3805 Y44.3519 F300.00
G01 X-25.3902 Y44.3505 F300.00
G01 X-25.4000 Y44.3500 F300.00
G01 X-25.4098 Y44.3505 F300.00
G01 X-25.4195 Y44.3519 F300.00
G01 X-25.4290 Y44.3543 F300.00
G01 X-25.4383 Y44.3576 F300.00
G01 X-25.4471 Y44.3618 F300.00
G01 X-25.4556 Y44.3669 F300.00
G01 X-25.4634 Y44.3727 F300.00
G01 X-25.4707 Y44.3793 F300.00
G01 X-25.4773 Y44.3866 F300.00
G01 X-25.4831 Y44.3944 F300.00
G01 X-25.4882 Y44.4029 F300.00
G01 X-25.4924 Y44.4117 F300.00
G01 X-25.4957 Y44.4210 F300.00
G01 X-25.4981 Y44.4305 F300.00
G01 X-25.4995 Y44.4402 F300.00
G01 X-25.5000 Y44.4500 F300.00
G01 X-25.4995 Y44.4598 F300.00
G01 X-25.4981 Y44.4695 F300.00
G01 X-25.4957 Y44.4790 F300.00
G01 X-25.4924 Y44.4883 F300.00
G01 X-25.4882 Y44.4971 F300.00
G01 X-25.4831 Y44.5056 F300.00
G01 X-25.4773 Y44.5134 F300.00
G01 X-25.4707 Y44.5207 F300.00
G01 X-25.4634 Y44.5273 F300.00
G01 X-25.4556 Y44.5331 F300.00
G01 X-25.4471 Y44.5382 F300.00
G01 X-25.4383 Y44.5424 F300.00
G01 X-25.4290 Y44.5457 F300.00
G01 X-25.4195 Y44.5481 F300.00
G01 X-25.4098 Y44.5495 F300.00
G01 X-25.4000 Y44.5500 F300.00
G01 X-25.3902 Y44.5495 F300.00
G01 X-25.3805 Y44.5481 F300.00
G01 X-25.3710 Y44.5457 F300.00
G01 X-25.3617 Y44.5424 F300.00
G01 X-25.3529 Y44.5382 F300.00
G01 X-25.3444 Y44.5331 F300.00
G01 X-25.3366 Y44.5273 F300.00
G01 X-25.3293 Y44.5207 F300.00
G01 X-25.3227 Y44.5134 F300.00
G01 X-25.3169 Y44.5056 F300.00
G01 X-25.3118 Y44.4971 F300.00
G01 X-25.3076 Y44.4883 F300.00
G01 X-25.3043 Y44.4790 F300.00
G01 X-25.3019 Y44.4695 F300.00
G01 X-25.3005 Y44.4598 F300.00
G01 X-25.3000 Y44.4500 F300.00
G00 X-25.3000 Y44.4500
G01 F60.00
G01 Z-2.0000
G01 F300.00
G01 X-25.3005 Y44.4402 F300.00
G01 X-25.3019 Y44.4305 F300.00
G01 X-25.3043 Y44.4210 F300.00
G01 X-25.3076 Y44.4117 F300.00
G01 X-25.3118 Y44.4029 F300.00
G01 X-25.3169 Y44.3944 F300.00
G01 X-25.3227 Y44.3866 F300.00
G01 X-25.3293 Y44.3793 F300.00
G01 X-25.3366 Y44.3727 F300.00
G01 X-25.3444 Y44.3669 F300.00
G01 X-25.3529 Y44.3618 F300.00
G01 X-25.3617 Y44.3576 F300.00
G01 X-25.3710 Y44.3543 F300.00
G01 X-25.3805 Y44.3519 F300.00
G01 X-25.3902 Y44.3505 F300.00
G01 X-25.4000 Y44.3500 F300.00
G01 X-25.4098 Y44.3505 F300.00
G01 X-25.4195 Y44.3519 F300.00
G01 X-25.4290 Y44.3543 F300.00
G01 X-25.4383 Y44.3576 F300.00
G01 X-25.4471 Y44.3618 F300.00
G01 X-25.4556 Y44.3669 F300.00
G01 X-25.4634 Y44.3727 F300.00
G01 X-25.4707 Y44.3793 F300.00
G01 X-25.4773 Y44.3866 F300.00
G01 X-25.4831 Y44.3944 F300.00
G01 X-25.4882 Y44.4029 F300.00
G01 X-25.4924 Y44.4117 F300.00
G01 X-25.4957 Y44.4210 F300.00
G01 X-25.4981 Y44.4305 F300.00
G01 X-25.4995 Y44.4402 F300.00
G01 X-25.5000 Y44.4500 F300.00
G01 X-25.4995 Y44.4598 F300.00
G01 X-25.4981 Y44.4695 F300.00
G01 X-25.4957 Y44.4790 F300.00
G01 X-25.4924 Y44.4883 F300.00
G01 X-25.4882 Y44.4971 F300.00
G01 X-25.4831 Y44.5056 F300.00
G01 X-25.4773 Y44.5134 F300.00
G01 X-25.4707 Y44.5207 F300.00
G01 X-25.4634 Y44.5273 F300.00
G01 X-25.4556 Y44.5331 F300.00
G01 X-25.4471 Y44.5382 F300.00
G01 X-25.4383 Y44.5424 F300.00
G01 X-25.4290 Y44.5457 F300.00
G01 X-25.4195 Y44.5481 F300.00
G01 X-25.4098 Y44.5495 F300.00
G01 X-25.4000 Y44.5500 F300.00
G01 X-25.3902 Y44.5495 F300.00
G01 X-25.3805 Y44.5481 F300.00
G01 X-25.3710 Y44.5457 F300.00
G01 X-25.3617 Y44.5424 F300.00
G01 X-25.3529 Y44.5382 F300.00
G01 X-25.3444 Y44.5331 F300.00
G01 X-25.3366 Y44.5273 F300.00
G01 X-25.3293 Y44.5207 F300.00
G01 X-25.3227 Y44.5134 F300.00
G01 X-25.3169 Y44.5056 F300.00
G01 X-25.3118 Y44.4971 F300.00
G01 X-25.3076 Y44.4883 F300.00
G01 X-25.3043 Y44.4790 F300.00
G01 X-25.3019 Y44.4695 F300.00
G01 X-25.3005 Y44.4598 F300.00
G01 X-25.3000 Y44.4500 F300.00
G00 Z0.5000
G00 X-25.3000 Y46.9900
G01 F60.00
G01 Z-1.0000
G01 F300.00
G01 X-25.3005 Y46.9802 F300.00
G01 X-25.3019 Y46.9705 F300.00
G01 X-25.3043 Y46.9610 F300.00
G01 X-25.3076 Y46.9517 F300.00
G01 X-25.3118 Y46.9429 F300.00
G01 X-25.3169 Y46.9344 F300.00
G01 X-25.3227 Y46.9266 F300.00
G01 X-25.3293 Y46.9193 F300.00
G01 X-25.3366 Y46.9127 F300.00
G01 X-25.3444 Y46.9069 F300.00
G01 X-25.3529 Y46.9018 F300.00
G01 X-25.3617 Y46.8976 F300.00
G01 X-25.3710 Y46.8943 F300.00
G01 X-25.3805 Y46.8919 F300.00
G01 X-25.3902 Y46.8905 F300.00
G01 X-25.4000 Y46.8900 F300.00
G01 X-25.4098 Y46.8905 F300.00
G01 X-25.4195 Y46.8919 F300.00
G01 X-25.4290 Y46.8943 F300.00
G01 X-25.4383 Y46.8976 F300.00
G01 X-25.4471 Y46.9018 F300.00
G01 X-25.4556 Y46.9069 F300.00
G01 X-25.4634 Y46.9127 F300.00
G01 X-25.4707 Y46.9193 F300.00
G01 X-25.4773 Y46.9266 F300.00
G01 X-25.4831 Y46.9344 F300.00
G01 X-25.4882 Y46.9429 F300.00
G01 X-25.4924 Y46.9517 F300.00
G01 X-25.4957 Y46.9610 F300.00
G01 X-25.4981 Y46.9705 F300.00
G01 X-25.4995 Y46.9802 F300.00
G01 X-25.5000 Y46.9900 F300.00
G01 X-25.4995 Y46.9998 F300.00
G01 X-25.4981 Y47.0095 F300.00
G01 X-25.4957 Y47.0190 F300.00
G01 X-25.4924 Y47.0283 F300.00
G01 X-25.4882 Y47.0371 F300.00
G01 X-25.4831 Y47.0456 F300.00
G01 X-25.4773 Y47.0534 F300.00
G01 X-25.4707 Y47.0607 F300.00
G01 X-25.4634 Y47.0673 F300.00
G01 X-25.4556 Y47.0731 F300.00
G01 X-25.4471 Y47.0782 F300.00
G01 X-25.4383 Y47.0824 F300.00
G01 X-25.4290 Y47.0857 F300.00
G01 X-25.4195 Y47.0881 F300.00
G01 X-25.4098 Y47.0895 F300.00
G01 X-25.4000 Y47.0900 F300.00
G01 X-25.3902 Y47.0895 F300.00
G01 X-25.3805 Y47.0881 F300.00
G01 X-25.3710 Y47.0857 F300.00
G01 X-25.3617 Y47.0824 F300.00
G01 X-25.3529 Y47.0782 F300.00
G01 X-25.3444 Y47.0731 F300.00
G01 X-25.3366 Y47.0673 F300.00
G01 X-25.3293 Y47.0607 F300.00
G01 X-25.3227 Y47.0534 F300.00
G01 X-25.3169 Y47.0456 F300.00
G01 X-25.3118 Y47.0371 F300.00
G01 X-25.3076 Y47.0283 F300.00
G01 X-25.3043 Y47.0190 F300.00
G01 X-25.3019 Y47.0095 F300.00
G01 X-25.3005 Y46.9998 F300.00
G01 X-25.3000 Y46.9900 F300.00
G00 X-25.3000 Y46.9900
G01 F60.00
G01 Z-2.0000
G01 F300.00
G01 X-25.3005 Y46.9802 F300.00
G01 X-25.3019 Y46.9705 F300.00
G01 X-25.3043 Y46.9610 F300.00
G01 X-25.3076 Y46.9517 F300.00
G01 X-25.3118 Y46.9429 F300.00
G01 X-25.3169 Y46.9344 F300.00
G01 X-25.3227 Y46.9266 F300.00
G01 X-25.3293 Y46.9193 F300.00
G01 X-25.3366 Y46.9127 F300.00
G01 X-25.3444 Y46.9069 F300.00
G01 X-25.3529 Y46.9018 F300.00
G01 X-25.3617 Y46.8976 F300.00
G01 X-25.3710 Y46.8943 F300.00
G01 X-25.3805 Y46.8919 F300.00
G01 X-25.3902 Y46.8905 F300.00
G01 X-25.4000 Y46.8900 F300.00
G01 X-25.4098 Y46.8905 F300.00
G01 X-25.4195 Y46.8919 F300.00
G01 X-25.4290 Y46.8943 F300.00
G01 X-25.4383 Y46.8976 F300.00
G01 X-25.4471 Y46.9018 F300.00
G01 X-25.4556 Y46.9069 F300.00
G01 X-25.4634 Y46.9127 F300.00
G01 X-25.4707 Y46.9193 F300.00
G01 X-25.4773 Y46.9266 F300.00
G01 X-25.4831 Y46.9344 F300.00
G01 X-25.4882 Y46.9429 F300.00
G01 X-25.4924 Y46.9517 F300.00
G01 X-25.4957 Y46.9610 F300.00
G01 X-25.4981 Y46.9705 F300.00
G01 X-25.4995 Y46.9802 F300.00
G01 X-25.5000 Y46.9900 F300.00
G01 X-25.4995 Y46.9998 F300.00
G01 X-25.4981 Y47.0095 F300.00
G01 X-25.4957 Y47.0190 F300.00
G01 X-25.4924 Y47.0283 F300.00
G01 X-25.4882 Y47.0371 F300.00
G01 X-25.4831 Y47.0456 F300.00
G01 X-25.4773 Y47.0534 F300.00
G01 X-25.4707 Y47.0607 F300.00
G01 X-25.4634 Y47.0673 F300.00
G01 X-25.4556 Y47.0731 F300.00
G01 X-25.4471 Y47.0782 F300.00
G01 X-25.4383 Y47.0824 F300.00
G01 X-25.4290 Y47.0857 F300.00
G01 X-25.4195 Y47.0881 F300.00
G01 X-25.4098 Y47.0895 F300.00
G01 X-25.4000 Y47.0900 F300.00
G01 X-25.3902 Y47.0895 F300.00
G01 X-25.3805 Y47.0881 F300.00
G01 X-25.3710 Y47.0857 F300.00
G01 X-25.3617 Y47.0824 F300.00
G01 X-25.3529 Y47.0782 F300.00
G01 X-25.3444 Y47.0731 F300.00
G01 X-25.3366 Y47.0673 F300.00
G01 X-25.3293 Y47.0607 F300.00
G01 X-25.3227 Y47.0534 F300.00
G01 X-25.3169 Y47.0456 F300.00
G01 X-25.3118 Y47.0371 F300.00
G01 X-25.3076 Y47.0283 F300.00
G01 X-25.3043 Y47.0190 F300.00
G01 X-25.3019 Y47.0095 F300.00
G01 X-25.3005 Y46.9998 F300.00
G01 X-25.3000 Y46.9900 F300.00
G00 Z0.5000
G00 X-24.3000 Y52.0700
G01 F60.00
G01 Z-1.0000
G01 F300.00
G01 X-24.3053 Y51.9622 F300.00
G01 X-24.3211 Y51.8554 F300.00
G01 X-24.3474 Y51.7507 F300.00
G01 X-24.3837 Y51.6490 F300.00
G01 X-24.4299 Y51.5515 F300.00
G01 X-24.4854 Y51.4589 F300.00
G01 X-24.5497 Y51.3722 F300.00
G01 X-24.6222 Y51.2922 F300.00
G01 X-24.7022 Y51.2197 F300.00
G01 X-24.7889 Y51.1554 F300.00
G01 X-24.8815 Y51.0999 F300.00
G01 X-24.9790 Y51.0537 F300.00
G01 X-25.0807 Y51.0174 F300.00
G01 X-25.1854 Y50.9911 F300.00
G01 X-25.2922 Y50.9753 F300.00
G01 X-25.4000 Y50.9700 F300.00
G01 X-25.5078 Y50.9753 F300.00
G01 X-25.6146 Y50.9911 F300.00
G01 X-25.7193 Y51.0174 F300.00
G01 X-25.8210 Y51.0537 F300.00
G01 X-25.9185 Y51.0999 F300.00
G01 X-26.0111 Y51.1554 F300.00
G01 X-26.0978 Y51.2197 F300.00
G01 X-26.1778 Y51.2922 F300.00
G01 X-26.2503 Y51.3722 F300.00
G01 X-26.3146 Y51.4589 F300.00
G01 X-26.3701 Y51.5515 F300.00
G01 X-26.4163 Y51.6490 F300.00
G01 X-26.4526 Y51.7507 F300.00
G01 X-26.4789 Y51.8554 F300.00
G01 X-26.4947 Y51.9622 F300.00
G01 X-26.5000 Y52.0700 F300.00
G01 X-26.4947 Y52.1778 F300.00
G01 X-26.4789 Y52.2846 F300.00
G01 X-26.4526 Y52.3893 F300.00
G01 X-26.4163 Y52.4910 F300.00
G01 X-26.3701 Y52.5885 F300.00
G01 X-26.3146 Y52.6811 F300.00
G01 X-26.2503 Y52.7678 F300.00
G01 X-26.1778 Y52.8478 F300.00
G01 X-26.0978 Y52.9203 F300.00
G01 X-26.0111 Y52.9846 F300.00
G01 X-25.9185 Y53.0401 F300.00
G01 X-25.8210 Y53.0863 F300.00
G01 X-25.7193 Y53.1226 F300.00
G01 X-25.6146 Y53.1489 F300.00
G01 X-25.5078 Y53.1647 F300.00
G01 X-25.4000 Y53.1700 F300.00
G01 X-25.2922 Y53.1647 F300.00
G01 X-25.1854 Y53.1489 F300.00
G01 X-25.0807 Y53.1226 F300.00
G01 X-24.9790 Y53.0863 F300.00
G01 X-24.8815 Y53.0401 F300.00
G01 X-24.7889 Y52.9846 F300.00
G01 X-24.7022 Y52.9203 F300.00
G01 X-24.6222 Y52.8478 F300.00
G01 X-24.5497 Y52.7678 F300.00
G01 X-24.4854 Y52.6811 F300.00
G01 X-24.4299 Y52.5885 F300.00
G01 X-24.3837 Y52.4910 F300.00
G01 X-24.3474 Y52.3893 F300.00
G01 X-24.3211 Y52.2846 F300.00
G01 X-24.3053 Y52.1778 F300.00
G01 X-24.3000 Y52.0700 F300.00
G00 X-24.3000 Y52.0700
G01 F60.00
G01 Z-2.0000
G01 F300.00
G01 X-24.3053 Y51.9622 F300.00
G01 X-24.3211 Y51.8554 F300.00
G01 X-24.3474 Y51.7507 F300.00
G01 X-24.3837 Y51.6490 F300.00
G01 X-24.4299 Y51.5515 F300.00
G01 X-24.4854 Y51.4589 F300.00
G01 X-24.5497 Y51.3722 F300.00
G01 X-24.6222 Y51.2922 F300.00
G01 X-24.7022 Y51.2197 F300.00
G01 X-24.7889 Y51.1554 F300.00
G01 X-24.8815 Y51.0999 F300.00
G01 X-24.9790 Y51.0537 F300.00
G01 X-25.0807 Y51.0174 F300.00
G01 X-25.1854 Y50.9911 F300.00
G01 X-25.2922 Y50.9753 F300.00
G01 X-25.4000 Y50.9700 F300.00
G01 X-25.5078 Y50.9753 F300.00
G01 X-25.6146 Y50.9911 F300.00
G01 X-25.7193 Y51.0174 F300.00
G01 X-25.8210 Y51.0537 F300.00
G01 X-25.9185 Y51.0999 F300.00
G01 X-26.0111 Y51.1554 F300.00
G01 X-26.0978 Y51.2197 F300.00
G01 X-26.1778 Y51.2922 F300.00
G01 X-26.2503 Y51.3722 F300.00
G01 X-26.3146 Y51.4589 F300.00
G01 X-26.3701 Y51.5515 F300.00
G01 X-26.4163 Y51.6490 F300.00
G01 X-26.4526 Y51.7507 F300.00
G01 X-26.4789 Y51.8554 F300.00
G01 X-26.4947 Y51.9622 F300.00
G01 X-26.5000 Y52.0700 F300.00
G01 X-26.4947 Y52.1778 F300.00
G01 X-26.4789 Y52.2846 F300.00
G01 X-26.4526 Y52.3893 F300.00
G01 X-26.4163 Y52.4910 F300.00
G01 X-26.3701 Y52.5885 F300.00
G01 X-26.3146 Y52.6811 F300.00
G01 X-26.2503 Y52.7678 F300.00
G01 X-26.1778 Y52.8478 F300.00
G01 X-26.0978 Y52.9203 F300.00
G01 X-26.0111 Y52.9846 F300.00
G01 X-25.9185 Y53.0401 F300.00
G01 X-25.8210 Y53.0863 F300.00
G01 X-25.7193 Y53.1226 F300.00
G01 X-25.6146 Y53.1489 F300.00
G01 X-25.5078 Y53.1647 F300.00
G01 X-25.4000 Y53.1700 F300.00
G01 X-25.2922 Y53.1647 F300.00
G01 X-25.1854 Y53.1489 F300.00
G01 X-25.0807 Y53.1226 F300.00
G01 X-24.9790 Y53.0863 F300.00
G01 X-24.8815 Y53.0401 F300.00
G01 X-24.7889 Y52.9846 F300.00
G01 X-24.7022 Y52.9203 F300.00
G01 X-24.6222 Y52.8478 F300.00
G01 X-24.5497 Y52.7678 F300.00
G01 X-24.4854 Y52.6811 F300.00
G01 X-24.4299 Y52.5885 F300.00
G01 X-24.3837 Y52.4910 F300.00
G01 X-24.3474 Y52.3893 F300.00
G01 X-24.3211 Y52.2846 F300.00
G01 X-24.3053 Y52.1778 F300.00
G01 X-24.3000 Y52.0700 F300.00
G00 Z0.5000
G00 X-20.2200 Y49.5300
G01 F60.00
G01 Z-1.0000
G01 F300.00
G01 X-20.2205 Y49.5202 F300.00
G01 X-20.2219 Y49.5105 F300.00
G01 X-20.2243 Y49.5010 F300.00
G01 X-20.2276 Y49.4917 F300.00
G01 X-20.2318 Y49.4829 F300.00
G01 X-20.2369 Y49.4744 F300.00
G01 X-20.2427 Y49.4666 F300.00
G01 X-20.2493 Y49.4593 F300.00
G01 X-20.2566 Y49.4527 F300.00
G01 X-20.2644 Y49.4469 F300.00
G01 X-20.2729 Y49.4418 F300.00
G01 X-20.2817 Y49.4376 F300.00
G01 X-20.2910 Y49.4343 F300.00
G01 X-20.3005 Y49.4319 F300.00
G01 X-20.3102 Y49.4305 F300.00
G01 X-20.3200 Y49.4300 F300.00
G01 X-20.3298 Y49.4305 F300.00
G01 X-20.3395 Y49.4319 F300.00
G01 X-20.3490 Y49.4343 F300.00
G01 X-20.3583 Y49.4376 F300.00
G01 X-20.3671 Y49.4418 F300.00
G01 X-20.3756 Y49.4469 F300.00
G01 X-20.3834 Y49.4527 F300.00
G01 X-20.3907 Y49.4593 F300.00
G01 X-20.3973 Y49.4666 F300.00
G01 X-20.4031 Y49.4744 F300.00
G01 X-20.4082 Y49.4829 F300.00
G01 X-20.4124 Y49.4917 F300.00
G01 X-20.4157 Y49.5010 F300.00
G01 X-20.4181 Y49.5105 F300.00
G01 X-20.4195 Y49.5202 F300.00
G01 X-20.4200 Y49.5300 F300.00
G01 X-20.4195 Y49.5398 F300.00
G01 X-20.4181 Y49.5495 F300.00
G01 X-20.4157 Y49.5590 F300.00
G01 X-20.4124 Y49.5683 F300.00
G01 X-20.4082 Y49.5771 F300.00
G01 X-20.4031 Y49.5856 F300.00
G01 X-20.3973 Y49.5934 F300.00
G01 X-20.3907 Y49.6007 F300.00
G01 X-20.3834 Y49.6073 F300.00
G01 X-20.3756 Y49.6131 F300.00
G01 X-20.3671 Y49.6182 F300.00
G01 X-20.3583 Y49.6224 F300.00
G01 X-20.3490 Y49.6257 F300.00
G01 X-20.3395 Y49.6281 F300.00
G01 X-20.3298 Y49.6295 F300.00
G01 X-20.3200 Y49.6300 F300.00
G01 X-20.3102 Y49.6295 F300.00
G01 X-20.3005 Y49.6281 F300.00
G01 X-20.2910 Y49.6257 F300.00
G01 X-20.2817 Y49.6224 F300.00
G01 X-20.2729 Y49.6182 F300.00
G01 X-20.2644 Y49.6131 F300.00
G01 X-20.2566 Y49.6073 F300.00
G01 X-20.2493 Y49.6007 F300.00
G01 X-20.2427 Y49.5934 F300.00
G01 X-20.2369 Y49.5856 F300.00
G01 X-20.2318 Y49.5771 F300.00
G01 X-20.2276 Y49.5683 F300.00
G01 X-20.2243 Y49.5590 F300.00
G01 X-20.2219 Y49.5495 F300.00
G01 X-20.2205 Y49.5398 F300.00
G01 X-20.2200 Y49.5300 F300.00
G00 X-20.2200 Y49.5300
G01 F60.00
G01 Z-2.0000
G01 F300.00
G01 X-20.2205 Y49.5202 F300.00
G01 X-20.2219 Y49.5105 F300.00
G01 X-20.2243 Y49.5010 F300.00
G01 X-20.2276 Y49.4917 F300.00
G01 X-20.2318 Y49.4829 F300.00
G01 X-20.2369 Y49.4744 F300.00
G01 X-20.2427 Y49.4666 F300.00
G01 X-20.2493 Y49.4593 F300.00
G01 X-20.2566 Y49.4527 F300.00
G01 X-20.2644 Y49.4469 F300.00
G01 X-20.2729 Y49.4418 F300.00
G01 X-20.2817 Y49.4376 F300.00
G01 X-20.2910 Y49.4343 F300.00
G01 X-20.3005 Y49.4319 F300.00
G01 X-20.3102 Y49.4305 F300.00
G01 X-20.3200 Y49.4300 F300.00
G01 X-20.3298 Y49.4305 F300.00
G01 X-20.3395 Y49.4319 F300.00
G01 X-20.3490 Y49.4343 F300.00
G01 X-20.3583 Y49.4376 F300.00
G01 X-20.3671 Y49.4418 F300.00
G01 X-20.3756 Y49.4469 F300.00
G01 X-20.3834 Y49.4527 F300.00
G01 X-20.3907 Y49.4593 F300.00
G01 X-20.3973 Y49.4666 F300.00
G01 X-20.4031 Y49.4744 F300.00
G01 X-20.4082 Y49.4829 F300.00
G01 X-20.4124 Y49.4917 F300.00
G01 X-20.4157 Y49.5010 F300.00
G01 X-20.4181 Y49.5105 F300.00
G01 X-20.4195 Y49.5202 F300.00
G01 X-20.4200 Y49.5300 F300.00
G01 X-20.4195 Y49.5398 F300.00
G01 X-20.4181 Y49.5495 F300.00
G01 X-20.4157 Y49.5590 F300.00
G01 X-20.4124 Y49.5683 F300.00
G01 X-20.4082 Y49.5771 F300.00
G01 X-20.4031 Y49.5856 F300.00
G01 X-20.3973 Y49.5934 F300.00
G01 X-20.3907 Y49.6007 F300.00
G01 X-20.3834 Y49.6073 F300.00
G01 X-20.3756 Y49.6131 F300.00
G01 X-20.3671 Y49.6182 F300.00
G01 X-20.3583 Y49.6224 F300.00
G01 X-20.3490 Y49.6257 F300.00
G01 X-20.3395 Y49.6281 F300.00
G01 X-20.3298 Y49.6295 F300.00
G01 X-20.3200 Y49.6300 F300.00
G01 X-20.3102 Y49.6295 F300.00
G01 X-20.3005 Y49.6281 F300.00
G01 X-20.2910 Y49.6257 F300.00
G01 X-20.2817 Y49.6224 F300.00
G01 X-20.2729 Y49.6182 F300.00
G01 X-20.2644 Y49.6131 F300.00
G01 X-20.2566 Y49.6073 F300.00
G01 X-20.2493 Y49.6007 F300.00
G01 X-20.2427 Y49.5934 F300.00
G01 X-20.2369 Y49.5856 F300.00
G01 X-20.2318 Y49.5771 F300.00
G01 X-20.2276 Y49.5683 F300.00
G01 X-20.2243 Y49.5590 F300.00
G01 X-20.2219 Y49.5495 F300.00
G01 X-20.2205 Y49.5398 F300.00
G01 X-20.2200 Y49.5300 F300.00
G00 Z0.5000
G00 X-17.6800 Y49.5300
G01 F60.00
G01 Z-1.0000
G01 F300.00
G01 X-17.6805 Y49.5202 F300.00
G01 X-17.6819 Y49.5105 F300.00
G01 X-17.6843 Y49.5010 F300.00
G01 X-17.6876 Y49.4917 F300.00
G01 X-17.6918 Y49.4829 F300.00
G01 X-17.6969 Y49.4744 F300.00
G01 X-17.7027 Y49.4666 F300.00
G01 X-17.7093 Y49.4593 F300.00
G01 X-17.7166 Y49.4527 F300.00
G01 X-17.7244 Y49.4469 F300.00
G01 X-17.7329 Y49.4418 F300.00
G01 X-17.7417 Y49.4376 F300.00
G01 X-17.7510 Y49.4343 F300.00
G01 X-17.7605 Y49.4319 F300.00
G01 X-17.7702 Y49.4305 F300.00
G01 X-17.7800 Y49.4300 F300.00
G01 X-17.7898 Y49.4305 F300.00
G01 X-17.7995 Y49.4319 F300.00
G01 X-17.8090 Y49.4343 F300.00
G01 X-17.8183 Y49.4376 F300.00
G01 X-17.8271 Y49.4418 F300.00
G01 X-17.8356 Y49.4469 F300.00
G01 X-17.8434 Y49.4527 F300.00
G01 X-17.8507 Y49.4593 F300.00
G01 X-17.8573 Y49.4666 F300.00
G01 X-17.8631 Y49.4744 F300.00
G01 X-17.8682 Y49.4829 F300.00
G01 X-17.8724 Y49.4917 F300.00
G01 X-17.8757 Y49.5010 F300.00
G01 X-17.8781 Y49.5105 F300.00
G01 X-17.8795 Y49.5202 F300.00
G01 X-17.8800 Y49.5300 F300.00
G01 X-17.8795 Y49.5398 F300.00
G01 X-17.8781 Y49.5495 F300.00
G01 X-17.8757 Y49.5590 F300.00
G01 X-17.8724 Y49.5683 F300.00
G01 X-17.8682 Y49.5771 F300.00
G01 X-17.8631 Y49.5856 F300.00
G01 X-17.8573 Y49.5934 F300.00
G01 X-17.8507 Y49.6007 F300.00
G01 X-17.8434 Y49.6073 F300.00
G01 X-17.8356 Y49.6131 F300.00
G01 X-17.8271 Y49.6182 F300.00
G01 X-17.8183 Y49.6224 F300.00
G01 X-17.8090 Y49.6257 F300.00
G01 X-17.7995 Y49.6281 F300.00
G01 X-17.7898 Y49.6295 F300.00
G01 X-17.7800 Y49.6300 F300.00
G01 X-17.7702 Y49.6295 F300.00
G01 X-17.7605 Y49.6281 F300.00
G01 X-17.7510 Y49.6257 F300.00
G01 X-17.7417 Y49.6224 F300.00
G01 X-17.7329 Y49.6182 F300.00
G01 X-17.7244 Y49.6131 F300.00
G01 X-17.7166 Y49.6073 F300.00
G01 X-17.7093 Y49.6007 F300.00
G01 X-17.7027 Y49.5934 F300.00
G01 X-17.6969 Y49.5856 F300.00
G01 X-17.6918 Y49.5771 F300.00
G01 X-17.6876 Y49.5683 F300.00
G01 X-17.6843 Y49.5590 F300.00
G01 X-17.6819 Y49.5495 F300.00
G01 X-17.6805 Y49.5398 F300.00
G01 X-17.6800 Y49.5300 F300.00
G00 X-17.6800 Y49.5300
G01 F60.00
G01 Z-2.0000
G01 F300.00
G01 X-17.6805 Y49.5202 F300.00
G01 X-17.6819 Y49.5105 F300.00
G01 X-17.6843 Y49.5010 F300.00
G01 X-17.6876 Y49.4917 F300.00
G01 X-17.6918 Y49.4829 F300.00
G01 X-17.6969 Y49.4744 F300.00
G01 X-17.7027 Y49.4666 F300.00
G01 X-17.7093 Y49.4593 F300.00
G01 X-17.7166 Y49.4527 F300.00
G01 X-17.7244 Y49.4469 F300.00
G01 X-17.7329 Y49.4418 F300.00
G01 X-17.7417 Y49.4376 F300.00
G01 X-17.7510 Y49.4343 F300.00
G01 X-17.7605 Y49.4319 F300.00
G01 X-17.7702 Y49.4305 F300.00
G01 X-17.7800 Y49.4300 F300.00
G01 X-17.7898 Y49.4305 F300.00
G01 X-17.7995 Y49.4319 F300.00
G01 X-17.8090 Y49.4343 F300.00
G01 X-17.8183 Y49.4376 F300.00
G01 X-17.8271 Y49.4418 F300.00
G01 X-17.8356 Y49.4469 F300.00
G01 X-17.8434 Y49.4527 F300.00
G01 X-17.8507 Y49.4593 F300.00
G01 X-17.8573 Y49.4666 F300.00
G01 X-17.8631 Y49.4744 F300.00
G01 X-17.8682 Y49.4829 F300.00
G01 X-17.8724 Y49.4917 F300.00
G01 X-17.8757 Y49.5010 F300.00
G01 X-17.8781 Y49.5105 F300.00
G01 X-17.8795 Y49.5202 F300.00
G01 X-17.8800 Y49.5300 F300.00
G01 X-17.8795 Y49.5398 F300.00
G01 X-17.8781 Y49.5495 F300.00
G01 X-17.8757 Y49.5590 F300.00
G01 X-17.8724 Y49.5683 F300.00
G01 X-17.8682 Y49.5771 F300.00
G01 X-17.8631 Y49.5856 F300.00
G01 X-17.8573 Y49.5934 F300.00
G01 X-17.8507 Y49.6007 F300.00
G01 X-17.8434 Y49.6073 F300.00
G01 X-17.8356 Y49.6131 F300.00
G01 X-17.8271 Y49.6182 F300.00
G01 X-17.8183 Y49.6224 F300.00
G01 X-17.8090 Y49.6257 F300.00
G01 X-17.7995 Y49.6281 F300.00
G01 X-17.7898 Y49.6295 F300.00
G01 X-17.7800 Y49.6300 F300.00
G01 X-17.7702 Y49.6295 F300.00
G01 X-17.7605 Y49.6281 F300.00
G01 X-17.7510 Y49.6257 F300.00
G01 X-17.7417 Y49.6224 F300.00
G01 X-17.7329 Y49.6182 F300.00
G01 X-17.7244 Y49.6131 F300.00
G01 X-17.7166 Y49.6073 F300.00
G01 X-17.7093 Y49.6007 F300.00
G01 X-17.7027 Y49.5934 F300.00
G01 X-17.6969 Y49.5856 F300.00
G01 X-17.6918 Y49.5771 F300.00
G01 X-17.6876 Y49.5683 F300.00
G01 X-17.6843 Y49.5590 F300.00
G01 X-17.6819 Y49.5495 F300.00
G01 X-17.6805 Y49.5398 F300.00
G01 X-17.6800 Y49.5300 F300.00
G00 Z0.5000
G00 X-15.1400 Y49.5300
G01 F60.00
G01 Z-1.0000
G01 F300.00
G01 X-15.1405 Y49.5202 F300.00
G01 X-15.1419 Y49.5105 F300.00
G01 X-15.1443 Y49.5010 F300.00
G01 X-15.1476 Y49.4917 F300.00
G01 X-15.1518 Y49.4829 F300.00
G01 X-15.1569 Y49.4744 F300.00
G01 X-15.1627 Y49.4666 F300.00
G01 X-15.1693 Y49.4593 F300.00
G01 X-15.1766 Y49.4527 F300.00
G01 X-15.1844 Y49.4469 F300.00
G01 X-15.1929 Y49.4418 F300.00
G01 X-15.2017 Y49.4376 F300.00
G01 X-15.2110 Y49.4343 F300.00
G01 X-15.2205 Y49.4319 F300.00
G01 X-15.2302 Y49.4305 F300.00
G01 X-15.2400 Y49.4300 F300.00
G01 X-15.2498 Y49.4305 F300.00
G01 X-15.2595 Y49.4319 F300.00
G01 X-15.2690 Y49.4343 F300.00
G01 X-15.2783 Y49.4376 F300.00
G01 X-15.2871 Y49.4418 F300.00
G01 X-15.2956 Y49.4469 F300.00
G01 X-15.3034 Y49.4527 F300.00
G01 X-15.3107 Y49.4593 F300.00
G01 X-15.3173 Y49.4666 F300.00
G01 X-15.3231 Y49.4744 F300.00
G01 X-15.3282 Y49.4829 F300.00
G01 X-15.3324 Y49.4917 F300.00
G01 X-15.3357 Y49.5010 F300.00
G01 X-15.3381 Y49.5105 F300.00
G01 X-15.3395 Y49.5202 F300.00
G01 X-15.3400 Y49.5300 F300.00
G01 X-15.3395 Y49.5398 F300.00
G01 X-15.3381 Y49.5495 F300.00
G01 X-15.3357 Y49.5590 F300.00
G01 X-15.3324 Y49.5683 F300.00
G01 X-15.3282 Y49.5771 F300.00
G01 X-15.3231 Y49.5856 F300.00
G01 X-15.3173 Y49.5934 F300.00
G01 X-15.3107 Y49.6007 F300.00
G01 X-15.3034 Y49.6073 F300.00
G01 X-15.2956 Y49.6131 F300.00
G01 X-15.2871 Y49.6182 F300.00
G01 X-15.2783 Y49.6224 F300.00
G01 X-15.2690 Y49.6257 F300.00
G01 X-15.2595 Y49.6281 F300.00
G01 X-15.2498 Y49.6295 F300.00
G01 X-15.2400 Y49.6300 F300.00
G01 X-15.2302 Y49.6295 F300.00
G01 X-15.2205 Y49.6281 F300.00
G01 X-15.2110 Y49.6257 F300.00
G01 X-15.2017 Y49.6224 F300.00
G01 X-15.1929 Y49.6182 F300.00
G01 X-15.1844 Y49.6131 F300.00
G01 X-15.1766 Y49.6073 F300.00
G01 X-15.1693 Y49.6007 F300.00
G01 X-15.1627 Y49.5934 F300.00
G01 X-15.1569 Y49.5856 F300.00
G01 X-15.1518 Y49.5771 F300.00
G01 X-15.1476 Y49.5683 F300.00
G01 X-15.1443 Y49.5590 F300.00
G01 X-15.1419 Y49.5495 F300.00
G01 X-15.1405 Y49.5398 F300.00
G01 X-15.1400 Y49.5300 F300.00
G00 X-15.1400 Y49.5300
G01 F60.00
G01 Z-2.0000
G01 F300.00
G01 X-15.1405 Y49.5202 F300.00
G01 X-15.1419 Y49.5105 F300.00
G01 X-15.1443 Y49.5010 F300.00
G01 X-15.1476 Y49.4917 F300.00
G01 X-15.1518 Y49.4829 F300.00
G01 X-15.1569 Y49.4744 F300.00
G01 X-15.1627 Y49.4666 F300.00
G01 X-15.1693 Y49.4593 F300.00
G01 X-15.1766 Y49.4527 F300.00
G01 X-15.1844 Y49.4469 F300.00
G01 X-15.1929 Y49.4418 F300.00
G01 X-15.2017 Y49.4376 F300.00
G01 X-15.2110 Y49.4343 F300.00
G01 X-15.2205 Y49.4319 F300.00
G01 X-15.2302 Y49.4305 F300.00
G01 X-15.2400 Y49.4300 F300.00
G01 X-15.2498 Y49.4305 F300.00
G01 X-15.2595 Y49.4319 F300.00
G01 X-15.2690 Y49.4343 F300.00
G01 X-15.2783 Y49.4376 F300.00
G01 X-15.2871 Y49.4418 F300.00
G01 X-15.2956 Y49.4469 F300.00
G01 X-15.3034 Y49.4527 F300.00
G01 X-15.3107 Y49.4593 F300.00
G01 X-15.3173 Y49.4666 F300.00
G01 X-15.3231 Y49.4744 F300.00
G01 X-15.3282 Y49.4829 F300.00
G01 X-15.3324 Y49.4917 F300.00
G01 X-15.3357 Y49.5010 F300.00
G01 X-15.3381 Y49.5105 F300.00
G01 X-15.3395 Y49.5202 F300.00
G01 X-15.3400 Y49.5300 F300.00
G01 X-15.3395 Y49.5398 F300.00
G01 X-15.3381 Y49.5495 F300.00
G01 X-15.3357 Y49.5590 F300.00
G01 X-15.3324 Y49.5683 F300.00
G01 X-15.3282 Y49.5771 F300.00
G01 X-15.3231 Y49.5856 F300.00
G01 X-15.3173 Y49.5934 F300.00
G01 X-15.3107 Y49.6007 F300.00
G01 X-15.3034 Y49.6073 F300.00
G01 X-15.2956 Y49.6131 F300.00
G01 X-15.2871 Y49.6182 F300.00
G01 X-15.2783 Y49.6224 F300.00
G01 X-15.2690 Y49.6257 F300.00
G01 X-15.2595 Y49.6281 F300.00
G01 X-15.2498 Y49.6295 F300.00
G01 X-15.2400 Y49.6300 F300.00
G01 X-15.2302 Y49.6295 F300.00
G01 X-15.2205 Y49.6281 F300.00
G01 X-15.2110 Y49.6257 F300.00
G01 X-15.2017 Y49.6224 F300.00
G01 X-15.1929 Y49.6182 F300.00
G01 X-15.1844 Y49.6131 F300.00
G01 X-15.1766 Y49.6073 F300.00
G01 X-15.1693 Y49.6007 F300.00
G01 X-15.1627 Y49.5934 F300.00
G01 X-15.1569 Y49.5856 F300.00
G01 X-15.1518 Y49.5771 F300.00
G01 X-15.1476 Y49.5683 F300.00
G01 X-15.1443 Y49.5590 F300.00
G01 X-15.1419 Y49.5495 F300.00
G01 X-15.1405 Y49.5398 F300.00
G01 X-15.1400 Y49.5300 F300.00
G00 Z0.5000
G00 X-11.3300 Y49.5300
G01 F60.00
G01 Z-1.0000
G01 F300.00
G01 X-11.3305 Y49.5202 F300.00
G01 X-11.3319 Y49.5105 F300.00
G01 X-11.3343 Y49.5010 F300.00
G01 X-11.3376 Y49.4917 F300.00
G01 X-11.3418 Y49.4829 F300.00
G01 X-11.3469 Y49.4744 F300.00
G01 X-11.3527 Y49.4666 F300.00
G01 X-11.3593 Y49.4593 F300.00
G01 X-11.3666 Y49.4527 F300.00
G01 X-11.3744 Y49.4469 F300.00
G01 X-11.3829 Y49.4418 F300.00
G01 X-11.3917 Y49.4376 F300.00
G01 X-11.4010 Y49.4343 F300.00
G01 X-11.4105 Y49.4319 F300.00
G01 X-11.4202 Y49.4305 F300.00
G01 X-11.4300 Y49.4300 F300.00
G01 X-11.4398 Y49.4305 F300.00
G01 X-11.4495 Y49.4319 F300.00
G01 X-11.4590 Y49.4343 F300.00
G01 X-11.4683 Y49.4376 F300.00
G01 X-11.4771 Y49.4418 F300.00
G01 X-11.4856 Y49.4469 F300.00
G01 X-11.4934 Y49.4527 F300.00
G01 X-11.5007 Y49.4593 F300.00
G01 X-11.5073 Y49.4666 F300.00
G01 X-11.5131 Y49.4744 F300.00
G01 X-11.5182 Y49.4829 F300.00
G01 X-11.5224 Y49.4917 F300.00
G01 X-11.5257 Y49.5010 F300.00
G01 X-11.5281 Y49.5105 F300.00
G01 X-11.5295 Y49.5202 F300.00
G01 X-11.5300 Y49.5300 F300.00
G01 X-11.5295 Y49.5398 F300.00
G01 X-11.5281 Y49.5495 F300.00
G01 X-11.5257 Y49.5590 F300.00
G01 X-11.5224 Y49.5683 F300.00
G01 X-11.5182 Y49.5771 F300.00
G01 X-11.5131 Y49.5856 F300.00
G01 X-11.5073 Y49.5934 F300.00
G01 X-11.5007 Y49.6007 F300.00
G01 X-11.4934 Y49.6073 F300.00
G01 X-11.4856 Y49.6131 F300.00
G01 X-11.4771 Y49.6182 F300.00
G01 X-11.4683 Y49.6224 F300.00
G01 X-11.4590 Y49.6257 F300.00
G01 X-11.4495 Y49.6281 F300.00
G01 X-11.4398 Y49.6295 F300.00
G01 X-11.4300 Y49.6300 F300.00
G01 X-11.4202 Y49.6295 F300.00
G01 X-11.4105 Y49.6281 F300.00
G01 X-11.4010 Y49.6257 F300.00
G01 X-11.3917 Y49.6224 F300.00
G01 X-11.3829 Y49.6182 F300.00
G01 X-11.3744 Y49.6131 F300.00
G01 X-11.3666 Y49.6073 F300.00
G01 X-11.3593 Y49.6007 F300.00
G01 X-11.3527 Y49.5934 F300.00
G01 X-11.3469 Y49.5856 F300.00
G01 X-11.3418 Y49.5771 F300.00
G01 X-11.3376 Y49.5683 F300.00
G01 X-11.3343 Y49.5590 F300.00
G01 X-11.3319 Y49.5495 F300.00
G01 X-11.3305 Y49.5398 F300.00
G01 X-11.3300 Y49.5300 F300.00
G00 X-11.3300 Y49.5300
G01 F60.00
G01 Z-2.0000
G01 F300.00
G01 X-11.3305 Y49.5202 F300.00
G01 X-11.3319 Y49.5105 F300.00
G01 X-11.3343 Y49.5010 F300.00
G01 X-11.3376 Y49.4917 F300.00
G01 X-11.3418 Y49.4829 F300.00
G01 X-11.3469 Y49.4744 F300.00
G01 X-11.3527 Y49.4666 F300.00
G01 X-11.3593 Y49.4593 F300.00
G01 X-11.3666 Y49.4527 F300.00
G01 X-11.3744 Y49.4469 F300.00
G01 X-11.3829 Y49.4418 F300.00
G01 X-11.3917 Y49.4376 F300.00
G01 X-11.4010 Y49.4343 F300.00
G01 X-11.4105 Y49.4319 F300.00
G01 X-11.4202 Y49.4305 F300.00
G01 X-11.4300 Y49.4300 F300.00
G01 X-11.4398 Y49.4305 F300.00
G01 X-11.4495 Y49.4319 F300.00
G01 X-11.4590 Y49.4343 F300.00
G01 X-11.4683 Y49.4376 F300.00
G01 X-11.4771 Y49.4418 F300.00
G01 X-11.4856 Y49.4469 F300.00
G01 X-11.4934 Y49.4527 F300.00
G01 X-11.5007 Y49.4593 F300.00
G01 X-11.5073 Y49.4666 F300.00
G01 X-11.5131 Y49.4744 F300.00
G01 X-11.5182 Y49.4829 F300.00
G01 X-11.5224 Y49.4917 F300.00
G01 X-11.5257 Y49.5010 F300.00
G01 X-11.5281 Y49.5105 F300.00
G01 X-11.5295 Y49.5202 F300.00
G01 X-11.5300 Y49.5300 F300.00
G01 X-11.5295 Y49.5398 F300.00
G01 X-11.5281 Y49.5495 F300.00
G01 X-11.5257 Y49.5590 F300.00
G01 X-11.5224 Y49.5683 F300.00
G01 X-11.5182 Y49.5771 F300.00
G01 X-11.5131 Y49.5856 F300.00
G01 X-11.5073 Y49.5934 F300.00
G01 X-11.5007 Y49.6007 F300.00
G01 X-11.4934 Y49.6073 F300.00
G01 X-11.4856 Y49.6131 F300.00
G01 X-11.4771 Y49.6182 F300.00
G01 X-11.4683 Y49.6224 F300.00
G01 X-11.4590 Y49.6257 F300.00
G01 X-11.4495 Y49.6281 F300.00
G01 X-11.4398 Y49.6295 F300.00
G01 X-11.4300 Y49.6300 F300.00
G01 X-11.4202 Y49.6295 F300.00
G01 X-11.4105 Y49.6281 F300.00
G01 X-11.4010 Y49.6257 F300.00
G01 X-11.3917 Y49.6224 F300.00
G01 X-11.3829 Y49.6182 F300.00
G01 X-11.3744 Y49.6131 F300.00
G01 X-11.3666 Y49.6073 F300.00
G01 X-11.3593 Y49.6007 F300.00
G01 X-11.3527 Y49.5934 F300.00
G01 X-11.3469 Y49.5856 F300.00
G01 X-11.3418 Y49.5771 F300.00
G01 X-11.3376 Y49.5683 F300.00
G01 X-11.3343 Y49.5590 F300.00
G01 X-11.3319 Y49.5495 F300.00
G01 X-11.3305 Y49.5398 F300.00
G01 X-11.3300 Y49.5300 F300.00
G00 Z0.5000
G00 X-8.7900 Y49.5300
G01 F60.00
G01 Z-1.0000
G01 F300.00
G01 X-8.7905 Y49.5202 F300.00
G01 X-8.7919 Y49.5105 F300.00
G01 X-8.7943 Y49.5010 F300.00
G01 X-8.7976 Y49.4917 F300.00
G01 X-8.8018 Y49.4829 F300.00
G01 X-8.8069 Y49.4744 F300.00
G01 X-8.8127 Y49.4666 F300.00
G01 X-8.8193 Y49.4593 F300.00
G01 X-8.8266 Y49.4527 F300.00
G01 X-8.8344 Y49.4469 F300.00
G01 X-8.8429 Y49.4418 F300.00
G01 X-8.8517 Y49.4376 F300.00
G01 X-8.8610 Y49.4343 F300.00
G01 X-8.8705 Y49.4319 F300.00
G01 X-8.8802 Y49.4305 F300.00
G01 X-8.8900 Y49.4300 F300.00
G01 X-8.8998 Y49.4305 F300.00
G01 X-8.9095 Y49.4319 F300.00
G01 X-8.9190 Y49.4343 F300.00
G01 X-8.9283 Y49.4376 F300.00
G01 X-8.9371 Y49.4418 F300.00
G01 X-8.9456 Y49.4469 F300.00
G01 X-8.9534 Y49.4527 F300.00
G01 X-8.9607 Y49.4593 F300.00
G01 X-8.9673 Y49.4666 F300.00
G01 X-8.9731 Y49.4744 F300.00
G01 X-8.9782 Y49.4829 F300.00
G01 X-8.9824 Y49.4917 F300.00
G01 X-8.9857 Y49.5010 F300.00
G01 X-8.9881 Y49.5105 F300.00
G01 X-8.9895 Y49.5202 F300.00
G01 X-8.9900 Y49.5300 F300.00
G01 X-8.9895 Y49.5398 F300.00
G01 X-8.9881 Y49.5495 F300.00
G01 X-8.9857 Y49.5590 F300.00
G01 X-8.9824 Y49.5683 F300.00
G01 X-8.9782 Y49.5771 F300.00
G01 X-8.9731 Y49.5856 F300.00
G01 X-8.9673 Y49.5934 F300.00
G01 X-8.9607 Y49.6007 F300.00
G01 X-8.9534 Y49.6073 F300.00
G01 X-8.9456 Y49.6131 F300.00
G01 X-8.9371 Y49.6182 F300.00
G01 X-8.9283 Y49.6224 F300.00
G01 X-8.9190 Y49.6257 F300.00
G01 X-8.9095 Y49.6281 F300.00
G01 X-8.8998 Y49.6295 F300.00
