(G-CODE GENERATED BY FLATCAM v8.994 - www.flatcam.org - Version Date: 2020/11/7)

(Name: profile.gbr_cutout_cnc)
(Type: G-code from Geometry)
(Units: MM)

(Created on Saturday, 14 November 2020 at 13:47)

(This preprocessor is used with a motion controller loaded with GRBL firmware.)
(It is configured to be compatible with almost any version of GRBL firmware.)

(TOOL DIAMETER: 0.8 mm)
(Feedrate_XY: 300.0 mm/min)
(Feedrate_Z: 60.0 mm/min)
(Feedrate rapids 1500.0 mm/min)

(Z_Cut: -2.0 mm)
(DepthPerCut: 1.0 mm <=>2 passes)
(Z_Move: 0.5 mm)
(Z Start: None mm)
(Z End: 15.0 mm)
(X,Y End: 0.0000, 0.0000 mm)
(Steps per circle: 64)
(Steps per circle: 64)
(Preprocessor Geometry: GRBL_11_no_M6)

(X range:  -55.1371 ...    0.5271  mm)
(Y range:   -0.5271 ...   56.4071  mm)

(Spindle Speed: None RPM)
G21
G90
G17
G94


G01 F300.00
G00 Z0.5000

M03
G00 X0.5271 Y27.4400
G01 F60.00
G01 Z-1.0000
G01 F300.00
G01 X0.5271 Y-0.5271 F300.00
G01 X-55.1371 Y-0.5271 F300.00
G01 X-55.1371 Y27.4400 F300.00
G00 X-55.1371 Y27.4400
G01 F60.00
G01 Z-2.0000
G01 F300.00
G01 X-55.1371 Y-0.5271 F300.00
G01 X0.5271 Y-0.5271 F300.00
G01 X0.5271 Y27.4400 F300.00
G00 Z0.5000
G00 X0.5271 Y28.4400
G01 F60.00
G01 Z-1.0000
G01 F300.00
G01 X0.5271 Y56.4071 F300.00
G01 X-55.1371 Y56.4071 F300.00
G01 X-55.1371 Y28.4400 F300.00
G00 X-55.1371 Y28.4400
G01 F60.00
G01 Z-2.0000
G01 F300.00
G01 X-55.1371 Y56.4071 F300.00
G01 X0.5271 Y56.4071 F300.00
G01 X0.5271 Y28.4400 F300.00
G00 Z0.5000
M05
G00 Z0.5000
G00 Z15.00
G00 X0.0 Y0.0


